<?xml version="1.0" encoding="UTF-8"?>
<map version="1.10" tiledversion="1.12.1" orientation="orthogonal" renderorder="right-down" width="372" height="152" tilewidth="16" tileheight="16" infinite="0" nextlayerid="11" nextobjectid="1619">
 <editorsettings>
  <export target="Level2.json" format="json"/>
 </editorsettings>
 <tileset firstgid="1" source="Tilesets/FullTiles.tsx"/>
 <imagelayer id="2" name="Calque d'Images 1" visible="0" locked="1">
  <image source="colorMaplevel2.png" width="5952" height="2432"/>
 </imagelayer>
 <layer id="10" name="BackGroundFirst" width="372" height="152" visible="0">
  <data encoding="csv">
0,0,0,0,0,0,0,0,0,0,0,0,0,0,0,0,0,0,0,0,0,0,0,0,0,0,0,0,0,0,0,0,0,0,0,0,0,0,0,0,47,47,0,0,0,0,0,0,0,0,0,0,0,0,0,0,0,0,0,0,0,0,0,0,0,0,0,0,0,0,0,0,0,0,0,0,0,0,0,0,0,0,0,0,0,0,0,0,0,0,0,0,0,0,0,0,0,0,0,0,0,0,0,0,0,0,0,0,0,0,0,0,0,0,0,0,0,0,0,0,0,0,0,0,0,0,0,0,0,0,0,0,0,0,0,0,0,0,0,0,0,0,0,0,0,0,0,0,0,0,0,0,0,0,0,0,0,0,0,0,0,0,0,0,0,0,0,0,0,0,0,0,0,0,0,0,0,0,0,0,0,0,0,0,0,0,0,0,0,0,0,0,0,0,0,0,0,0,0,0,0,0,0,0,0,0,0,0,0,0,0,0,0,0,0,0,0,0,0,0,0,0,0,0,0,0,0,0,0,0,0,0,0,0,0,0,0,0,0,0,0,0,0,0,0,0,0,0,0,0,0,0,0,0,0,0,0,0,0,0,0,0,0,0,0,0,0,0,0,0,48,48,47,48,48,47,47,47,48,47,48,48,47,48,47,47,48,48,48,47,47,47,48,48,48,48,47,48,47,47,0,0,0,0,0,0,0,0,0,0,0,0,0,0,0,0,0,0,0,0,0,0,0,0,0,0,0,0,0,0,0,0,0,0,0,0,0,0,0,0,0,0,0,0,0,0,0,0,47,48,48,47,47,48,47,47,48,48,47,48,48,48,48,48,48,48,47,48,47,47,48,47,
0,0,0,0,0,0,0,0,0,0,0,0,0,0,0,0,0,0,0,0,0,0,0,0,0,0,0,0,0,0,0,0,0,0,0,0,0,0,0,0,47,47,0,0,0,0,0,0,0,0,0,0,0,0,0,0,0,0,0,0,0,0,0,0,0,0,0,0,0,0,0,0,0,0,0,0,0,0,0,0,0,0,0,0,0,0,0,0,0,0,0,0,0,0,0,0,0,0,0,0,0,0,0,0,0,0,0,0,0,0,0,0,0,0,0,0,0,0,0,0,0,0,0,0,0,0,0,0,0,0,0,0,0,0,0,0,0,0,0,0,0,0,0,0,0,0,0,0,0,0,0,0,0,0,0,0,0,0,0,0,0,0,0,0,0,0,0,0,0,0,0,0,0,0,0,0,0,0,0,0,0,0,0,0,0,0,0,0,0,0,0,0,0,0,0,0,0,0,0,0,0,0,0,0,0,0,0,0,0,0,0,0,0,0,0,0,0,0,0,0,0,0,0,0,0,0,0,0,0,0,0,0,0,0,0,0,0,0,0,0,0,0,0,0,0,0,0,0,0,0,0,0,0,0,0,0,0,0,0,0,0,0,0,0,0,0,0,0,0,0,48,47,48,47,48,47,48,48,48,47,48,47,47,47,48,47,47,47,47,48,47,47,48,47,48,48,47,48,47,47,0,0,0,0,0,0,0,0,0,0,0,0,0,0,0,0,0,0,0,0,0,0,0,0,0,0,0,0,0,0,0,0,0,0,0,0,0,0,0,0,0,0,0,0,0,0,0,0,47,47,48,48,48,47,48,48,48,47,47,47,47,47,48,47,47,48,48,47,48,48,47,47,
0,0,0,0,0,0,0,0,0,0,0,0,0,0,0,0,0,0,0,0,0,0,0,0,0,0,0,0,0,0,0,0,0,0,0,0,0,0,0,0,47,48,0,0,0,0,0,0,0,0,0,0,0,0,0,0,0,0,0,0,0,0,0,0,0,0,0,0,0,0,0,0,0,0,0,0,0,0,0,0,0,0,0,0,0,0,0,0,0,0,0,0,0,0,0,0,0,0,0,0,0,0,0,0,0,0,0,0,0,0,0,0,0,0,0,0,0,0,0,0,0,0,0,0,0,0,0,0,0,0,0,0,0,0,0,0,0,0,0,0,0,0,0,0,0,0,0,0,0,0,0,0,0,0,0,0,0,0,0,0,0,0,0,0,0,0,0,0,0,0,0,0,0,0,0,0,0,0,0,0,0,0,0,0,0,0,0,0,0,0,0,0,0,0,0,0,0,0,0,0,0,0,0,0,0,0,0,0,0,0,0,0,0,0,0,0,0,0,0,0,0,0,0,0,0,0,0,0,0,0,0,0,0,0,0,0,0,0,0,0,0,0,0,0,0,0,0,0,0,0,0,0,0,0,0,0,0,0,0,0,0,0,0,0,0,0,0,0,0,0,48,48,48,47,48,47,47,48,47,47,48,48,48,47,47,48,47,47,48,47,47,48,48,47,47,47,48,47,47,48,0,0,0,0,0,0,0,0,0,0,0,0,0,0,0,0,0,0,0,0,0,0,0,0,0,0,0,0,0,0,0,0,0,0,0,0,0,0,0,0,0,0,0,0,0,0,0,0,48,47,48,48,47,47,48,47,48,47,48,47,47,47,48,47,48,47,47,47,48,48,47,48,
0,0,0,0,0,0,0,0,0,0,0,0,0,0,0,0,0,0,0,0,0,0,0,0,0,0,0,0,0,0,0,0,0,0,0,0,0,0,0,0,47,48,0,0,0,0,0,0,0,0,0,0,0,0,0,0,0,0,0,0,0,0,0,0,0,0,0,0,0,0,0,0,0,0,0,0,0,0,0,0,0,0,0,0,0,0,0,0,0,0,0,0,0,0,0,0,0,0,0,0,0,0,0,0,0,0,0,0,0,0,0,0,0,0,0,0,0,0,0,0,0,0,0,0,0,0,0,0,0,0,0,0,0,0,0,0,0,0,0,0,0,0,0,0,0,0,0,0,0,0,0,0,0,0,0,0,0,0,0,0,0,0,0,0,0,0,0,0,0,0,0,0,0,0,0,0,0,0,0,0,0,0,0,0,0,0,0,0,0,0,0,0,0,0,0,0,0,0,0,0,0,0,0,0,0,0,0,0,0,0,0,0,0,0,0,0,0,0,0,0,0,0,0,0,0,0,0,0,0,0,0,0,0,0,0,0,0,0,0,0,0,0,0,0,0,0,0,0,0,0,0,0,0,0,0,0,0,0,0,0,0,0,0,0,0,0,0,0,0,0,48,47,47,48,48,48,47,47,48,48,48,47,48,48,48,48,47,47,47,48,48,47,47,48,48,47,47,47,47,47,0,0,0,0,0,0,0,0,0,0,0,0,0,0,0,0,0,0,0,0,0,0,0,0,0,0,0,0,0,0,0,0,0,0,0,0,0,0,0,0,0,0,0,0,0,0,0,0,48,48,48,48,48,48,48,47,48,47,48,47,47,48,48,48,48,48,48,48,47,48,48,48,
0,0,0,0,0,0,0,0,0,0,0,0,0,0,0,0,0,0,0,0,0,0,0,0,0,0,0,0,0,0,0,0,0,0,0,0,0,0,0,0,47,47,0,0,0,0,0,0,0,0,0,0,0,0,0,0,0,0,0,0,0,0,0,0,0,0,0,0,0,0,0,0,0,0,0,0,0,0,0,0,0,0,0,0,0,0,0,0,0,0,0,0,0,0,0,0,0,0,0,0,0,0,0,0,0,0,0,0,0,0,0,0,0,0,0,0,0,0,0,0,0,0,0,0,0,0,0,0,0,0,0,0,0,0,0,0,0,0,0,0,0,0,0,0,0,0,0,0,0,0,0,0,0,0,0,0,0,0,0,0,0,0,0,0,0,0,0,0,0,0,0,0,0,0,0,0,0,0,0,0,0,0,0,0,0,0,0,0,0,0,0,0,0,0,0,0,0,0,0,0,0,0,0,0,0,0,0,0,0,0,0,0,0,0,0,0,0,0,0,0,0,0,0,0,0,0,0,0,0,0,0,0,0,0,0,0,0,0,0,0,0,0,0,0,0,0,0,0,0,0,0,0,0,0,0,0,0,0,0,0,0,0,0,0,0,0,0,0,0,0,47,47,48,48,47,47,47,47,47,48,47,48,47,47,48,48,47,48,48,47,48,48,47,47,48,47,47,48,47,48,0,0,0,0,0,0,0,0,0,0,0,0,0,0,0,0,0,0,0,0,0,0,0,0,0,0,0,0,0,0,0,0,0,0,0,0,0,0,0,0,0,0,0,0,0,0,0,0,48,48,47,47,48,47,48,48,48,47,47,48,47,48,48,48,47,47,48,48,48,48,48,47,
0,0,0,0,0,0,0,0,0,0,0,0,0,0,0,0,0,0,0,0,0,0,0,0,0,0,0,0,0,0,0,0,0,0,0,0,0,0,0,0,47,48,0,0,0,0,0,0,0,0,0,0,0,0,0,0,0,0,0,0,0,0,0,0,0,0,0,0,0,0,0,0,0,0,0,0,0,0,0,0,0,0,0,0,0,0,0,0,0,0,0,0,0,0,0,0,0,0,0,0,0,0,0,0,0,0,0,0,0,0,0,0,0,0,0,0,0,0,0,0,0,0,0,0,0,0,0,0,0,0,0,0,0,0,0,0,0,0,0,0,0,0,0,0,0,0,0,0,0,0,0,0,0,0,0,0,0,0,0,0,0,0,0,0,0,0,0,0,0,0,0,0,0,0,0,0,0,0,0,0,0,0,0,0,0,0,0,0,0,0,0,0,0,0,0,0,0,0,0,0,0,0,0,0,0,0,0,0,0,0,0,0,0,0,0,0,0,0,0,0,0,0,0,0,0,0,0,0,0,0,0,0,0,0,0,0,0,0,0,0,0,0,0,0,0,0,0,0,0,0,0,0,0,0,0,0,0,0,0,0,0,0,0,0,0,0,0,0,0,0,48,47,47,47,47,47,48,48,48,48,48,47,48,48,48,47,48,48,48,47,48,48,48,48,47,48,47,47,48,47,0,0,0,0,0,0,0,0,0,0,0,0,0,0,0,0,0,0,0,0,0,0,0,0,0,0,0,0,0,0,0,0,0,0,0,0,0,0,0,0,0,0,0,0,0,0,0,0,47,48,47,48,48,48,47,47,47,47,47,47,48,48,47,48,47,47,48,47,47,47,48,47,
0,0,0,0,0,0,0,0,0,0,0,0,0,0,0,0,0,0,0,0,0,0,0,0,0,0,0,0,0,0,0,0,0,0,0,0,0,0,0,0,47,48,0,0,0,0,0,0,0,0,0,0,0,0,0,0,0,0,0,0,0,0,0,0,0,0,0,0,0,0,0,0,0,0,0,0,0,0,0,0,0,0,0,0,0,0,0,0,0,0,0,0,0,0,0,0,0,0,0,0,0,0,0,0,0,0,0,0,0,0,0,0,0,0,0,0,0,0,0,0,0,0,0,0,0,0,0,0,0,0,0,0,0,0,0,0,0,0,0,0,0,0,0,0,0,0,0,0,0,0,0,0,0,0,0,0,0,0,0,0,0,0,0,0,0,0,0,0,0,0,0,0,0,0,0,0,0,0,0,0,0,0,0,0,0,0,0,0,0,0,0,0,0,0,0,0,0,0,0,0,0,0,0,0,0,0,0,0,0,0,0,0,0,0,0,0,0,0,0,0,0,0,0,0,0,0,0,0,0,0,0,0,0,0,0,0,0,0,0,0,0,0,0,0,0,0,0,0,0,0,0,0,0,0,0,0,0,0,0,0,0,0,0,0,0,0,0,0,0,0,47,47,48,47,48,47,48,47,47,48,47,48,48,47,48,48,48,48,47,47,48,48,47,48,47,47,47,48,48,48,0,0,0,0,0,0,0,0,0,0,0,0,0,0,0,0,0,0,0,0,0,0,0,0,0,0,0,0,0,0,0,0,0,0,0,0,0,0,0,0,0,0,0,0,0,0,0,0,47,47,47,47,48,47,48,47,48,47,47,48,48,48,48,48,47,48,47,47,48,47,47,48,
0,0,0,0,0,0,0,0,0,0,0,0,0,0,0,0,0,0,0,0,0,0,0,0,0,0,0,0,0,0,0,0,0,0,0,0,0,0,0,0,48,47,0,0,0,0,0,0,0,0,0,0,0,0,0,0,0,0,0,0,0,0,0,0,0,0,0,0,0,0,0,0,0,0,0,0,0,0,0,0,0,0,0,0,0,0,0,0,0,0,0,0,0,0,0,0,0,0,0,0,0,0,0,0,0,0,0,0,0,0,0,0,0,0,0,0,0,0,0,0,0,0,0,0,0,0,0,0,0,0,0,0,0,0,0,0,0,0,0,0,0,0,0,0,0,0,0,0,0,0,0,0,0,0,0,0,0,0,0,0,0,0,0,0,0,0,0,0,0,0,0,0,0,0,0,0,0,0,0,0,0,0,0,0,0,0,0,0,0,0,0,0,0,0,0,0,0,0,0,0,0,0,0,0,0,0,0,0,0,0,0,0,0,0,0,0,0,0,0,0,0,0,0,0,0,0,0,0,0,0,0,0,0,0,0,0,0,0,0,0,0,0,0,0,0,0,0,0,0,0,0,0,0,0,0,0,0,0,0,0,0,0,0,0,0,0,0,0,0,0,48,48,47,47,47,47,48,47,47,47,48,48,47,48,47,48,48,48,48,47,48,47,47,47,48,47,48,47,48,47,0,0,0,0,0,0,0,0,0,0,0,0,0,0,0,0,0,0,0,0,0,0,0,0,0,0,0,0,0,0,0,0,0,0,0,0,0,0,0,0,0,0,0,0,0,0,0,0,48,47,48,47,48,47,48,48,48,47,48,47,47,48,48,48,48,47,48,47,47,48,47,48,
0,0,0,0,0,0,0,0,0,0,0,0,0,0,0,0,0,0,0,0,0,0,0,0,0,0,0,0,0,0,0,0,0,0,0,0,0,0,0,0,47,48,0,0,0,0,0,0,0,0,0,0,0,0,0,0,0,0,0,0,0,0,0,0,0,0,0,0,0,0,0,0,0,0,0,0,0,0,0,0,0,0,0,0,0,0,0,0,0,0,0,0,0,0,0,0,0,0,0,0,0,0,0,0,0,0,0,0,0,0,0,0,0,0,0,0,0,0,0,0,0,0,0,0,0,0,0,0,0,0,0,0,0,0,0,0,0,0,0,0,0,0,0,0,0,0,0,0,0,0,0,0,0,0,0,0,0,0,0,0,0,0,0,0,0,0,0,0,0,0,0,0,0,0,0,0,0,0,0,0,0,0,0,0,0,0,0,0,0,0,0,0,0,0,0,0,0,0,0,0,0,0,0,0,0,0,0,0,0,0,0,0,0,0,0,0,0,0,0,0,0,0,0,0,0,0,0,0,0,0,0,0,0,0,0,0,0,0,0,0,0,0,0,0,0,0,0,0,0,0,0,0,0,0,0,0,0,0,0,0,0,0,0,0,0,0,0,0,0,0,47,48,48,47,48,47,48,47,48,48,47,47,48,48,48,47,48,48,47,48,48,47,47,48,47,48,47,48,47,47,0,0,0,0,0,0,0,0,0,0,0,0,0,0,0,0,0,0,0,0,0,0,0,0,0,0,0,0,0,0,0,0,0,0,0,0,0,0,0,0,0,0,0,0,0,0,0,0,47,47,48,48,48,48,48,48,47,48,48,48,48,48,47,48,47,48,47,47,47,48,47,47,
0,0,0,0,0,0,0,0,0,0,0,0,0,0,0,0,0,0,0,0,0,0,0,0,0,0,0,0,0,0,0,0,0,0,0,0,0,0,0,0,48,48,0,0,0,0,0,0,0,0,0,0,0,0,0,0,0,0,0,0,0,0,0,0,0,0,0,0,0,0,0,0,0,0,0,0,0,0,0,0,0,0,0,0,0,0,0,0,0,0,0,0,0,0,0,0,0,0,0,0,0,0,0,0,0,0,0,0,0,0,0,0,0,0,0,0,0,0,0,0,0,0,0,0,0,0,0,0,0,0,0,0,0,0,0,0,0,0,0,0,0,0,0,0,0,0,0,0,0,0,0,0,0,0,0,0,0,0,0,0,0,0,0,0,0,0,0,0,0,0,0,0,0,0,0,0,0,0,0,0,0,0,0,0,0,0,0,0,0,0,0,0,0,0,0,0,0,0,0,0,0,0,0,0,0,0,0,0,0,0,0,0,0,0,0,0,0,0,0,0,0,0,0,0,0,0,0,0,0,0,0,0,0,0,0,0,0,0,0,0,0,0,0,0,0,0,0,0,0,0,0,0,0,0,0,0,0,0,0,0,0,0,0,0,0,6,0,0,0,0,48,48,48,47,48,48,48,47,48,47,47,48,48,48,47,47,48,47,47,48,48,48,48,48,47,47,48,47,47,47,0,0,0,0,0,0,0,0,0,0,0,0,0,0,0,0,0,0,0,0,0,0,0,0,0,0,0,0,0,0,0,0,0,0,0,0,0,0,0,0,0,0,0,0,0,0,0,0,48,47,48,48,47,48,48,47,47,47,48,47,47,47,48,48,47,47,47,48,48,48,48,47,
0,0,0,0,0,0,0,0,0,0,0,0,0,0,0,0,0,0,0,0,0,0,0,0,0,0,0,0,0,0,0,0,0,0,0,0,0,0,0,0,47,48,0,0,0,0,0,0,0,0,0,0,0,0,0,0,0,0,0,0,0,0,0,0,0,0,0,0,0,0,0,0,0,0,0,0,0,0,6,0,0,0,0,0,0,6,0,0,0,0,0,0,0,0,0,0,0,0,0,0,0,0,0,0,0,0,0,0,0,0,0,0,0,0,0,0,0,0,0,0,0,0,0,0,0,0,0,0,0,0,0,0,0,0,0,0,0,0,0,0,0,0,0,0,0,0,0,0,0,0,0,0,0,0,0,0,0,0,0,0,0,0,0,0,0,0,0,0,0,0,0,0,0,0,0,0,0,0,0,0,0,0,0,0,0,0,0,0,0,0,0,0,0,0,0,0,0,0,0,0,0,0,0,0,0,0,0,0,0,0,0,0,0,0,0,0,0,0,0,0,0,0,0,0,0,0,0,0,0,0,0,0,0,0,0,0,0,0,0,0,0,0,0,0,0,0,0,0,0,0,0,0,0,0,0,0,0,0,0,0,0,0,0,0,0,6,0,0,0,0,47,47,48,47,47,48,47,47,47,48,48,47,48,47,48,47,47,47,48,48,48,48,47,48,47,48,47,48,48,47,0,0,0,0,0,0,0,0,0,0,0,0,0,0,0,0,0,0,0,0,0,0,0,0,0,0,0,0,0,0,0,0,0,0,0,0,0,0,0,0,0,0,0,0,0,0,0,0,47,47,47,48,48,47,48,47,47,47,47,47,48,47,48,47,48,48,48,48,47,47,48,48,
0,0,0,0,0,0,0,0,0,0,0,0,0,0,0,0,0,0,0,0,0,0,0,0,0,0,0,0,0,0,0,0,0,0,0,0,0,0,0,0,47,48,0,0,0,0,0,0,0,0,0,0,6,0,0,0,0,0,0,0,0,0,0,6,0,0,0,0,0,0,0,0,0,0,0,0,0,0,6,0,0,0,0,0,0,6,0,0,0,0,0,0,0,0,0,0,0,0,0,0,0,0,0,0,0,0,0,0,0,0,0,0,0,0,0,0,0,0,0,0,0,0,0,0,0,0,0,0,0,0,0,0,0,0,0,0,0,0,0,0,0,0,0,0,0,0,0,0,0,0,0,0,0,0,0,0,0,0,0,0,0,0,0,0,0,0,0,0,0,0,0,0,0,0,0,0,0,0,0,0,0,0,0,0,0,0,0,0,0,0,0,0,0,0,0,0,0,0,0,0,0,0,0,0,0,0,0,0,0,0,0,0,0,0,0,0,0,0,0,0,0,0,0,0,0,0,0,0,0,0,0,0,0,0,0,0,0,0,0,0,0,0,0,0,6,0,0,0,0,0,6,0,0,0,0,0,0,0,0,0,0,0,0,0,0,0,0,0,0,0,48,48,47,48,48,48,48,48,47,47,48,47,48,47,47,48,47,48,47,48,48,47,47,47,47,48,47,47,48,47,0,0,0,0,0,0,0,0,0,0,0,0,0,0,0,0,0,0,0,0,0,0,0,0,0,0,0,0,0,0,0,0,0,0,0,0,0,0,0,0,0,0,0,0,0,0,0,0,47,48,48,47,47,48,48,47,48,48,47,47,48,48,47,47,48,48,47,47,47,48,48,47,
0,0,0,0,0,0,0,0,0,0,0,0,0,0,0,0,0,0,0,0,0,0,0,0,0,0,0,0,0,0,0,0,0,0,0,0,0,0,0,0,48,48,0,0,0,0,0,0,0,0,0,0,6,0,0,0,0,0,0,0,0,0,0,6,0,0,0,0,0,0,0,0,0,0,0,0,0,0,0,0,0,0,0,0,0,6,0,0,0,0,0,0,0,0,0,0,0,0,0,0,0,0,0,0,0,0,0,0,0,0,0,0,0,0,0,0,0,0,0,0,0,0,0,0,0,0,0,0,0,0,0,0,0,0,0,0,0,0,0,0,0,0,0,0,0,0,0,0,0,0,0,0,0,0,0,0,0,0,0,0,0,0,0,0,0,0,0,0,0,0,0,0,0,0,0,0,0,0,0,0,0,0,0,0,0,0,0,0,0,0,0,0,0,0,0,0,0,0,0,0,0,0,0,0,0,0,0,0,0,0,0,0,0,0,0,0,0,0,0,0,0,0,0,0,0,0,0,0,0,0,0,0,0,0,0,0,0,0,0,0,0,0,0,0,6,0,0,0,0,0,6,0,0,0,0,0,0,0,0,0,6,0,0,0,0,0,0,6,0,0,47,47,48,48,48,48,47,47,47,48,48,48,47,47,48,48,47,47,47,47,48,47,48,48,48,48,48,48,47,47,0,0,0,0,0,0,0,0,0,0,0,0,0,0,0,0,0,0,0,0,0,0,0,0,0,0,0,0,0,0,0,0,0,0,0,0,0,0,0,0,0,0,0,0,0,0,0,0,47,47,47,48,47,48,48,48,47,48,48,47,47,48,47,48,48,47,47,48,48,47,47,48,
0,0,0,0,0,0,0,0,0,0,0,0,0,0,0,0,0,0,0,0,0,0,0,0,0,0,0,0,0,0,0,0,0,0,0,0,0,0,0,0,47,48,0,0,0,0,0,0,0,0,0,0,6,0,0,0,0,0,0,0,0,0,0,6,0,0,0,0,0,0,0,0,0,0,6,0,0,0,0,6,0,0,0,0,0,6,0,0,0,0,0,0,0,0,0,0,0,0,0,0,0,0,0,0,0,0,0,0,0,0,0,0,0,0,0,0,0,0,0,0,0,0,0,0,0,0,0,0,0,0,0,0,0,0,0,0,0,0,0,0,0,0,0,0,0,0,0,0,0,0,0,0,0,0,0,0,0,0,0,0,0,0,0,0,0,0,0,0,0,0,0,0,0,0,0,0,0,0,0,0,0,0,0,0,0,0,0,0,0,0,0,0,0,0,0,0,0,0,0,0,0,0,0,0,0,6,0,0,0,0,0,0,0,6,0,0,0,0,0,0,0,0,0,0,0,0,0,0,0,0,0,0,6,0,0,0,0,0,0,6,0,0,0,0,6,0,0,0,0,0,0,0,0,0,0,0,0,0,0,0,6,0,0,0,0,0,0,6,0,0,47,48,48,48,48,47,48,48,48,48,48,48,47,47,48,47,48,48,48,48,47,47,48,48,47,47,47,48,47,47,0,0,0,0,0,0,0,0,0,0,0,0,0,0,0,0,0,0,0,0,0,0,0,0,0,0,0,0,0,0,0,0,0,0,0,0,0,0,0,0,0,0,0,0,0,0,0,0,48,47,47,47,48,48,47,48,47,47,47,48,47,47,47,48,48,48,48,48,48,47,47,47,
0,0,0,0,0,0,0,0,0,0,0,0,0,0,0,0,0,0,0,0,0,0,0,0,0,0,0,0,0,0,0,0,0,0,0,0,0,0,0,0,47,48,0,0,0,0,0,0,0,0,0,0,0,0,0,0,0,0,0,0,0,0,0,0,0,0,0,0,0,0,0,0,0,0,6,0,0,0,0,6,0,0,0,0,0,0,0,0,0,0,0,0,0,0,0,0,0,0,0,0,0,0,0,0,0,0,0,0,0,0,0,0,0,0,0,0,0,0,0,0,0,0,0,0,0,0,0,0,0,0,0,0,0,0,0,0,0,0,0,0,0,0,0,0,0,0,0,0,0,0,0,0,0,0,0,0,0,0,0,0,0,0,0,0,0,0,0,0,0,0,0,0,0,0,0,0,0,0,0,0,0,0,0,0,0,0,0,0,0,0,0,0,0,0,0,0,0,0,0,0,0,0,0,0,0,6,0,0,0,0,0,0,0,0,0,0,0,0,0,0,0,0,0,0,0,0,0,0,0,0,0,0,6,0,0,0,0,0,0,0,0,0,0,0,0,0,0,0,0,0,6,0,0,0,0,0,0,0,0,0,0,0,0,0,0,0,0,6,0,0,47,48,47,47,48,48,47,48,48,47,48,48,47,47,47,48,48,47,48,48,48,48,48,47,47,47,48,48,48,47,0,0,0,0,0,0,0,0,0,0,0,0,0,0,0,0,0,0,0,0,0,0,0,0,0,0,0,0,0,0,0,0,0,0,0,0,0,0,0,0,0,0,0,0,0,0,0,0,47,47,47,47,48,48,47,48,47,47,48,47,47,47,47,47,47,48,47,48,47,47,48,48,
0,0,0,0,0,0,0,0,0,0,0,0,0,0,0,0,0,0,0,0,0,0,0,0,0,0,0,0,0,0,0,0,0,0,0,0,0,0,0,0,48,48,0,0,0,0,0,0,6,0,0,0,0,6,0,0,0,0,0,0,0,0,6,0,0,0,0,0,0,0,0,0,0,0,0,0,0,0,0,6,0,0,6,0,0,0,0,0,0,6,0,0,0,0,0,0,0,0,0,0,0,0,0,0,0,0,0,0,0,0,0,0,0,0,0,0,0,0,0,0,0,0,0,0,0,0,0,0,0,0,0,0,0,0,0,0,0,0,0,0,0,0,0,0,0,0,0,0,0,0,0,0,0,0,0,0,0,0,0,0,0,0,0,0,0,0,0,0,0,0,0,0,0,0,0,0,0,0,0,0,0,0,0,0,0,0,0,0,0,0,0,0,0,0,0,0,0,0,0,0,0,0,0,0,0,6,0,0,0,0,0,0,6,0,0,0,0,0,0,6,0,0,0,0,0,0,0,0,0,0,0,0,6,0,0,0,0,0,0,6,0,0,0,0,0,0,0,0,0,0,6,0,0,0,0,6,0,0,0,0,0,0,6,0,0,0,0,0,0,0,48,48,48,48,47,47,48,48,47,48,48,47,48,48,48,48,48,48,48,47,48,47,48,47,48,48,48,47,48,48,0,0,0,0,0,0,0,0,0,0,0,0,0,0,0,0,0,0,0,0,0,0,0,0,0,0,0,0,0,0,0,0,0,0,0,0,0,0,0,0,0,0,0,0,0,0,0,0,48,47,47,48,47,47,48,48,48,48,47,48,47,48,47,47,47,47,48,48,48,48,48,48,
0,0,0,0,0,0,0,0,0,0,0,0,0,0,0,0,0,0,0,0,0,0,0,0,0,0,0,0,0,0,0,0,0,0,0,0,0,0,0,0,47,48,0,0,0,0,0,0,6,0,0,0,0,6,0,0,6,0,0,6,0,0,6,0,0,0,0,0,0,6,0,0,0,0,0,6,0,0,0,6,0,0,6,0,0,0,0,0,0,6,0,0,0,0,0,0,0,0,0,0,0,0,0,0,0,0,0,0,0,0,0,0,0,0,0,0,0,0,0,0,0,0,0,0,0,0,0,0,0,0,0,0,0,0,0,0,0,0,0,0,0,0,0,0,0,0,0,0,0,0,0,0,0,0,0,0,0,0,0,0,0,0,0,0,0,0,0,0,0,0,0,0,0,0,0,0,0,0,0,0,0,0,0,0,0,0,0,0,0,0,0,0,0,0,0,0,0,0,0,0,0,0,0,0,0,0,0,0,0,0,0,0,6,0,0,0,0,0,0,6,0,0,0,0,6,0,0,6,0,0,0,0,6,0,0,0,0,0,0,6,0,0,0,0,6,0,0,6,0,0,6,0,0,0,0,6,0,0,0,0,0,0,6,0,0,0,6,0,0,0,47,48,48,48,47,47,48,48,48,48,48,47,47,48,47,47,48,48,47,47,47,47,47,47,48,48,47,48,48,47,0,0,0,0,0,0,0,0,0,0,0,0,0,0,0,0,0,0,0,0,0,0,0,0,0,0,0,0,0,0,0,0,0,0,0,0,0,0,0,0,0,0,0,0,0,0,0,0,48,48,47,47,47,48,47,48,47,48,47,48,48,47,48,48,48,48,47,48,47,48,48,48,
0,0,0,0,0,0,0,0,0,0,0,0,0,0,0,0,0,0,0,0,0,0,0,0,0,0,0,0,0,0,0,0,0,0,0,0,0,0,0,0,48,48,0,0,0,0,0,0,6,0,0,0,0,6,0,0,6,0,0,6,0,0,6,0,0,0,0,0,0,6,0,0,0,0,0,6,0,0,0,6,0,0,6,0,0,0,0,0,0,6,0,0,0,0,0,0,0,0,0,0,0,0,0,0,0,0,0,0,0,0,0,0,0,0,0,0,0,0,0,0,0,0,0,0,0,0,0,0,0,0,0,0,0,0,0,0,0,0,0,0,0,0,0,0,0,0,0,0,0,0,0,0,0,0,0,0,0,0,0,0,0,0,0,0,0,0,0,0,0,0,0,0,0,0,0,0,0,0,0,0,0,0,0,0,0,0,0,0,0,0,0,0,0,0,0,0,0,6,0,0,0,0,0,0,0,6,0,0,0,0,0,0,6,0,0,0,0,0,0,6,0,0,0,0,6,0,0,6,0,0,0,0,6,0,0,0,0,0,0,6,0,0,0,0,6,0,0,6,0,0,6,0,0,0,0,6,0,0,0,0,0,0,6,0,0,0,6,0,0,0,47,47,48,48,48,48,47,48,47,48,48,47,48,48,47,47,48,48,47,47,47,47,47,47,48,48,48,47,48,48,0,0,0,0,0,0,0,0,0,0,0,0,0,0,0,0,0,0,0,0,0,0,0,0,0,0,0,0,0,0,0,0,0,0,0,0,0,0,0,0,0,0,0,0,0,0,0,0,48,47,47,48,47,48,48,48,47,47,48,47,47,48,48,48,47,48,48,47,47,48,47,47,
0,0,0,0,0,0,0,0,0,0,0,0,0,0,0,0,0,0,0,0,0,0,0,0,0,0,0,0,0,0,0,0,0,0,0,0,0,0,0,0,48,48,48,47,47,48,48,48,48,47,47,47,47,47,48,47,48,48,48,47,47,48,48,48,47,47,47,47,47,48,47,48,47,47,48,47,47,48,47,48,48,48,47,47,48,48,48,48,47,48,48,47,47,48,0,0,0,0,0,0,0,0,0,0,0,0,0,0,0,0,0,0,0,0,0,0,0,0,0,0,0,0,0,0,0,0,0,0,0,0,0,0,0,0,0,0,0,0,0,0,0,0,0,0,0,0,0,0,0,0,0,0,0,0,0,0,0,0,0,0,48,48,48,48,47,47,47,47,47,47,48,48,0,0,0,0,0,0,0,0,0,0,0,0,0,0,0,0,0,0,0,0,0,0,0,0,0,6,0,0,0,0,0,0,0,6,0,0,0,0,0,0,6,0,0,0,0,0,0,0,0,0,0,0,0,0,0,0,0,0,47,47,47,47,47,47,48,48,47,48,48,47,47,48,48,47,48,48,47,48,47,47,48,47,47,47,47,47,47,47,48,48,48,48,48,47,48,48,48,47,47,48,48,47,47,47,48,48,47,48,48,48,48,47,48,47,47,47,47,48,47,48,48,48,47,48,47,47,48,48,0,0,0,0,0,0,0,0,0,0,0,0,0,0,0,0,0,0,0,0,0,0,0,0,0,0,0,0,0,0,0,0,0,0,0,0,0,0,0,0,0,0,0,0,0,0,0,0,47,48,47,48,47,48,48,48,47,47,48,48,47,48,47,47,48,47,47,48,48,47,48,48,
0,0,0,0,0,0,0,0,0,0,0,0,0,0,0,0,0,0,0,0,0,0,0,0,0,0,0,0,0,0,0,0,0,0,0,0,0,0,47,47,47,48,47,48,48,48,47,47,47,47,48,47,48,48,48,48,48,48,47,48,47,48,48,48,48,47,48,48,47,47,47,47,47,48,48,47,48,48,48,48,47,47,47,48,47,48,48,48,47,47,48,48,47,48,0,0,0,0,0,0,0,0,0,0,0,0,0,0,0,0,0,0,0,0,0,0,0,0,0,0,0,0,0,0,0,0,0,0,0,0,0,0,0,0,0,0,0,0,0,0,0,0,0,0,0,0,0,0,0,0,0,0,0,0,0,0,0,0,0,0,47,47,47,48,47,47,47,47,48,48,48,48,0,0,0,0,0,0,0,0,0,0,0,0,0,0,0,0,0,0,0,0,0,0,0,0,0,6,0,0,0,0,0,0,0,6,0,0,0,0,0,0,6,0,0,0,0,0,0,6,0,0,0,0,0,0,0,0,0,0,48,48,47,48,47,47,48,48,47,48,47,47,47,48,47,48,47,47,47,48,47,47,48,47,48,48,47,48,47,47,48,48,47,48,48,48,47,48,48,48,48,47,48,48,48,48,48,48,47,48,47,47,48,48,47,47,48,48,47,47,47,47,47,48,47,47,48,47,48,48,0,0,0,0,0,0,0,0,0,0,0,0,0,0,0,0,0,0,0,0,0,0,0,0,0,0,0,0,0,0,0,0,0,0,0,0,0,0,0,0,0,0,0,0,0,0,0,0,47,47,48,48,47,47,48,47,48,48,48,48,48,47,48,48,47,48,47,48,48,48,47,48,
0,0,0,0,0,0,0,0,0,0,0,0,0,0,0,0,0,0,0,0,0,0,0,0,0,0,0,0,0,0,0,0,0,0,0,0,48,48,47,48,47,48,48,47,47,47,47,48,48,47,47,48,48,48,47,47,48,48,47,47,47,47,47,48,48,47,47,47,48,47,48,47,47,48,47,47,48,48,48,47,48,48,47,47,48,47,47,47,48,48,48,47,47,48,0,0,0,0,0,0,0,0,0,0,0,0,0,0,0,0,0,0,0,0,0,0,0,0,0,0,0,0,0,0,0,0,0,0,0,0,0,0,0,0,0,0,0,0,0,0,0,0,0,0,0,0,0,0,0,0,0,0,0,0,0,0,0,0,0,0,48,48,47,48,47,48,47,47,47,48,48,47,0,0,0,0,0,0,0,0,0,0,0,0,0,0,0,0,0,0,0,0,0,0,0,0,0,6,0,0,0,0,0,0,0,0,0,0,0,0,0,0,0,0,0,0,0,0,0,6,0,0,0,0,0,0,0,0,0,0,47,48,47,47,47,47,48,48,47,47,48,48,47,47,48,47,48,48,47,47,47,47,48,47,47,48,48,48,47,47,48,48,48,47,48,48,48,48,47,47,47,48,48,48,47,48,47,48,48,48,48,48,47,47,47,47,48,48,47,48,48,47,47,48,48,48,47,47,48,48,0,0,0,0,0,0,0,0,0,0,0,0,0,0,0,0,0,0,0,0,0,0,0,0,0,0,0,0,0,0,0,0,0,0,0,0,0,0,0,0,0,0,0,0,0,0,0,0,48,47,47,47,47,47,48,48,48,47,47,48,47,47,47,48,48,47,47,47,48,48,48,47,
0,0,0,0,0,0,0,0,0,0,0,0,0,0,0,0,0,0,0,0,0,0,0,0,0,0,0,0,0,0,0,0,0,0,48,48,48,48,48,47,47,48,48,48,47,48,47,48,47,47,48,48,48,48,47,48,47,47,48,47,48,48,48,48,48,48,48,48,48,47,47,48,47,48,47,47,47,47,48,47,48,47,48,47,47,48,47,48,48,47,48,48,47,47,0,0,0,0,0,0,0,0,0,0,0,0,0,0,0,0,0,0,0,0,0,0,0,0,0,0,0,0,0,0,0,0,0,0,0,0,0,0,0,0,0,0,0,0,0,0,0,0,0,0,0,0,0,0,0,0,0,0,0,0,0,0,0,0,0,0,47,48,48,48,47,48,48,47,48,47,48,47,0,0,0,0,0,0,0,0,0,0,0,0,0,0,0,0,0,0,0,0,0,0,0,0,0,6,0,0,0,0,0,0,6,0,0,0,0,0,0,0,0,0,0,6,0,0,0,6,0,0,0,0,0,0,0,0,0,0,48,48,47,47,48,48,48,48,47,48,48,47,47,48,48,48,48,47,48,47,47,48,47,47,48,48,47,47,48,47,48,47,48,47,48,47,48,48,47,47,48,48,48,48,48,47,48,48,47,47,48,47,47,47,47,47,48,47,48,47,47,47,48,48,48,48,47,47,48,48,48,48,48,48,47,48,0,0,0,0,0,0,0,0,0,0,0,0,0,0,0,0,0,0,0,0,0,0,0,0,0,0,0,0,0,0,0,0,0,0,0,0,47,47,48,48,48,48,48,48,47,48,47,48,47,47,47,47,47,47,47,48,48,47,48,48,48,48,48,47,48,47,
0,0,0,0,0,0,0,0,0,0,0,0,0,0,0,0,0,0,0,0,0,0,0,0,0,0,0,0,0,0,0,0,47,47,48,47,47,48,47,48,47,47,47,48,48,48,48,48,47,47,48,48,48,47,47,47,47,47,47,47,47,47,47,47,47,47,48,48,48,47,47,48,48,47,47,47,48,48,48,48,47,47,47,47,47,48,47,48,47,47,48,47,48,48,0,0,0,0,0,0,0,0,0,0,0,0,0,0,0,0,0,0,0,0,0,0,0,0,0,0,0,0,0,0,0,0,0,0,0,0,0,0,0,0,0,0,0,0,0,0,0,0,0,0,0,0,0,0,0,0,0,0,0,0,0,0,0,0,0,0,48,48,48,48,47,48,47,47,47,47,48,47,0,0,0,0,0,0,0,0,0,0,0,0,0,0,0,0,0,0,0,0,0,0,0,0,0,6,0,0,0,0,0,0,6,0,0,0,0,0,0,0,0,0,0,6,0,0,0,6,0,0,0,0,0,0,0,0,0,0,47,47,48,47,47,48,48,48,48,48,47,48,48,48,48,47,47,48,48,47,48,48,48,48,47,47,48,48,48,48,48,48,48,47,47,48,48,47,48,47,47,48,48,47,48,48,48,48,47,47,48,47,47,48,47,48,48,48,48,47,47,48,47,47,48,48,47,48,48,48,48,48,48,48,47,48,0,0,0,0,0,0,0,0,0,0,0,0,0,0,0,0,0,0,0,0,0,0,0,0,0,0,0,0,0,0,0,0,0,0,0,0,47,48,48,48,48,48,48,47,48,47,47,48,48,48,48,47,47,48,47,48,48,47,48,47,48,48,47,48,47,48,
0,0,0,0,0,0,0,0,0,0,0,0,0,0,0,0,0,0,0,0,0,0,0,0,0,0,0,0,0,0,48,47,47,47,47,47,47,48,48,47,47,48,48,47,48,48,47,48,48,47,47,47,48,48,47,48,48,48,48,48,47,48,48,47,48,48,48,47,47,47,47,47,48,47,47,48,47,48,47,48,48,48,48,48,47,47,47,47,47,47,48,47,48,47,0,0,0,0,0,0,0,0,0,0,0,0,0,0,0,0,0,0,0,0,0,0,0,0,0,0,0,0,0,0,0,0,0,0,0,0,0,0,0,0,0,0,0,0,0,0,0,0,0,0,0,0,0,0,0,0,0,0,0,0,0,0,0,0,0,0,47,48,48,48,47,47,48,47,47,47,47,48,0,0,0,0,0,0,0,0,0,0,0,0,0,0,0,0,0,0,0,0,0,0,0,0,0,0,0,0,0,0,0,0,0,0,0,0,0,0,0,0,0,0,0,0,0,0,0,0,0,0,0,0,0,0,0,0,0,0,48,48,47,48,47,47,47,48,48,47,47,47,48,47,47,47,47,47,47,48,47,47,48,48,47,47,47,47,48,47,48,47,48,48,48,48,48,47,47,47,48,48,47,47,48,47,48,48,48,47,48,47,48,48,48,48,47,48,47,48,47,47,48,47,47,47,48,48,48,47,47,47,48,47,47,47,0,0,0,0,0,0,0,0,0,0,0,0,0,0,0,0,0,0,0,0,0,0,0,0,0,0,0,0,0,0,0,0,0,0,0,0,47,47,47,48,47,47,48,48,48,47,47,47,47,47,48,47,47,47,48,47,47,47,48,48,47,47,48,47,47,47,
0,0,0,0,0,0,0,0,0,0,0,0,0,0,0,0,0,0,0,0,0,0,0,0,0,0,0,0,48,48,47,48,47,47,48,47,48,48,47,47,48,48,48,47,48,48,47,47,47,47,48,47,48,48,47,48,48,47,48,48,47,48,47,47,48,47,47,48,47,48,47,47,47,48,48,48,47,47,48,48,47,47,48,48,48,48,47,47,47,48,48,47,47,48,48,47,48,48,47,48,48,48,47,48,47,47,47,48,48,47,47,47,47,47,47,48,48,48,48,47,48,48,47,48,48,47,48,47,47,47,47,48,48,48,47,48,48,48,0,0,0,0,0,0,0,0,0,0,0,0,0,0,0,0,0,0,0,0,0,0,47,47,47,47,48,47,48,47,48,47,48,48,0,0,0,0,0,0,0,0,0,0,0,0,0,0,0,0,0,0,0,0,0,0,6,0,0,6,0,0,6,0,0,0,6,0,0,0,0,0,6,0,0,0,0,6,0,0,0,0,0,6,0,0,0,0,0,0,0,0,47,47,48,47,48,47,47,48,48,47,48,47,47,47,47,47,48,48,47,47,48,48,48,48,47,48,48,48,47,48,48,47,48,48,48,48,48,47,47,48,48,48,47,47,48,48,48,47,48,48,47,48,47,48,48,48,47,47,48,48,47,47,47,47,48,47,48,47,48,47,48,47,47,47,48,48,0,0,0,0,0,0,0,0,0,0,0,0,0,0,0,0,0,0,0,0,0,0,0,0,0,0,0,0,0,0,0,0,0,0,0,0,47,47,48,48,47,47,48,47,47,48,47,47,47,47,47,48,47,48,48,47,48,48,47,48,48,48,47,48,47,48,
0,0,0,0,0,0,0,0,0,0,0,0,0,0,0,0,0,0,0,0,0,0,0,0,0,0,48,48,48,47,47,47,47,47,48,47,48,48,48,48,48,48,48,48,48,47,47,47,48,48,48,47,47,47,47,47,47,48,47,48,47,48,47,48,47,47,48,48,48,47,47,47,48,47,48,48,47,48,48,47,48,47,47,47,48,47,48,48,47,48,47,48,47,48,47,48,47,48,48,48,47,48,48,48,47,48,47,48,47,47,47,48,48,47,47,48,47,48,47,48,47,47,47,48,48,48,47,48,48,47,48,48,48,48,47,48,47,48,48,47,0,0,0,0,0,0,0,0,0,0,0,0,0,0,0,0,0,0,0,0,47,48,47,48,47,47,47,48,47,47,47,48,0,0,0,0,0,0,0,0,0,0,0,0,0,0,0,0,0,0,0,0,0,0,6,0,0,6,0,0,6,0,0,0,6,0,0,0,0,0,6,0,0,0,0,6,0,0,0,0,0,6,0,0,0,0,0,0,0,0,47,47,47,47,48,47,47,47,48,48,47,48,48,48,47,47,47,47,48,47,48,48,48,48,48,48,47,47,47,47,48,48,47,48,47,47,47,48,47,48,48,48,47,47,47,47,48,47,48,47,48,48,47,47,47,47,47,48,48,48,48,48,47,47,48,48,47,48,48,48,47,48,47,48,47,47,0,0,0,0,0,0,0,0,0,0,0,0,0,0,0,0,0,0,0,0,0,0,0,0,0,0,0,0,0,0,0,0,0,0,0,0,48,47,47,48,47,47,48,48,47,47,47,48,47,47,47,47,48,47,48,47,47,47,48,48,48,47,47,47,47,48,
0,0,0,0,0,0,0,0,0,0,0,0,0,0,0,0,0,0,0,0,0,0,0,0,48,48,47,48,47,47,47,48,48,48,48,48,47,48,47,47,48,47,47,48,48,47,47,48,48,48,48,48,48,48,47,47,48,48,47,48,48,47,48,48,48,47,48,47,48,48,48,48,48,48,47,48,48,48,47,48,48,47,47,48,48,47,48,47,47,48,48,47,47,47,48,48,48,48,47,47,48,48,47,47,48,47,47,48,48,48,48,47,47,47,48,47,47,47,47,47,48,48,47,48,47,47,47,48,48,47,47,48,48,47,48,48,48,48,48,48,48,48,47,48,47,47,47,48,47,48,47,48,48,47,47,48,47,48,48,48,48,48,48,48,48,48,48,47,47,47,47,48,47,48,47,47,48,48,47,47,47,48,47,47,47,48,47,47,48,48,47,47,48,47,47,48,48,48,47,48,47,48,48,47,47,47,48,47,47,47,48,47,47,47,48,47,47,48,47,47,48,47,47,48,48,48,48,48,47,47,48,47,47,48,47,48,48,47,48,47,47,48,47,48,48,48,48,47,47,47,47,47,48,48,47,48,48,48,47,48,47,48,47,47,48,48,48,47,47,47,47,48,48,48,48,47,47,48,48,47,48,47,47,48,48,48,48,48,48,48,47,47,48,48,48,47,48,48,48,48,48,47,47,47,47,48,47,48,48,48,47,47,48,47,47,48,48,48,47,48,48,48,48,47,47,48,48,48,48,48,48,47,48,47,47,47,48,47,48,47,48,48,47,47,48,47,48,48,48,48,47,48,48,48,48,48,48,47,48,47,47,48,47,47,48,47,48,47,47,47,47,47,
0,0,0,0,0,0,0,0,0,0,0,0,0,0,0,0,0,0,0,0,0,0,48,47,47,47,47,48,47,48,47,47,48,47,48,48,48,48,48,48,48,47,48,48,47,48,48,47,47,47,47,47,47,47,47,48,47,48,48,47,48,48,47,47,47,48,47,48,47,48,47,48,48,47,47,47,48,47,48,48,48,48,48,47,47,47,48,48,48,48,47,47,47,48,48,48,48,47,48,47,48,48,47,48,47,48,47,48,48,48,47,48,48,48,48,47,48,47,48,48,47,47,47,48,47,48,48,47,48,48,48,47,47,47,47,48,47,48,47,47,47,47,48,47,47,47,48,47,48,48,47,47,48,47,48,48,47,47,48,47,48,47,47,47,48,48,48,48,48,48,47,47,47,47,48,48,47,47,48,47,48,47,47,47,48,47,48,47,48,47,48,47,47,48,47,47,48,48,48,47,48,48,47,47,47,48,48,47,47,47,47,48,48,48,48,48,47,48,48,47,48,48,47,48,47,47,48,48,48,47,48,48,47,48,47,48,48,47,48,47,48,47,47,47,48,47,48,47,48,48,47,48,48,47,47,47,48,47,48,48,48,48,47,47,47,48,47,47,47,48,47,48,47,48,47,47,47,48,48,47,48,47,48,47,47,47,48,47,47,48,48,47,48,48,47,47,47,47,48,47,47,48,47,48,48,47,48,47,47,47,47,47,48,47,48,47,48,48,47,47,47,47,47,48,48,48,47,47,47,47,47,48,47,48,47,47,47,48,48,47,47,48,47,47,48,48,47,47,48,48,47,47,47,47,48,48,48,48,48,47,47,47,47,48,48,48,48,48,48,48,48,47,
0,0,0,0,0,0,0,0,0,0,0,0,0,0,0,0,0,0,0,0,48,48,47,48,47,47,47,47,47,48,47,48,48,48,47,47,48,47,48,48,48,47,47,48,48,48,47,48,47,48,47,47,47,48,48,48,48,48,48,48,48,48,47,47,48,48,48,47,48,48,47,47,47,47,48,47,47,48,48,48,48,48,47,47,48,47,48,47,47,47,48,47,48,47,48,48,48,48,47,47,48,47,47,47,48,47,48,47,48,48,48,48,47,48,47,48,47,48,48,48,48,48,48,47,48,47,48,47,47,47,48,48,48,47,48,48,48,48,47,47,48,47,48,47,48,48,48,48,48,48,48,48,47,47,48,48,48,47,47,48,48,47,48,48,48,48,47,47,47,47,48,48,47,48,47,48,48,47,48,47,48,48,48,47,47,48,48,47,47,48,47,47,48,48,47,47,47,47,48,47,48,47,48,47,47,48,47,48,48,48,47,47,48,48,48,48,48,48,47,47,48,48,47,47,48,47,48,47,47,47,47,47,48,47,48,47,48,47,47,47,48,47,48,47,47,48,48,48,47,47,48,48,47,48,47,48,48,47,48,48,47,47,48,47,48,48,47,48,47,47,47,47,47,47,48,47,48,47,48,48,47,48,48,48,48,47,47,48,48,48,48,47,48,48,47,48,48,47,47,47,47,48,47,47,48,48,47,48,48,48,48,47,47,47,48,47,48,47,47,48,47,47,47,47,48,48,48,47,48,48,47,47,48,47,48,47,48,48,47,48,47,47,48,47,47,48,47,47,48,47,48,47,48,47,48,48,48,48,48,48,47,47,47,48,47,48,48,48,48,47,47,47,
0,0,0,0,0,0,0,0,0,0,0,0,0,0,0,0,0,0,0,47,48,48,48,47,48,47,47,48,48,48,48,48,47,48,47,47,48,47,48,48,47,48,47,48,48,47,48,48,47,47,48,48,47,48,47,48,47,47,48,47,47,48,48,48,48,47,47,48,48,47,48,47,48,48,47,48,48,48,47,47,48,47,48,48,47,48,48,48,48,47,48,48,47,47,48,47,48,47,48,47,47,48,48,48,48,47,47,47,48,47,47,48,48,48,48,48,47,47,48,48,48,48,47,48,47,48,48,47,47,47,48,47,48,48,48,47,48,48,47,47,47,47,48,48,47,48,47,47,48,47,48,48,48,47,48,48,48,48,47,47,47,48,47,48,48,47,47,47,47,47,47,48,47,47,48,48,47,48,48,47,48,48,48,47,48,48,48,47,47,47,48,48,47,47,47,47,47,47,48,47,47,47,47,47,47,47,48,48,48,47,47,48,48,47,47,48,48,48,48,47,48,47,48,47,48,48,48,47,47,47,48,48,47,48,48,48,48,48,47,47,48,48,48,47,47,48,48,48,47,47,48,48,48,47,48,48,48,47,47,47,47,47,47,48,48,48,47,47,48,47,47,47,47,47,47,47,48,47,47,47,47,48,47,47,48,48,47,48,48,47,47,48,47,48,47,48,47,48,48,48,48,47,47,48,47,48,47,47,48,47,48,47,48,48,48,48,47,48,48,48,47,48,48,47,47,47,48,48,48,48,47,48,48,47,48,47,48,48,48,48,47,47,48,48,48,48,47,48,48,47,48,47,47,47,47,47,48,48,48,48,48,48,47,47,47,48,47,47,48,48,48,47,
0,0,0,0,0,0,0,0,0,0,0,0,0,0,0,0,0,0,48,47,47,48,47,47,48,47,47,47,47,47,48,47,48,48,48,47,47,48,47,48,47,48,48,48,47,47,48,47,48,48,47,48,47,47,48,48,47,48,48,47,48,47,47,47,48,48,47,48,47,47,47,48,48,48,47,47,48,47,48,47,47,47,47,47,47,48,47,48,47,48,47,47,47,47,47,47,48,48,47,47,47,48,48,48,47,48,48,48,48,47,48,47,47,48,47,47,48,48,47,47,47,47,47,47,48,48,47,48,47,47,47,48,47,47,48,48,48,47,48,47,47,47,47,48,48,48,47,48,48,47,47,47,47,47,48,47,47,47,47,48,48,48,48,48,48,47,47,47,47,48,48,47,47,47,48,48,47,47,47,48,47,48,47,47,48,47,47,48,47,48,48,47,48,48,47,48,48,48,48,48,47,48,47,48,48,47,47,47,48,48,47,47,48,48,48,48,47,48,48,47,48,47,47,48,48,48,48,48,48,47,48,48,47,47,48,48,48,48,48,47,47,48,47,47,47,47,48,47,48,48,47,48,47,48,47,48,48,48,48,48,48,48,48,48,48,48,48,47,47,47,48,47,47,47,47,48,47,47,48,48,47,48,48,48,48,48,48,48,48,48,47,48,48,47,48,47,47,48,48,47,47,48,48,48,47,48,47,48,48,48,48,47,47,47,47,47,48,48,48,47,47,48,48,47,47,47,47,48,47,47,48,47,47,47,48,47,47,47,48,47,47,47,47,47,48,47,48,47,47,47,47,47,48,47,47,48,48,48,48,47,47,48,47,48,47,48,48,48,48,48,48,47,
0,0,0,0,0,0,0,0,0,0,0,0,0,0,0,0,0,47,47,48,47,48,48,47,48,47,47,47,47,47,48,48,47,48,47,47,47,48,48,47,48,48,47,47,47,47,48,47,48,48,48,47,48,48,48,48,47,47,47,48,47,48,47,47,48,47,47,47,48,47,47,47,47,47,48,47,48,47,47,48,48,47,48,48,48,48,48,47,48,47,48,47,47,48,47,47,48,48,47,47,47,48,48,48,47,48,48,48,48,48,48,47,47,48,47,47,48,48,47,47,47,47,48,47,48,48,48,47,48,47,47,48,48,47,47,48,48,48,48,47,48,47,48,48,47,48,48,47,48,48,47,48,48,48,47,48,48,48,48,47,48,48,47,47,47,47,48,48,48,47,48,48,47,48,47,47,48,47,48,48,47,48,47,48,48,47,48,47,47,47,47,47,47,47,48,48,47,48,47,47,47,48,47,47,47,48,47,47,47,47,48,47,47,47,48,48,47,48,47,48,48,47,48,48,47,47,48,48,48,47,47,48,48,47,47,48,47,47,47,47,48,48,47,48,48,48,47,48,47,48,47,48,47,48,48,47,47,47,47,47,48,48,48,48,47,47,47,47,47,47,48,48,48,48,47,48,47,48,47,48,47,47,47,48,48,47,48,47,47,48,48,47,47,48,47,47,47,47,48,47,47,48,47,47,47,48,48,47,48,48,48,48,47,48,47,48,47,47,47,48,48,47,48,47,47,48,47,47,47,48,47,47,47,47,47,47,47,47,47,47,47,48,47,48,48,47,47,48,47,48,47,48,47,47,47,48,47,48,47,47,48,47,47,47,47,47,47,48,47,48,47,47,
0,0,0,0,0,0,0,0,0,0,0,0,0,0,0,0,47,48,47,47,48,47,48,48,47,47,47,48,48,47,48,47,47,48,48,47,47,48,48,47,48,48,47,48,48,47,48,48,47,47,48,48,48,47,48,48,48,48,47,48,48,48,48,47,47,48,48,47,48,47,48,47,47,48,47,48,48,47,47,47,47,47,47,47,47,48,47,48,47,48,48,47,47,48,47,48,47,48,48,47,47,48,48,47,47,47,47,47,48,48,48,47,47,47,47,47,47,47,48,47,48,47,47,48,47,48,48,47,47,48,47,48,48,48,48,47,47,47,48,48,48,48,48,48,48,47,47,47,47,47,48,47,48,47,47,47,48,47,48,47,48,47,47,48,48,47,48,48,47,48,48,48,47,47,48,48,48,48,47,47,47,47,47,48,47,47,47,47,48,47,48,47,47,48,48,48,48,48,48,48,48,48,48,48,47,47,47,47,48,48,48,48,48,47,48,48,48,48,47,48,47,47,47,47,47,48,48,47,47,48,47,48,48,47,47,48,47,47,47,48,47,48,47,47,48,48,48,47,47,47,48,47,47,47,47,48,48,48,47,47,48,47,47,47,47,48,47,47,48,48,48,47,47,47,48,47,48,48,48,48,47,48,48,47,47,48,48,48,47,48,47,47,48,48,47,47,47,48,47,48,47,47,47,47,47,47,48,48,48,47,47,47,47,48,48,48,48,48,48,48,47,47,47,48,48,47,47,48,48,47,48,47,48,48,48,47,47,48,48,47,47,47,48,47,48,48,48,48,48,48,47,48,47,48,48,48,47,47,47,47,47,47,48,48,48,48,48,47,47,47,48,47,
0,0,0,0,0,0,0,0,0,0,0,0,0,0,0,48,48,48,48,47,48,47,47,47,48,47,48,47,47,47,48,48,48,48,47,48,48,47,48,48,48,47,47,47,47,47,47,48,47,47,47,48,48,48,47,47,47,47,48,48,48,48,48,47,47,48,48,47,48,48,47,47,48,47,47,48,47,47,48,47,48,47,48,47,48,48,48,47,48,48,47,47,47,47,47,48,47,47,47,47,47,48,47,47,48,47,47,47,47,48,48,48,47,47,48,48,48,48,48,48,47,47,48,47,47,48,48,47,48,48,47,48,48,47,48,47,47,47,47,47,48,48,48,47,48,48,48,47,47,48,47,48,47,48,48,47,48,48,48,47,48,48,48,47,47,48,47,47,47,48,47,47,48,47,47,47,48,47,48,48,48,47,47,48,47,48,47,48,48,47,47,48,48,47,47,48,47,48,48,48,47,47,48,48,48,48,47,47,47,47,47,47,48,48,47,48,47,47,48,47,48,48,48,47,47,48,47,48,48,48,47,47,47,47,48,47,48,47,47,48,48,48,47,48,47,47,48,47,47,47,48,48,48,47,48,47,48,48,47,47,48,47,48,47,47,48,48,47,47,47,48,48,48,47,48,47,47,48,47,47,47,48,48,48,48,47,47,48,47,48,47,48,47,47,48,47,48,48,48,47,48,47,48,48,48,47,48,48,47,48,47,47,48,47,47,48,48,47,47,48,47,47,47,47,48,48,48,48,47,48,48,48,47,47,48,48,47,48,47,47,47,47,47,47,47,47,47,48,48,48,48,47,48,48,47,48,48,47,47,47,48,47,47,48,47,48,47,47,48,47,47,48,
0,0,0,0,0,0,0,0,0,0,0,0,0,0,47,48,47,47,47,47,48,47,47,47,48,47,47,47,48,47,48,47,47,47,48,48,47,48,48,47,47,48,47,48,48,47,48,48,47,47,47,48,47,47,48,47,47,47,48,48,47,47,47,48,48,47,47,48,47,47,47,48,47,48,47,47,47,48,48,47,48,48,47,48,48,48,47,47,48,47,47,47,48,47,47,47,47,48,47,47,47,47,47,47,48,48,48,48,47,48,48,48,48,48,47,48,48,47,47,47,47,48,47,48,48,48,47,47,47,47,48,47,47,48,47,47,48,48,47,48,48,47,47,47,48,48,47,48,48,47,48,47,48,48,47,47,48,47,47,48,48,48,48,47,47,47,48,47,48,47,48,47,47,47,48,47,47,48,48,48,48,48,47,48,47,48,48,47,48,48,48,48,47,48,47,47,48,48,47,48,48,47,48,48,48,47,48,48,48,47,48,48,47,48,48,47,47,48,47,48,48,48,48,47,48,48,47,48,48,48,47,48,47,47,47,47,48,47,48,47,47,47,48,47,48,48,48,47,48,47,47,47,47,47,48,48,47,48,47,48,48,47,48,48,48,47,48,47,48,47,47,48,47,48,47,48,48,48,48,48,48,48,48,48,47,48,48,47,48,48,47,47,48,48,47,48,47,48,48,48,48,47,47,47,47,47,47,48,48,47,48,48,48,48,48,47,47,47,48,48,48,47,48,47,48,48,47,47,48,48,48,48,48,47,48,48,47,48,47,47,48,47,48,47,48,48,48,47,48,47,48,47,48,47,48,48,47,47,47,48,47,47,48,47,48,47,47,47,48,47,47,47,
0,0,0,0,0,0,0,0,0,0,0,0,0,48,47,47,47,47,47,48,48,47,48,47,48,47,48,48,48,47,47,48,47,47,47,48,47,48,48,47,48,47,47,47,48,48,48,48,47,47,47,48,47,48,48,47,48,47,47,48,48,48,48,47,47,48,48,48,47,48,47,48,47,47,48,47,47,47,48,48,47,48,48,48,47,47,47,48,47,47,47,47,47,48,48,47,47,48,48,47,47,47,47,48,48,47,48,48,47,48,47,47,48,48,48,47,47,47,48,47,47,47,47,47,48,48,47,47,48,48,48,48,47,47,48,48,48,48,48,47,48,48,47,47,47,48,48,48,47,48,48,47,47,47,48,48,47,47,48,47,48,48,47,47,47,48,47,48,47,47,47,47,47,47,48,47,47,47,47,48,48,47,47,48,48,47,48,48,48,47,47,47,47,47,48,47,47,47,48,47,47,47,48,48,47,47,47,48,48,47,47,47,48,48,48,48,48,48,48,47,48,47,48,48,48,47,48,47,48,48,47,47,48,48,48,47,47,48,47,47,48,47,47,48,47,47,48,48,48,48,47,48,48,48,48,47,48,48,47,48,47,48,47,48,47,48,48,48,48,47,48,48,47,47,47,47,47,48,48,47,47,48,48,47,48,48,47,47,48,48,48,47,47,47,48,48,47,48,48,48,48,48,48,48,48,48,47,47,48,48,47,48,47,47,48,47,48,47,48,47,47,47,47,47,48,47,48,47,48,48,48,48,48,48,47,47,48,47,48,47,47,48,48,47,48,47,47,48,47,48,48,48,47,48,47,48,47,48,48,47,47,47,48,47,47,47,48,47,47,48,47,47,
0,0,0,0,0,0,0,0,0,0,0,0,47,47,47,47,47,47,47,47,48,48,48,47,47,48,48,47,47,48,48,47,48,47,47,48,48,47,47,47,47,47,48,47,47,48,48,47,47,47,48,48,47,47,47,47,47,48,48,48,47,48,47,47,47,47,47,48,47,47,48,47,48,47,47,48,48,48,48,48,48,47,47,47,47,48,48,47,47,48,48,47,47,48,47,47,47,48,47,47,48,47,47,47,47,47,47,47,47,48,47,47,47,47,47,48,47,48,48,48,47,48,48,48,48,48,47,47,47,47,48,47,48,47,47,48,48,48,47,47,47,47,47,47,47,48,47,47,48,48,48,48,48,48,47,47,48,47,48,48,47,47,47,47,47,48,47,48,47,47,48,48,47,48,47,47,48,47,47,48,48,48,48,48,48,47,47,48,48,48,48,47,48,47,48,48,48,48,47,48,47,47,48,47,48,47,48,48,48,48,48,48,47,47,47,47,48,47,48,47,47,47,48,48,47,47,47,47,47,48,47,48,47,48,48,48,48,48,47,48,47,47,48,47,48,47,48,48,48,47,48,47,48,47,47,48,47,48,47,48,48,48,48,47,47,48,48,48,47,47,47,47,47,47,47,48,48,48,48,48,47,47,47,47,47,47,47,47,47,48,48,47,47,47,48,47,47,48,47,48,47,48,48,47,48,48,47,47,47,48,48,48,47,47,48,47,47,48,48,47,47,48,48,47,48,48,48,47,48,47,47,48,47,47,47,48,47,48,48,47,47,48,48,48,48,48,48,48,48,48,48,47,47,47,47,47,48,48,48,48,48,47,48,47,48,47,48,47,47,47,48,47,
0,0,0,0,0,0,0,0,0,0,0,48,48,48,48,47,47,47,47,48,48,48,48,47,48,47,48,48,47,48,48,48,47,48,48,47,48,48,47,47,47,47,47,48,48,48,47,48,48,47,47,47,47,48,47,47,48,48,47,47,48,47,47,48,47,48,47,47,47,48,47,48,47,47,47,48,48,48,47,48,47,47,48,48,47,47,47,48,47,47,48,47,48,47,48,47,48,47,48,48,48,47,47,48,48,47,47,47,47,48,48,47,47,47,48,47,47,48,48,47,47,47,47,47,48,48,48,47,47,47,48,47,48,47,48,48,48,47,48,48,47,47,47,47,47,47,47,47,47,48,48,48,48,48,48,48,47,47,48,47,48,47,48,48,48,47,48,47,47,48,48,47,48,48,47,48,47,47,48,48,47,48,48,48,47,48,47,47,47,47,47,48,47,48,48,47,47,47,48,47,48,48,48,47,47,48,47,47,47,48,47,47,48,47,48,48,48,47,48,48,47,47,48,48,47,47,48,47,48,48,47,47,47,47,47,48,47,48,47,47,48,48,48,48,48,48,47,48,48,48,48,48,48,48,48,48,48,48,48,47,47,48,48,48,48,48,47,48,48,48,48,47,47,47,48,48,47,47,47,48,48,47,48,47,48,47,47,47,47,48,47,48,47,48,47,47,48,48,47,47,48,48,47,47,47,47,48,47,48,48,48,48,48,47,48,47,48,48,48,48,47,48,48,47,47,48,47,47,47,47,47,48,48,47,48,47,48,48,48,47,47,47,48,47,48,47,48,48,48,48,47,47,48,48,47,47,47,48,48,47,48,48,47,47,48,48,48,48,48,47,48,47,
0,0,0,0,0,0,0,0,0,0,48,47,47,48,47,48,47,48,48,48,47,48,48,47,47,48,47,47,48,48,47,48,47,47,48,48,47,48,48,48,48,48,48,47,48,47,47,47,47,48,47,48,47,48,48,47,47,48,47,47,48,47,48,47,48,48,48,48,48,48,47,48,48,48,48,48,47,48,47,47,48,47,48,47,48,47,48,48,48,47,47,47,48,48,47,48,47,47,48,47,48,48,48,48,48,47,48,48,48,48,48,47,48,48,47,47,48,48,47,48,47,48,47,47,48,47,47,48,48,47,48,47,47,48,48,47,48,47,48,47,47,48,47,48,47,48,48,48,47,47,48,48,48,48,47,48,47,48,47,48,48,48,47,47,47,48,47,47,48,48,47,47,47,47,47,47,47,47,48,47,47,48,47,47,48,48,48,48,47,48,47,48,48,47,47,48,47,47,48,47,47,47,48,47,48,47,47,47,48,47,47,48,48,48,47,48,48,47,47,48,48,47,48,47,47,47,48,47,47,47,48,48,47,47,47,48,47,47,48,48,47,47,47,48,48,47,48,48,48,48,47,48,47,48,47,47,48,47,48,48,47,47,48,48,47,47,48,48,47,47,48,47,48,47,48,47,48,47,47,48,48,48,47,47,47,47,47,48,48,47,48,48,48,47,48,47,47,47,47,47,48,47,47,47,48,47,47,47,47,47,48,47,47,48,47,48,48,48,48,48,48,48,47,48,48,48,48,47,48,47,48,47,48,47,48,47,47,47,47,47,47,48,47,48,47,48,47,48,48,47,47,48,47,47,48,48,48,48,48,47,47,47,47,47,47,47,47,47,47,48,48,47,
0,0,0,0,0,0,0,0,0,47,47,47,47,48,47,47,48,47,47,48,47,48,48,48,48,48,47,47,47,47,48,47,47,48,48,48,48,47,47,47,48,48,47,48,48,47,47,48,48,48,47,47,48,48,47,48,48,47,47,47,48,47,48,47,47,47,47,47,48,47,48,47,47,47,48,47,47,47,48,48,47,48,48,48,47,47,48,48,48,47,47,48,48,48,48,47,48,47,48,48,48,47,47,47,47,48,48,48,47,47,48,47,48,48,47,48,47,48,47,47,48,47,47,47,47,48,47,47,47,47,48,48,48,48,47,47,48,47,48,47,47,48,48,48,47,47,47,47,47,48,48,48,47,48,47,47,48,47,47,47,47,47,47,48,48,47,47,48,47,48,47,47,47,48,47,48,48,48,48,47,48,47,47,48,48,47,47,47,47,48,47,47,48,48,47,48,47,47,48,48,47,48,48,48,47,48,48,48,47,48,47,47,47,48,47,48,48,47,47,47,48,48,48,47,47,47,48,48,48,47,47,48,47,47,48,47,48,48,47,47,47,48,47,48,48,47,47,47,47,47,47,47,48,48,48,47,47,47,48,47,47,47,48,47,47,47,48,48,47,47,48,48,47,48,47,47,48,48,48,47,48,48,48,48,47,47,47,47,48,47,48,47,47,48,48,47,48,47,47,48,48,47,47,48,48,48,48,48,48,47,48,48,48,48,48,47,48,47,47,47,47,47,48,47,47,47,48,47,48,47,47,48,48,48,47,47,48,47,48,47,47,48,48,48,47,48,48,48,48,47,48,47,47,47,48,47,48,48,48,47,47,47,47,48,48,48,48,48,48,47,48,47,
0,0,0,0,0,0,0,0,48,47,47,48,48,48,48,47,47,47,47,47,47,47,47,48,47,48,47,48,48,48,48,48,48,47,48,48,48,48,48,47,48,48,47,47,48,48,48,47,47,48,48,47,47,48,48,48,48,48,47,48,48,48,48,47,47,47,47,47,47,48,47,48,47,48,48,48,47,47,47,47,48,48,47,48,48,47,48,47,47,47,47,48,47,47,48,48,48,47,47,48,48,47,48,48,47,47,47,47,48,47,48,48,47,48,48,48,47,47,48,48,47,48,47,48,47,48,48,48,47,48,48,48,47,48,47,47,48,47,48,47,48,47,48,48,47,48,48,47,48,48,47,48,47,48,48,47,47,48,47,48,47,48,48,48,47,48,48,47,48,48,47,48,48,47,48,47,48,47,48,47,47,47,48,47,47,48,47,47,48,47,48,48,48,48,48,48,48,47,48,48,47,48,48,47,48,48,47,47,48,47,47,48,47,47,47,48,47,48,47,47,47,48,48,47,47,48,48,47,47,48,48,47,48,48,47,47,48,47,47,48,47,47,47,47,48,48,47,48,47,47,48,48,48,47,48,48,48,47,47,48,48,48,47,48,48,47,48,48,47,47,47,48,47,48,47,48,48,47,47,47,47,47,48,47,48,47,48,47,48,48,48,48,48,48,47,47,47,47,48,48,47,48,47,47,47,47,48,47,48,47,48,48,48,47,48,47,48,48,47,47,47,48,48,47,47,47,47,48,48,47,47,48,48,47,48,48,47,48,48,48,47,47,48,48,47,47,48,47,47,47,48,47,47,48,47,48,47,47,48,47,48,48,47,47,48,48,48,48,48,48,48,48,
0,0,0,0,0,0,0,48,48,47,47,48,47,47,48,48,47,47,47,48,47,48,47,48,48,48,47,48,48,47,47,48,48,47,48,47,48,47,48,48,48,48,48,47,47,48,47,48,48,47,47,48,47,48,48,48,48,47,47,48,47,47,47,48,47,48,48,48,48,48,47,47,48,48,48,48,47,47,48,47,47,47,47,47,48,47,48,47,48,48,48,47,47,47,47,47,47,48,47,47,48,47,48,48,47,47,47,47,48,48,47,47,47,47,47,47,47,48,47,47,47,47,48,48,47,47,47,47,48,48,47,48,48,48,48,47,47,47,47,48,47,48,48,48,48,47,48,48,47,47,47,47,48,47,48,47,48,48,47,47,48,47,48,48,47,48,48,47,47,48,47,47,48,48,48,48,48,48,47,47,48,48,47,47,47,47,48,48,47,48,48,48,48,48,47,48,48,48,48,48,47,48,47,47,47,48,48,47,48,48,48,47,47,47,48,48,47,48,48,48,47,47,48,47,48,47,47,48,48,47,47,48,47,47,48,47,48,47,48,47,48,47,48,47,48,47,48,47,48,48,47,47,47,48,47,47,48,47,47,48,48,47,47,47,48,48,47,47,47,48,48,48,48,48,48,47,48,47,48,47,47,48,48,48,48,48,47,47,48,48,47,47,47,48,48,47,47,47,47,48,48,47,48,47,47,47,47,47,48,47,47,48,48,47,47,47,47,47,47,48,48,47,48,47,48,47,48,47,48,48,47,47,48,48,47,47,47,48,48,48,47,48,47,47,48,47,47,47,48,47,48,47,47,47,48,48,48,47,47,47,48,47,47,48,48,48,48,48,47,47,47,47,
0,0,0,0,0,0,48,47,48,47,48,48,47,48,48,48,48,48,47,47,47,48,47,47,48,47,48,48,48,47,47,47,47,47,47,47,48,47,48,48,47,47,47,47,47,47,47,48,48,47,47,48,48,47,47,48,48,48,47,48,47,48,47,48,48,48,47,48,48,47,48,48,48,48,47,47,47,48,48,48,47,47,48,47,47,47,47,48,47,48,47,48,47,48,47,48,47,47,47,47,47,47,47,47,47,48,47,48,47,48,48,47,47,48,48,48,47,47,48,48,48,48,48,47,48,48,48,48,48,48,47,48,47,47,48,48,48,48,48,48,47,47,47,47,47,47,47,47,47,47,47,47,48,47,48,47,48,47,48,48,47,48,47,48,47,47,47,47,48,48,47,47,47,48,48,48,48,47,48,47,47,47,48,48,48,48,47,47,47,48,48,47,47,48,47,47,47,48,48,47,47,47,48,48,47,48,47,47,47,48,47,48,48,48,47,48,48,48,48,48,47,47,47,47,48,47,47,47,48,48,47,47,47,47,48,47,48,47,48,47,47,47,48,48,47,47,47,48,48,47,47,47,48,47,47,47,48,48,47,48,47,47,48,47,48,47,48,48,48,47,48,48,48,48,48,47,47,47,48,47,47,47,47,48,48,47,48,47,48,47,48,47,48,48,48,48,48,47,48,47,47,48,48,48,48,47,48,47,48,48,47,48,48,47,47,48,48,48,47,47,47,47,47,47,47,48,48,48,48,47,48,47,48,47,48,48,47,48,48,47,47,47,48,48,48,47,47,47,48,47,48,47,47,48,47,48,47,48,47,47,47,47,48,48,47,47,48,48,47,48,47,47,
0,0,0,0,0,0,48,47,48,47,47,48,48,48,47,48,47,47,48,47,47,47,48,48,47,48,48,48,48,47,48,48,48,48,48,48,47,48,48,47,48,47,48,47,47,47,47,48,47,48,47,47,48,48,48,47,47,48,48,48,47,48,48,47,47,48,47,47,47,47,48,48,47,48,48,48,47,47,48,47,47,47,47,48,48,47,48,48,47,47,47,47,48,48,47,48,47,47,48,48,47,48,47,48,48,47,47,47,48,47,47,48,48,47,47,48,48,47,47,48,48,48,48,48,47,47,48,47,48,48,47,47,47,48,48,48,48,47,47,47,48,48,48,47,47,48,47,47,47,48,47,47,48,47,48,47,48,48,48,47,48,47,47,47,47,47,48,48,47,48,47,47,48,47,47,47,47,48,47,47,48,48,48,47,48,47,48,47,48,48,48,48,47,47,47,47,48,48,47,48,48,48,48,47,47,48,47,48,48,48,47,47,48,48,47,47,48,48,47,47,47,48,47,47,48,47,47,48,48,48,48,48,48,47,47,48,48,48,48,47,47,47,48,48,47,47,47,48,48,48,47,48,48,47,48,48,48,47,47,47,47,47,47,48,48,48,48,48,47,48,47,47,47,48,48,47,48,47,47,48,47,48,48,47,48,48,47,47,48,47,48,47,47,47,48,48,47,48,48,48,48,47,47,48,48,48,47,47,48,48,47,48,47,48,47,47,47,47,47,47,48,47,48,48,47,48,48,48,47,48,48,48,48,47,47,47,47,47,47,47,47,48,48,48,47,47,48,47,47,47,48,47,48,48,48,47,48,48,48,47,48,47,48,48,47,48,47,48,47,47,48,47,
0,0,0,0,0,47,47,48,47,48,48,48,48,48,47,47,48,48,47,47,47,47,48,47,48,48,47,47,48,48,47,47,47,47,47,48,48,47,47,47,48,48,48,48,47,48,48,48,48,48,47,48,47,48,48,47,48,48,48,47,48,47,48,47,47,47,47,48,47,48,48,48,47,47,47,47,48,47,48,48,48,47,48,47,48,48,48,47,48,47,47,47,48,48,47,47,47,48,47,47,47,47,48,48,48,47,47,47,47,48,47,47,47,48,47,47,47,48,48,47,47,48,48,47,48,48,48,48,47,48,47,47,47,47,47,47,47,47,48,48,48,47,47,48,48,47,48,48,47,48,47,48,47,48,48,48,47,47,47,48,48,47,47,48,48,48,47,48,47,47,47,48,48,47,47,48,48,47,47,47,48,47,47,48,47,47,47,48,47,48,47,48,47,48,47,47,48,48,48,47,48,48,47,47,47,48,48,48,48,48,47,48,47,48,48,47,47,48,47,48,48,47,47,48,48,48,48,48,47,48,47,47,48,48,48,48,48,47,47,47,48,47,47,47,47,48,47,47,47,47,48,47,47,48,47,47,47,47,48,48,48,48,47,47,47,47,47,47,47,48,47,48,47,47,47,48,47,48,48,47,47,48,47,48,48,47,47,48,47,48,48,48,48,48,48,47,48,47,47,47,48,47,48,48,47,47,47,48,48,48,47,48,48,47,48,48,47,48,47,47,47,47,48,48,48,48,47,48,48,48,47,48,48,47,48,47,47,48,48,48,47,48,47,48,48,47,48,47,48,48,48,47,47,47,48,48,48,48,47,48,47,47,47,48,48,48,48,47,48,48,48,47,
0,0,0,0,0,48,47,48,47,48,47,47,47,48,48,48,47,48,48,48,47,47,48,48,48,48,47,48,48,47,47,47,47,48,47,47,47,47,48,48,47,48,48,47,48,47,48,48,47,48,48,47,48,47,47,47,48,47,47,48,48,47,48,47,47,48,48,48,47,47,47,48,47,48,48,47,48,48,48,47,47,48,47,47,47,48,47,48,48,48,47,47,48,48,48,48,47,47,48,47,48,48,48,48,48,47,48,47,48,47,47,47,48,47,48,47,48,47,47,47,47,47,47,47,47,47,47,48,47,47,48,47,48,48,47,47,47,48,47,47,47,48,47,48,48,47,47,48,47,48,47,47,48,48,47,47,47,48,48,48,48,48,47,48,47,47,48,48,47,48,47,47,47,47,48,48,47,48,47,48,47,47,48,47,48,48,48,48,47,48,48,47,47,48,48,48,48,47,47,48,48,47,48,47,48,47,47,47,47,47,47,47,48,48,47,47,47,48,48,47,48,47,47,47,47,48,47,48,48,48,47,48,48,48,47,48,48,48,48,48,47,47,47,47,48,47,47,48,48,48,47,48,48,48,48,47,48,48,48,47,47,48,47,47,48,48,47,48,48,48,47,47,48,48,47,48,47,48,47,48,48,48,48,48,48,47,48,48,47,47,48,47,48,48,48,47,47,48,47,48,47,47,47,47,48,47,47,47,48,47,48,47,48,47,48,47,48,48,47,48,47,48,48,47,48,48,47,47,47,47,47,47,47,48,47,48,48,48,48,47,48,47,47,47,48,48,48,48,48,48,47,47,47,47,47,48,48,47,48,48,48,48,47,47,47,47,47,48,47,47,48,48,
0,0,0,0,48,47,47,48,48,48,48,47,47,47,47,47,48,47,47,48,48,47,47,47,47,47,48,48,47,47,48,48,47,47,48,48,48,48,47,48,48,47,47,47,47,48,47,48,48,47,48,47,48,47,48,47,47,47,48,48,48,48,48,47,48,48,47,47,47,48,47,48,47,48,47,47,47,47,48,48,48,47,48,47,47,48,48,47,48,47,47,48,48,47,47,48,48,48,47,48,48,48,48,47,48,47,47,47,48,48,48,47,47,47,47,47,47,48,48,48,47,47,48,47,47,47,48,47,47,48,47,48,47,48,48,47,47,47,47,48,47,48,48,47,48,48,47,48,48,47,48,47,48,47,48,47,48,47,47,47,47,48,47,48,48,48,48,47,48,48,48,47,47,48,47,48,48,48,48,48,47,48,47,48,48,48,48,48,48,48,48,48,48,48,48,48,47,47,47,48,47,48,48,47,47,47,48,47,47,47,48,47,47,48,47,48,48,48,48,47,48,48,47,48,47,48,48,47,48,48,47,47,47,48,47,47,48,48,48,47,47,48,48,48,47,48,48,47,47,48,48,48,47,48,48,48,48,48,48,48,47,48,48,47,48,48,48,47,47,48,47,48,48,48,47,47,47,48,48,47,47,47,48,48,47,47,48,47,48,47,47,48,47,47,48,48,47,47,47,47,47,47,47,48,48,47,48,47,47,48,47,48,48,48,47,47,48,47,48,47,47,47,48,48,48,48,48,47,47,47,47,47,48,48,47,47,48,47,48,48,48,47,47,47,48,47,47,48,48,47,47,47,47,48,47,48,47,47,47,47,47,48,48,47,47,47,47,48,48,48,48,47,
0,0,0,0,47,48,48,47,47,48,47,47,47,48,48,47,47,48,48,48,48,48,48,48,48,48,47,47,48,48,48,48,47,47,47,48,48,48,47,47,47,47,48,48,47,48,48,47,47,48,48,48,47,48,47,47,48,47,47,48,47,47,48,47,48,47,47,47,48,48,47,47,47,48,47,47,48,48,47,48,48,48,47,48,48,48,48,47,48,47,47,47,47,48,48,48,47,48,47,47,48,48,47,47,47,48,47,48,47,47,48,47,47,48,47,48,47,48,47,48,47,47,47,47,47,48,47,47,48,48,47,48,47,47,48,47,47,47,48,48,48,47,48,48,47,47,47,48,48,48,47,47,48,47,48,48,47,47,47,48,48,48,48,48,48,48,48,47,47,48,48,48,47,48,47,47,48,47,48,48,48,47,47,47,48,48,48,48,48,47,47,48,48,48,48,48,47,47,48,47,47,48,47,48,48,48,48,48,47,48,48,47,47,47,47,47,48,48,48,48,48,47,47,48,48,48,48,47,48,48,48,47,47,48,48,47,48,47,47,48,47,47,47,48,48,47,47,48,47,47,47,47,47,47,48,47,48,47,47,48,48,47,48,47,47,48,48,47,48,48,48,48,47,48,48,48,47,48,47,47,47,47,48,48,47,48,48,48,48,48,47,48,48,48,47,48,48,48,47,47,47,48,48,47,47,48,47,47,47,47,47,48,47,47,48,48,47,48,48,48,47,48,48,47,47,48,47,48,47,48,47,48,47,47,47,47,47,48,48,48,48,47,48,48,48,47,47,48,48,47,47,47,47,48,48,47,47,48,48,47,47,47,48,48,48,48,47,47,48,47,47,47,
0,0,0,47,47,47,48,47,47,48,47,48,48,47,48,47,47,47,47,48,47,47,47,48,47,47,48,47,48,48,47,47,47,48,47,48,48,47,48,48,47,47,47,47,48,47,47,47,47,48,47,47,47,47,48,48,48,47,48,48,48,48,47,47,47,47,48,48,47,47,48,48,47,48,47,48,47,48,47,48,47,48,47,48,47,47,47,48,48,47,47,48,48,48,47,48,47,48,48,47,48,48,48,47,47,47,48,47,48,48,47,48,48,47,48,48,47,47,48,48,47,48,47,47,48,47,47,47,48,48,48,47,48,48,47,47,48,47,47,47,48,48,48,48,48,47,48,48,48,47,47,47,48,48,48,47,47,48,48,47,47,47,48,47,48,48,47,47,48,47,47,47,47,47,48,47,48,48,47,48,47,48,47,47,47,47,48,47,48,48,48,48,48,47,47,47,48,48,47,47,48,47,47,47,48,47,47,48,47,47,48,48,47,47,47,47,48,48,48,48,48,48,48,48,48,47,47,48,47,47,47,48,47,48,47,48,47,47,48,48,48,48,47,48,48,48,48,47,47,47,48,48,47,48,48,47,48,47,48,47,47,48,48,47,48,48,47,47,47,47,47,47,47,48,47,48,47,47,47,48,48,47,48,47,47,48,47,48,47,48,47,47,47,47,47,47,48,48,47,47,47,47,48,47,48,47,47,48,48,47,47,47,47,48,47,47,48,48,47,47,47,47,47,47,48,48,48,48,48,48,48,47,47,48,48,47,48,47,48,48,47,48,48,48,47,48,48,47,47,47,47,47,48,47,47,48,48,47,47,47,48,47,47,48,48,48,47,48,47,48,48,48,
0,0,0,48,47,47,47,48,47,48,48,48,47,47,48,47,47,48,47,48,47,48,48,47,47,48,48,47,47,47,48,47,47,47,47,47,47,47,47,48,47,47,47,47,48,47,48,47,48,48,47,48,48,47,47,47,48,48,47,47,48,48,47,48,47,48,47,47,47,48,47,47,47,47,48,47,48,48,48,47,47,48,47,47,48,47,47,48,47,48,47,47,48,47,48,47,48,47,47,48,48,47,47,48,48,48,48,47,48,47,47,47,48,47,47,47,48,47,47,47,48,47,48,48,47,47,48,48,47,48,48,48,48,47,47,47,47,48,48,48,47,48,48,47,48,48,48,47,48,48,47,48,48,48,47,48,48,48,47,48,48,48,47,47,47,47,48,47,48,48,47,48,47,47,48,48,47,47,48,48,47,48,48,48,47,48,48,47,47,48,47,47,47,48,48,47,48,48,47,47,47,48,48,48,47,47,47,47,48,47,47,48,47,48,48,47,47,47,48,48,48,48,47,47,47,47,47,47,48,47,47,48,47,47,47,48,48,47,48,47,47,48,47,47,48,47,47,48,48,47,47,47,48,48,47,47,48,48,48,48,47,48,48,48,48,47,48,47,48,48,48,47,48,47,48,48,47,48,47,47,48,47,47,48,48,47,48,47,48,47,48,48,48,47,47,47,47,47,48,47,47,47,47,47,48,47,47,47,48,47,47,47,47,47,47,48,48,47,48,47,48,48,47,48,48,48,48,47,47,48,48,48,48,47,47,48,47,47,48,47,48,47,48,48,47,48,48,48,48,48,48,47,47,48,47,48,47,47,47,47,47,48,48,47,48,48,47,47,48,48,47,48,
0,0,47,47,48,48,47,47,48,47,47,48,48,47,48,47,47,48,48,47,47,47,47,47,47,48,48,47,48,47,48,48,48,47,47,48,47,48,47,47,48,47,47,47,48,48,48,48,48,47,47,48,47,48,48,48,47,47,48,48,48,47,48,47,47,47,47,47,48,47,47,47,47,48,48,48,47,48,48,48,48,47,48,48,48,48,48,48,48,48,48,47,48,48,47,47,47,48,48,47,48,47,47,47,48,47,47,47,48,48,48,47,47,48,47,48,48,48,48,48,47,47,48,47,48,48,48,47,47,47,47,48,48,48,48,48,47,47,47,48,47,48,48,48,47,48,47,48,48,48,47,47,48,48,47,47,48,47,48,47,48,48,48,48,47,47,47,48,48,48,47,48,48,47,47,47,48,48,48,47,47,48,48,48,47,48,48,47,47,47,48,47,47,48,47,47,48,48,47,47,47,47,47,47,47,47,48,48,48,47,47,48,48,47,47,47,48,48,47,47,48,48,47,48,48,47,48,48,48,48,47,47,48,48,47,48,48,48,48,48,47,48,48,48,48,47,48,48,48,48,48,47,48,47,48,48,48,48,47,47,48,48,47,48,48,47,48,47,48,48,48,47,48,48,47,47,48,47,47,48,48,48,47,48,48,47,47,48,47,47,48,48,47,47,48,47,47,47,48,47,48,47,47,48,48,47,47,47,47,47,47,47,47,48,48,48,47,48,47,48,47,48,47,47,47,48,48,48,47,48,48,48,47,48,48,48,47,47,47,48,47,47,47,47,48,48,48,47,47,48,48,48,48,48,48,48,47,47,47,48,48,48,47,48,48,47,47,48,47,47,47,48,
0,0,47,48,48,48,47,47,47,47,47,47,47,48,48,47,47,48,48,47,47,48,48,48,48,48,48,48,48,48,48,47,47,47,47,47,47,47,47,47,48,48,48,47,47,48,48,47,48,48,47,47,47,48,48,47,48,47,47,47,47,47,47,48,48,48,47,48,47,47,47,48,47,48,47,47,48,48,48,48,48,48,47,48,48,48,48,47,47,48,48,47,47,48,47,48,48,47,48,48,48,48,47,47,47,48,48,48,48,47,48,48,47,48,47,47,47,47,48,48,47,48,47,48,47,47,48,47,48,47,48,48,47,48,48,48,48,48,47,47,47,47,47,48,47,48,48,48,47,48,47,48,47,48,48,48,47,48,47,48,48,48,47,48,48,48,48,47,47,48,48,48,48,48,48,47,48,48,47,47,47,48,47,47,48,47,48,47,47,47,47,48,48,47,48,47,48,47,47,48,47,47,48,47,47,47,47,48,47,48,48,48,48,48,48,48,48,48,47,47,47,48,47,47,47,48,48,48,48,48,47,48,47,47,48,47,48,48,48,47,47,48,48,47,48,47,47,47,47,47,47,48,47,48,47,47,47,47,48,47,48,47,48,47,47,48,48,47,47,48,48,48,48,47,48,48,47,47,47,48,47,48,48,48,47,47,48,47,48,47,47,47,48,48,48,47,47,47,47,47,47,48,47,48,48,48,47,48,47,48,47,48,48,47,48,47,47,47,47,47,48,47,48,47,48,48,48,47,48,48,47,48,47,47,48,47,47,48,47,47,48,48,48,48,48,48,48,48,47,47,48,48,47,48,47,48,47,47,48,47,47,48,48,47,48,48,48,47,48,47,48,48,
0,48,48,48,47,48,48,47,47,47,47,48,48,48,48,47,47,48,48,47,48,47,47,47,48,47,48,47,47,48,48,48,47,47,48,47,47,47,47,48,48,47,47,48,48,48,47,47,47,48,47,47,48,47,47,47,47,47,48,47,47,48,48,47,48,47,48,48,48,47,48,48,48,47,47,48,48,47,48,48,47,47,48,47,48,48,47,47,48,47,47,48,48,48,48,47,48,47,47,47,48,48,48,48,48,47,48,47,47,48,47,47,47,47,47,47,47,47,47,47,48,47,48,48,48,48,47,48,47,47,47,48,48,48,48,48,47,48,47,48,47,48,48,48,48,48,48,48,47,48,47,47,47,47,47,47,48,48,47,48,48,47,47,48,48,47,48,47,48,47,47,48,47,48,48,47,48,47,48,47,47,48,48,48,47,48,47,48,48,47,47,48,47,47,48,48,47,47,48,48,47,48,48,48,48,47,47,48,47,48,48,48,47,48,47,47,47,48,48,47,48,47,47,47,47,47,48,47,47,48,48,47,48,48,48,47,47,48,47,47,48,48,47,48,48,47,47,48,48,47,48,47,47,48,47,47,48,48,47,47,47,48,48,47,48,48,47,48,47,48,48,47,48,48,48,47,47,47,48,47,48,47,48,47,47,47,48,47,47,47,47,48,47,48,47,48,47,47,48,47,48,47,47,47,47,47,48,48,48,48,48,47,48,48,48,48,47,48,48,47,48,48,47,47,47,48,47,48,47,48,47,48,48,47,48,47,47,47,47,48,47,47,47,48,47,48,48,48,48,48,47,47,47,47,48,47,47,48,48,47,47,48,48,48,47,47,47,48,48,48,47,47,
0,47,47,48,48,48,48,47,47,48,48,47,48,48,48,48,48,47,47,48,48,48,47,48,47,47,47,47,48,48,47,48,48,47,48,47,48,47,48,47,48,48,47,47,47,47,48,47,47,47,47,47,47,47,47,47,48,48,48,47,47,48,48,47,47,47,47,48,47,48,47,48,48,47,48,48,48,47,48,47,48,47,48,47,48,47,48,48,47,47,48,47,47,48,48,47,47,47,48,47,48,47,48,48,47,47,47,48,48,48,47,47,47,47,48,47,48,48,48,47,47,48,47,47,47,47,47,47,47,47,47,48,48,48,48,47,47,47,48,48,48,47,47,48,48,47,48,48,47,47,47,47,48,48,48,48,47,47,48,47,48,47,47,47,48,47,47,47,47,47,47,47,47,48,47,47,48,47,47,48,47,48,47,47,47,48,47,47,48,47,48,47,48,47,47,48,48,48,48,47,47,47,47,47,47,48,47,47,47,48,47,48,48,47,48,48,48,48,47,47,48,48,47,47,48,48,47,48,47,47,48,47,47,48,47,47,47,47,48,47,47,47,47,48,47,48,47,48,48,48,48,48,48,48,48,47,48,48,48,48,48,48,47,48,47,48,48,47,47,47,47,48,48,47,47,48,47,47,47,48,48,48,47,47,47,47,48,47,47,47,48,47,48,47,48,47,48,47,48,48,47,48,47,47,47,47,48,47,47,47,47,47,48,47,48,47,47,48,48,48,47,47,48,47,48,48,48,47,48,48,48,48,48,47,48,48,48,48,48,48,47,48,48,48,48,47,47,47,48,48,48,47,48,47,47,47,47,47,47,48,47,47,48,48,48,47,47,48,47,48,48,48,
47,47,47,47,47,48,47,47,48,47,47,48,47,48,47,47,47,47,47,47,47,47,47,48,47,47,47,48,48,47,48,47,47,47,48,47,47,47,47,48,47,47,47,48,47,47,48,47,48,48,47,48,47,48,47,48,47,47,48,48,47,47,48,48,47,48,48,48,48,47,47,47,48,47,47,48,47,48,47,48,47,47,48,48,47,48,48,48,48,47,47,48,48,48,47,48,48,47,48,48,48,47,47,48,47,47,48,48,47,48,47,47,48,47,47,48,48,48,48,48,48,48,48,48,47,47,47,47,48,47,47,47,48,48,47,48,47,48,47,48,48,47,47,47,47,48,47,48,48,48,47,48,48,47,47,47,48,48,47,48,47,47,47,48,47,48,48,47,48,47,47,47,47,48,48,48,47,47,48,47,47,48,48,48,48,48,48,47,48,47,47,47,47,48,48,47,47,48,48,47,48,47,47,47,47,47,48,48,47,48,48,47,48,47,47,47,48,48,48,48,47,48,47,48,47,47,47,47,48,47,47,48,48,48,48,47,48,48,48,47,48,48,48,47,48,47,47,48,48,47,47,48,47,47,48,47,48,47,47,48,47,47,48,48,48,47,47,47,48,48,48,47,47,47,48,47,47,48,47,48,47,48,48,48,48,48,47,47,47,48,48,48,47,47,48,48,48,48,48,47,48,47,47,48,47,47,48,48,48,47,47,47,48,48,47,48,48,47,48,48,47,48,47,48,48,47,48,47,47,47,47,48,48,47,48,47,48,47,47,48,48,48,48,47,47,47,47,48,48,48,47,48,47,47,47,48,48,48,47,47,47,47,48,48,47,48,47,47,48,48,47,48,
48,48,48,47,48,48,48,47,47,48,48,48,48,47,47,47,47,47,47,47,48,47,47,47,48,47,47,48,48,48,48,47,47,48,47,48,48,48,47,47,47,48,47,48,47,47,47,48,47,48,48,47,47,48,47,47,47,48,47,48,48,47,48,47,47,48,48,47,48,48,47,48,47,48,47,47,47,47,48,48,47,47,47,48,48,48,48,48,48,47,48,47,47,48,48,47,47,48,48,48,47,47,48,47,48,48,48,47,48,48,47,47,47,48,48,47,47,48,47,48,47,48,48,48,47,48,47,47,47,48,48,48,47,48,47,48,48,47,48,47,47,48,47,47,47,48,48,47,48,48,48,47,47,47,48,47,47,48,47,48,48,48,47,48,47,47,48,47,48,48,47,47,48,48,47,48,48,47,47,48,47,47,47,47,47,47,47,47,48,47,48,48,48,48,48,47,47,48,47,48,47,47,47,48,48,48,47,47,48,47,48,48,48,47,47,48,47,47,47,48,47,48,48,47,48,48,47,47,48,48,48,47,48,48,47,48,47,47,48,47,47,48,48,47,48,47,47,48,47,48,48,47,47,47,48,48,47,47,48,48,48,47,47,47,47,48,47,48,47,48,47,47,48,47,48,48,48,47,48,48,47,48,48,47,48,48,47,48,48,48,48,47,47,47,47,48,48,48,47,48,47,48,48,47,48,47,48,47,48,47,48,47,47,47,47,47,48,47,48,48,47,47,48,47,48,48,48,48,47,48,47,47,48,47,48,48,47,47,47,48,47,48,47,48,47,48,48,47,48,48,47,47,47,48,47,47,48,48,47,47,48,48,48,47,48,47,47,47,47,47,48,47,
47,47,47,47,48,47,47,48,48,48,47,47,47,48,47,48,47,47,48,47,48,48,48,47,47,48,47,47,47,48,47,47,48,47,47,47,47,47,47,48,48,47,48,48,48,47,47,47,48,47,47,47,48,48,47,47,47,48,47,48,47,47,47,48,47,48,47,47,48,48,47,47,48,47,47,47,48,48,48,47,48,48,48,47,47,47,47,47,48,47,48,47,47,48,48,47,48,47,47,47,47,48,48,47,47,47,48,47,48,47,48,48,47,48,48,47,48,47,48,47,48,47,48,47,47,47,47,48,47,48,47,48,48,47,48,47,47,48,48,48,48,47,48,47,47,47,48,48,47,48,47,47,48,48,48,47,47,47,48,47,48,48,48,47,47,48,48,48,47,48,48,48,48,48,48,47,48,48,48,47,48,47,47,47,48,48,47,47,47,48,48,47,48,48,47,48,48,47,48,48,48,47,47,48,47,47,48,48,48,47,48,48,47,48,48,48,48,47,47,47,48,48,47,47,48,48,48,48,48,47,47,47,48,47,47,47,48,47,48,47,47,48,48,48,48,48,47,48,47,47,47,47,47,48,48,47,47,48,47,48,47,47,47,47,48,48,48,48,48,48,48,48,48,48,48,47,48,48,48,47,48,47,48,47,48,47,48,47,48,48,47,47,48,48,47,47,47,47,47,47,48,47,47,48,48,47,47,48,47,47,48,48,47,48,48,48,47,48,47,47,48,47,48,47,48,48,47,47,47,47,48,47,47,47,48,48,48,47,47,48,47,48,47,47,48,47,47,48,47,47,47,48,47,48,47,47,47,48,47,48,47,48,48,47,47,48,48,48,47,47,48,48,
47,48,48,48,47,47,47,47,48,48,48,48,48,47,48,48,47,47,47,47,48,48,48,47,47,47,47,47,48,47,48,47,47,47,47,47,47,47,47,47,47,48,47,47,47,48,48,48,48,47,47,47,48,47,48,47,48,48,47,48,48,47,47,48,48,48,47,48,48,47,48,47,47,48,47,47,47,47,48,47,48,47,48,48,48,48,48,48,47,48,48,48,47,48,47,47,48,48,48,47,48,47,47,47,47,48,47,48,47,48,47,48,47,48,48,48,48,47,47,47,48,47,48,48,48,47,47,48,47,47,47,48,48,48,48,47,47,48,47,47,48,47,47,47,47,48,47,48,48,47,48,47,47,47,48,48,47,47,47,47,48,48,47,48,47,47,47,47,48,48,48,47,47,47,47,48,48,48,47,48,48,48,47,48,47,48,48,48,47,47,47,47,48,47,47,47,47,48,47,48,47,48,47,47,48,47,48,47,48,47,48,48,47,48,47,48,47,47,47,47,47,48,48,47,48,47,47,47,48,48,48,48,48,48,47,48,47,48,47,48,47,48,47,48,47,47,48,47,47,47,48,48,47,47,47,48,47,48,47,48,48,48,48,48,47,47,48,47,48,48,48,47,47,48,48,47,47,48,48,48,48,48,47,47,47,47,47,48,48,48,47,47,48,47,48,47,48,47,48,48,47,48,48,48,47,48,47,47,47,48,48,48,47,48,48,48,48,47,48,47,48,47,48,48,47,48,48,47,48,47,47,47,47,47,48,47,47,48,47,48,47,47,48,48,48,48,48,48,47,47,47,47,47,48,48,48,47,48,48,47,47,48,47,47,47,48,48,47,47,48,47,47,
0,48,47,48,48,47,47,48,47,47,47,48,48,47,48,48,48,47,47,48,48,47,48,47,48,48,47,47,47,48,47,48,47,47,47,48,47,48,48,47,47,48,47,47,48,47,47,48,47,48,47,47,47,48,48,48,47,48,48,47,48,47,47,47,47,48,47,47,48,48,48,48,48,48,47,48,48,47,47,48,47,47,47,47,48,48,48,47,47,47,48,48,48,48,48,47,48,48,47,47,47,47,47,48,48,48,48,48,47,48,48,48,47,48,48,48,48,47,47,47,48,48,47,47,47,48,48,48,48,47,47,47,48,48,48,48,47,47,47,47,48,48,47,47,48,48,48,47,48,47,47,48,47,48,48,48,47,47,47,47,47,47,48,48,47,48,47,48,48,48,47,47,48,47,48,48,47,48,47,48,47,47,47,47,47,48,47,47,48,48,48,48,48,48,48,47,48,47,47,47,47,47,47,47,48,48,47,48,48,47,47,47,47,48,47,48,48,48,48,47,48,48,48,47,47,48,48,48,47,47,48,48,48,48,47,48,47,47,48,48,48,47,47,47,47,47,47,48,47,48,48,47,48,48,48,48,47,47,47,48,48,48,48,47,48,47,47,48,48,48,48,48,48,48,47,48,48,47,47,47,48,48,48,47,47,47,47,48,48,48,47,48,48,47,48,47,47,48,47,47,48,48,47,48,48,48,47,48,47,47,48,47,48,48,48,47,47,47,48,48,47,48,48,48,47,48,48,47,47,47,48,48,48,47,47,48,48,47,48,47,48,47,47,47,48,48,48,47,48,47,48,48,47,48,48,47,48,47,48,47,48,47,48,47,47,47,47,48,47,48,48,48,
0,48,48,48,47,47,48,47,47,48,47,47,48,47,47,48,47,47,47,48,47,48,47,47,47,47,48,47,48,48,48,48,48,48,48,48,47,48,47,47,47,48,47,48,47,47,47,48,47,48,48,47,48,48,48,47,47,47,47,48,47,47,47,47,47,48,48,48,48,47,47,47,47,47,48,48,47,48,48,47,48,47,48,48,48,48,47,48,47,48,47,47,47,48,48,47,47,48,47,48,48,47,47,48,47,47,48,48,47,47,47,47,47,47,47,48,48,48,47,47,47,48,47,48,47,48,48,47,47,48,47,47,48,48,48,48,47,47,48,48,47,48,48,48,47,48,47,48,47,47,48,48,48,48,47,48,47,47,48,48,47,48,47,48,48,48,48,47,48,47,47,47,48,48,47,47,47,48,47,47,48,48,48,48,47,48,48,48,48,48,48,48,48,48,48,47,47,47,48,48,48,48,48,48,48,47,47,48,47,47,48,47,47,47,47,48,48,48,48,48,48,47,48,48,48,47,48,48,47,48,47,48,47,47,47,48,47,47,48,47,48,47,47,48,47,47,47,47,47,47,47,48,48,47,48,47,47,48,47,47,48,48,47,48,48,48,48,47,48,48,47,47,48,47,48,48,48,48,47,47,47,47,47,48,48,47,47,48,48,47,47,48,47,47,48,48,47,48,48,48,48,48,48,48,47,48,47,47,47,47,48,47,47,47,48,48,48,47,47,48,48,47,48,48,48,47,47,48,48,48,48,47,47,47,48,48,47,47,47,47,47,47,48,47,47,47,48,47,48,48,48,47,47,47,47,48,47,48,48,48,48,47,48,47,47,47,47,47,47,47,48,48,
0,0,48,48,48,47,47,48,48,48,48,47,47,47,48,47,47,47,47,48,48,47,48,47,47,47,47,48,48,48,47,48,48,48,48,47,48,47,47,47,48,48,48,47,48,47,47,47,48,48,47,48,47,47,48,48,47,48,48,47,48,48,47,48,48,48,47,48,47,47,47,47,48,47,48,48,47,48,47,48,48,48,48,48,48,48,47,48,48,48,48,48,47,47,47,47,48,47,48,48,48,48,47,48,48,48,48,47,48,48,48,47,47,48,48,47,48,48,47,47,48,48,47,48,47,48,48,47,48,48,47,48,47,47,47,48,48,47,47,47,47,47,48,47,47,47,47,47,48,48,47,47,48,48,47,48,48,47,48,48,47,47,48,48,48,47,48,47,47,48,47,48,48,47,48,48,48,47,47,47,47,48,48,47,48,47,47,47,47,48,48,47,47,48,47,47,47,47,47,47,47,48,48,48,47,47,47,47,47,47,47,48,47,48,48,48,48,47,47,47,47,48,47,48,48,48,48,48,48,47,48,47,48,47,48,47,48,48,47,47,48,48,47,47,48,47,47,47,48,48,47,48,48,47,48,48,47,47,47,47,47,48,47,48,47,47,47,48,47,47,47,48,47,48,48,48,48,47,48,47,47,48,47,48,47,47,48,47,48,48,48,47,47,47,48,47,47,48,48,47,48,48,47,48,48,47,47,48,48,48,48,47,47,48,48,47,48,48,47,48,47,48,47,48,47,47,48,48,47,48,48,47,47,48,47,47,47,48,47,47,47,47,47,47,48,47,48,47,47,48,47,48,47,48,48,48,47,47,47,48,47,48,48,47,47,48,47,48,48,48,47,48,
0,0,47,48,47,48,47,47,48,47,47,48,48,48,48,48,47,48,47,48,48,47,47,48,47,47,48,48,48,48,48,47,47,48,47,48,48,48,48,47,48,48,47,47,48,48,48,47,47,48,48,47,48,48,47,47,48,48,48,47,48,47,47,47,47,47,47,48,48,47,48,48,47,48,48,47,47,47,48,48,48,48,48,47,47,48,47,47,47,48,47,48,48,48,47,48,48,48,47,47,47,47,48,47,48,47,48,48,47,47,47,47,48,47,47,48,48,48,48,47,48,47,47,47,47,48,48,48,47,48,47,48,47,48,47,47,47,48,47,47,47,48,47,47,48,47,48,48,48,48,47,47,47,47,48,48,48,48,48,47,47,48,48,48,48,47,47,47,48,48,47,48,47,47,47,47,47,48,48,48,48,47,48,48,48,47,47,47,48,47,48,47,48,47,48,47,47,47,48,47,48,48,47,48,47,47,48,47,47,47,48,47,47,48,48,48,48,47,47,47,47,48,47,48,47,47,48,48,48,47,48,47,48,47,47,47,47,47,48,47,48,48,48,48,48,47,48,47,47,48,48,47,47,48,47,48,48,48,47,48,48,48,48,48,47,48,48,48,48,47,48,47,47,48,47,47,48,48,48,47,48,47,47,48,47,48,48,48,48,47,47,48,48,48,48,48,47,48,47,48,48,48,48,48,47,48,48,48,48,48,47,48,47,48,48,48,47,48,48,48,47,47,48,47,47,48,47,47,47,47,48,47,47,48,47,47,48,48,47,47,48,47,47,48,48,48,47,47,47,47,47,47,47,48,47,48,47,47,48,48,48,48,47,47,47,48,47,47,48,48,48,48,
0,0,0,47,47,47,48,48,48,47,48,48,48,47,48,47,47,47,48,48,48,48,47,48,47,47,47,47,47,48,47,48,48,48,48,48,47,48,48,48,48,48,47,48,48,48,48,47,48,47,47,48,48,47,48,48,48,47,48,48,47,48,47,48,48,47,47,48,48,48,47,48,47,48,48,47,47,47,47,47,48,48,48,47,48,47,47,48,47,48,47,48,48,48,48,47,48,47,48,48,48,48,47,47,48,47,48,48,47,48,48,48,47,48,47,47,47,47,48,48,48,48,48,48,48,48,48,48,47,48,48,48,48,47,48,48,48,48,47,48,47,48,48,48,48,47,47,48,47,47,47,47,48,47,47,48,48,47,47,48,47,47,47,47,48,48,48,48,47,48,47,47,47,48,48,48,47,47,47,48,48,47,48,48,47,48,48,48,47,47,48,48,47,47,48,47,48,48,48,48,47,47,48,47,47,47,48,47,47,48,48,48,48,48,48,47,48,48,47,48,48,48,48,48,48,47,48,47,47,48,47,47,48,48,48,48,47,48,47,47,47,47,47,47,48,48,47,47,48,47,47,47,47,48,47,48,48,48,47,47,48,47,48,47,48,47,48,47,47,48,48,47,48,47,48,47,48,48,47,47,47,48,48,47,47,47,47,47,48,48,47,47,48,48,48,48,48,48,48,48,48,48,48,48,48,48,48,48,47,48,48,47,48,47,47,47,47,47,48,48,48,48,47,47,47,47,48,47,48,48,47,48,48,47,48,47,47,47,47,47,47,48,47,48,48,47,48,47,47,48,48,48,47,48,48,48,48,47,48,47,48,48,47,48,47,47,47,48,47,47,47,48,
0,0,0,48,47,48,47,47,47,47,47,48,48,48,48,48,47,47,48,48,48,47,48,48,47,48,47,47,47,48,47,48,47,47,47,47,48,48,47,48,48,47,48,47,47,48,48,48,47,48,48,47,47,47,48,48,48,48,48,47,48,48,47,48,47,47,47,48,48,48,48,47,48,48,47,48,48,48,47,47,47,48,47,47,47,47,48,48,48,47,48,47,47,48,48,47,47,47,47,48,47,47,48,47,47,48,47,48,47,47,48,47,47,47,47,47,47,48,48,48,48,48,47,48,48,48,48,47,47,48,48,47,48,47,48,47,47,48,47,47,47,48,48,47,48,48,47,48,48,48,48,48,47,47,48,47,48,47,48,48,48,48,48,48,48,48,47,48,48,48,47,48,48,48,48,48,47,47,47,48,47,48,48,48,47,47,48,48,47,48,48,47,48,48,47,47,48,47,47,48,47,48,47,48,48,48,48,47,48,48,48,48,48,48,47,47,47,47,48,47,47,48,47,48,47,47,48,48,47,48,48,48,48,48,47,48,48,48,48,47,48,48,47,47,48,47,47,47,47,47,47,47,48,48,48,48,48,47,48,47,47,48,48,48,48,47,48,47,47,47,48,48,47,48,47,47,48,47,48,47,47,48,48,47,48,48,48,48,48,47,48,48,47,47,48,47,47,48,47,47,47,47,48,47,48,48,47,47,48,47,48,48,47,47,48,47,47,47,48,47,48,48,48,47,47,48,47,48,47,47,48,48,48,47,47,48,47,48,48,48,48,47,48,48,48,48,47,47,47,48,48,47,47,48,48,47,47,47,48,47,47,47,48,47,48,48,48,47,48,47,47,47,
0,0,0,0,47,47,48,48,48,48,48,48,48,47,48,48,48,48,47,47,48,48,47,47,47,47,48,47,47,47,47,47,47,48,48,48,47,47,48,47,48,48,47,48,47,47,47,48,48,48,47,48,47,48,48,47,48,48,47,47,48,48,47,48,48,48,47,47,47,48,47,48,47,48,47,48,47,47,47,48,48,48,48,48,47,48,47,47,48,48,47,47,48,47,47,47,47,47,47,47,48,47,48,47,48,48,47,48,47,47,48,48,48,47,48,48,48,47,48,47,47,48,47,47,48,48,47,48,47,47,48,47,47,48,47,47,48,47,48,48,47,48,47,47,48,47,47,48,47,48,47,48,48,48,47,47,48,48,48,47,47,48,47,47,47,47,48,48,47,48,48,48,47,47,47,47,48,48,48,48,48,47,48,47,48,47,48,47,47,47,48,48,48,48,47,47,47,48,47,48,48,48,47,48,47,48,48,47,48,47,47,48,48,47,47,48,48,47,47,48,48,48,48,47,48,48,48,48,48,47,48,47,47,48,48,48,47,48,48,47,47,48,47,47,47,48,48,47,48,47,47,48,48,47,47,47,48,47,47,48,48,48,47,47,47,47,48,47,47,48,47,48,48,48,47,48,48,47,47,47,48,47,48,47,47,47,47,47,47,48,48,47,48,47,48,48,47,47,48,48,47,48,47,48,47,48,48,48,47,47,47,48,48,48,48,48,47,47,47,47,47,47,47,47,47,48,47,48,47,48,47,47,47,48,48,48,48,48,47,47,47,47,48,47,48,48,47,47,47,47,48,47,48,48,48,47,47,47,47,48,47,47,48,47,47,47,47,47,48,47,48,47,
0,0,0,0,48,48,47,47,48,48,48,48,47,47,48,48,47,48,48,48,48,48,47,48,47,47,48,48,47,47,47,48,47,47,48,47,48,47,48,47,47,47,48,48,48,48,47,47,48,47,48,47,47,48,47,48,48,48,47,48,48,48,48,48,47,47,47,48,47,48,47,47,47,48,48,47,48,47,48,48,47,47,47,47,48,48,47,47,48,47,48,47,47,47,47,47,47,48,47,47,47,47,47,48,48,47,48,48,47,48,48,47,48,47,48,47,48,47,48,47,47,47,48,48,48,47,47,47,47,47,47,48,47,47,47,47,48,48,48,48,47,48,47,47,47,48,47,48,48,47,47,47,47,48,47,47,47,47,47,48,47,47,47,48,47,48,47,47,48,48,47,47,47,48,47,47,47,47,47,48,47,47,48,48,48,47,48,48,47,48,48,48,47,47,48,48,48,48,48,47,48,48,47,48,48,48,47,47,47,47,47,47,47,47,47,47,47,48,48,48,47,47,48,47,47,47,48,47,48,48,48,47,48,47,47,48,47,47,48,48,47,48,48,48,48,47,47,47,47,47,47,47,48,47,47,48,47,48,48,48,47,48,47,48,47,48,48,48,47,48,48,47,47,47,48,48,47,48,48,47,47,47,47,47,48,47,47,48,47,47,48,47,48,48,48,48,47,47,47,47,48,48,48,48,48,47,47,47,47,48,48,47,47,48,48,47,47,47,47,48,48,48,48,48,47,48,47,47,47,48,47,47,48,47,47,47,48,48,47,48,47,48,48,47,47,47,47,47,47,48,47,47,48,48,47,47,48,47,48,48,47,48,47,48,47,47,47,48,47,48,47,47,
0,0,0,0,0,47,48,48,48,47,48,47,48,47,48,47,48,47,47,47,48,48,48,48,48,48,47,47,47,47,47,47,47,48,48,47,48,48,47,47,47,47,47,47,47,48,47,47,47,48,48,48,47,47,47,48,47,48,47,47,48,47,48,48,48,47,47,47,47,47,48,47,47,47,48,47,47,48,48,48,47,48,47,47,48,48,48,47,47,48,48,48,47,48,47,48,47,47,47,47,47,47,48,47,47,47,47,47,47,48,48,47,48,47,48,47,47,47,48,47,48,48,47,48,48,47,47,47,48,47,48,48,48,48,47,47,48,48,47,47,47,47,47,48,48,47,47,48,47,48,47,48,47,48,47,48,47,48,47,47,47,47,47,48,47,47,48,48,48,47,48,47,48,48,47,47,48,47,48,48,47,47,48,47,47,47,48,47,47,48,47,48,47,47,48,48,48,47,47,48,47,48,47,48,48,47,47,48,47,48,47,47,48,47,47,48,47,47,48,47,48,47,47,47,47,48,47,48,47,48,48,47,48,47,48,48,47,48,48,48,48,47,47,47,47,48,47,47,48,48,47,47,47,47,48,47,48,48,48,47,48,48,48,47,47,48,47,47,48,47,48,48,48,48,48,48,48,48,48,47,48,47,48,47,47,48,48,48,47,48,48,47,48,48,48,47,47,48,48,47,48,47,48,47,48,47,48,47,47,47,47,48,47,48,47,47,47,48,48,48,47,47,47,47,48,48,48,47,48,48,48,48,48,48,47,47,47,47,47,48,47,48,47,48,48,48,48,47,48,48,47,47,48,48,47,48,48,48,47,48,48,47,47,48,48,47,48,47,48,47,47,47,
0,0,0,0,0,47,47,48,47,48,48,48,48,47,48,48,48,47,48,47,48,47,48,48,48,47,47,48,47,48,48,48,48,48,47,47,47,47,47,48,48,47,48,47,47,48,48,47,47,48,47,48,47,48,48,48,48,48,48,48,48,48,47,47,47,47,48,47,48,47,47,48,48,48,47,48,48,48,48,47,47,48,48,48,48,47,47,47,47,47,48,47,47,48,48,47,48,48,48,48,47,47,47,47,48,48,48,47,48,47,48,48,47,48,48,48,47,47,48,48,48,47,47,47,47,48,47,47,47,47,48,47,48,48,47,48,47,47,47,48,48,47,48,47,48,48,48,48,48,47,47,48,47,48,47,48,47,47,47,48,48,47,48,48,47,48,48,48,48,48,47,47,48,48,47,47,47,48,47,47,47,47,47,48,47,48,48,48,48,48,47,47,47,47,48,47,48,48,48,48,48,48,47,47,48,47,47,48,47,48,47,48,47,47,48,47,48,47,47,48,47,48,47,47,47,48,47,48,48,48,48,48,48,47,47,48,47,48,47,48,47,47,47,47,48,47,47,48,48,48,48,47,47,48,47,48,48,47,47,47,47,48,48,47,48,48,48,48,48,47,48,47,48,47,47,47,47,48,48,48,48,48,47,47,48,48,47,47,47,48,47,47,48,47,48,47,48,48,47,47,47,47,48,47,47,48,47,48,47,47,48,47,47,47,47,47,48,48,48,47,47,47,47,48,47,47,47,48,48,47,47,48,47,47,48,47,48,48,47,47,48,47,48,47,48,48,48,48,48,48,48,48,47,48,48,47,47,48,48,48,48,47,48,48,48,47,48,47,47,47,48,48,
0,0,0,0,0,0,48,48,48,47,47,47,47,48,47,47,47,47,47,48,47,48,47,48,47,48,47,48,48,48,48,47,48,48,47,47,48,47,48,47,47,48,47,47,48,48,47,47,48,48,47,47,47,47,47,48,48,48,47,47,47,48,48,48,48,47,47,48,47,48,47,48,47,48,47,48,48,48,47,48,48,47,47,48,47,48,48,48,47,47,47,48,47,47,47,48,48,48,47,47,47,48,47,48,47,48,47,48,48,48,47,48,47,47,48,47,47,47,47,48,47,48,47,47,48,47,48,47,47,47,47,47,47,47,47,47,47,48,47,48,48,47,48,48,47,48,48,48,47,47,47,47,47,47,48,48,48,47,47,47,48,47,47,48,47,48,47,48,47,47,48,48,48,48,47,48,48,48,48,48,48,48,47,47,48,48,47,48,48,47,48,48,47,48,48,47,47,47,47,48,48,47,48,47,48,47,47,48,48,47,47,47,48,48,47,48,48,48,48,47,48,48,48,47,47,47,48,48,48,48,47,48,47,47,48,48,48,48,48,47,48,47,47,48,47,47,48,48,47,47,47,48,48,48,47,48,48,48,48,48,48,47,47,47,48,48,47,48,47,47,47,48,48,48,48,48,47,48,47,47,47,47,48,47,48,48,47,48,47,47,48,47,48,47,47,48,47,48,47,47,47,48,47,48,47,48,48,47,47,48,47,47,48,47,48,48,48,48,48,47,48,47,48,48,47,47,47,47,48,47,47,47,48,47,47,48,47,48,47,48,47,48,48,48,47,47,48,47,48,48,48,48,48,47,47,47,48,47,48,48,47,47,48,48,48,47,47,47,48,47,47,47,
0,0,0,0,0,0,47,47,48,47,48,48,47,47,48,48,47,48,47,48,48,47,48,47,47,47,47,47,47,47,47,48,47,48,48,47,47,48,48,48,48,47,47,47,47,48,47,48,47,48,48,48,48,48,47,47,48,47,47,47,48,47,48,47,48,47,48,48,48,47,48,47,47,47,47,48,47,48,48,48,48,47,47,48,47,47,47,47,47,48,48,48,48,47,47,47,48,47,47,48,48,47,47,47,48,47,48,47,47,48,48,48,48,47,47,48,47,48,47,47,47,48,47,47,48,48,48,47,47,48,48,47,47,47,48,47,47,48,48,48,48,48,48,48,47,48,47,48,47,47,48,48,48,48,48,47,48,47,47,48,48,48,48,47,47,47,47,47,48,48,47,48,47,48,48,48,47,48,48,47,47,47,48,47,48,47,47,48,47,48,47,47,47,48,48,47,47,47,47,47,48,48,48,48,48,47,47,47,48,48,48,47,47,48,48,47,47,47,47,48,47,47,48,48,48,47,48,47,48,47,47,48,48,47,47,47,47,47,48,48,47,47,48,48,47,47,47,47,47,48,48,47,48,48,48,47,48,48,48,47,48,47,48,47,48,48,48,48,48,47,48,48,47,47,48,48,48,48,48,48,48,47,48,47,48,48,47,47,47,47,47,47,48,47,47,48,47,48,48,48,48,47,47,47,48,47,47,48,47,47,47,47,48,48,47,47,48,47,48,48,48,48,48,48,48,47,47,47,47,48,47,48,48,48,48,47,47,47,48,47,48,48,47,48,48,48,47,48,47,48,48,48,47,47,48,47,48,48,48,47,48,48,48,48,47,48,48,48,47,47,47,47,
0,0,0,0,0,0,0,48,48,48,48,47,47,48,47,48,48,48,47,48,48,47,47,48,47,48,47,48,48,48,48,48,48,48,47,48,48,47,48,47,47,47,47,48,47,47,47,48,47,47,48,47,48,47,47,47,48,48,48,47,48,48,47,48,47,47,47,47,48,48,47,47,47,48,48,48,48,47,48,47,47,47,48,48,47,47,48,48,47,48,48,48,47,48,48,47,48,48,48,47,48,48,48,48,48,47,48,48,48,48,47,48,47,47,48,48,48,47,47,48,48,48,47,47,48,48,48,47,47,47,48,48,48,47,47,47,48,47,47,47,48,47,47,48,47,48,47,48,47,47,47,47,48,48,47,47,47,48,48,47,48,47,48,47,47,47,48,47,48,47,48,48,47,47,47,47,48,47,47,47,47,47,48,48,48,47,47,48,48,48,48,48,47,48,47,47,48,48,48,48,47,47,48,48,48,47,48,48,47,48,47,47,47,48,47,47,47,48,47,48,47,47,47,47,48,48,47,47,47,47,47,48,48,48,47,47,48,48,48,48,47,48,47,48,48,47,47,47,48,47,48,48,47,48,47,48,48,47,48,47,48,48,48,48,47,48,47,48,47,48,48,48,47,48,48,47,47,47,48,47,47,48,47,47,48,47,48,47,48,47,47,48,47,47,47,47,48,48,47,48,47,47,47,48,48,48,48,47,48,47,48,48,47,47,47,47,47,47,48,48,47,48,47,47,47,48,48,48,48,47,47,48,48,47,48,47,47,48,47,47,48,48,47,47,47,47,47,47,47,48,48,48,47,47,47,47,48,48,48,47,47,48,47,48,47,48,47,48,48,47,48,48,
0,0,0,0,0,0,0,0,47,47,47,48,48,48,48,47,48,47,47,47,47,48,48,48,48,48,47,48,48,47,48,48,48,48,48,47,48,48,48,48,47,47,48,47,47,47,47,48,48,48,48,47,48,48,47,47,47,48,48,47,47,47,47,48,48,47,48,48,48,48,47,47,47,48,48,47,47,48,47,47,48,48,47,48,48,48,48,47,47,47,48,47,48,47,47,48,47,47,47,47,48,47,48,48,47,48,47,47,47,47,47,47,47,47,47,48,48,47,48,47,48,47,48,48,47,47,48,48,47,48,47,47,48,47,47,47,48,48,47,47,47,47,48,48,47,48,47,48,48,48,47,48,47,47,48,47,47,48,48,48,48,48,48,47,48,47,48,48,47,48,47,47,47,48,47,47,47,47,48,48,48,48,47,47,48,48,48,48,47,48,48,47,47,48,48,48,48,48,48,48,47,48,47,47,47,47,48,48,47,48,48,48,48,47,48,48,48,48,48,47,48,47,48,48,47,48,47,47,48,47,48,48,48,48,48,47,48,48,47,47,48,48,47,48,48,47,48,48,47,48,47,47,47,48,47,47,47,47,47,48,48,48,47,47,48,47,47,47,48,47,48,48,48,48,48,48,48,47,47,48,48,47,47,48,48,47,48,47,47,48,47,47,48,47,47,47,48,48,47,47,48,47,48,47,47,48,48,48,48,47,48,48,48,48,47,47,47,47,48,48,47,47,47,48,48,48,48,48,47,47,48,47,48,48,48,48,48,47,48,47,48,47,47,48,47,48,48,47,48,47,48,47,47,48,48,48,48,48,48,47,48,48,47,48,48,48,47,48,48,47,47,48,
0,0,0,0,0,0,0,0,0,48,47,47,47,48,48,47,48,47,47,47,48,47,48,48,48,48,47,48,48,48,47,48,47,48,48,48,47,47,48,47,47,48,48,47,48,48,48,48,48,48,48,47,47,47,48,47,48,47,47,48,48,47,47,47,47,47,47,48,48,48,47,47,47,47,47,47,48,47,48,48,47,47,47,48,48,48,48,47,48,47,48,47,48,47,48,47,47,48,48,47,47,48,47,47,47,48,47,47,48,48,48,48,48,47,48,48,47,48,47,47,47,47,48,48,48,47,47,48,47,47,48,48,47,47,48,48,48,47,48,47,47,47,48,47,47,47,48,48,48,48,47,47,47,48,48,48,47,48,48,47,47,47,48,47,47,48,48,48,48,47,47,47,47,48,47,47,47,48,47,47,48,47,47,47,48,47,48,48,47,47,47,47,48,48,48,48,47,48,47,47,47,48,48,48,47,47,47,47,48,48,48,47,47,47,48,47,48,48,48,48,47,48,47,47,48,48,48,47,48,47,48,48,47,47,48,47,48,47,48,48,47,47,47,47,47,48,48,48,47,48,48,47,48,48,47,48,48,47,47,47,47,48,48,47,47,47,48,48,47,47,48,47,48,47,47,48,47,48,48,48,47,48,48,48,47,47,48,48,47,47,48,48,47,48,47,47,48,47,48,48,47,47,47,47,48,48,48,47,47,48,48,47,47,47,48,48,48,48,47,48,48,48,48,47,48,48,48,48,47,47,48,48,48,47,47,47,48,48,47,47,47,47,47,47,48,47,47,48,47,47,48,48,48,48,47,47,48,47,47,47,47,48,48,47,48,48,48,47,48,48,47,48,
0,0,0,0,0,0,0,0,0,0,47,47,48,48,47,48,48,48,48,47,48,47,47,48,47,48,47,48,47,48,47,47,48,48,48,47,48,48,47,48,47,48,48,47,47,47,47,47,47,48,47,48,47,47,47,48,48,47,48,47,47,48,47,47,47,48,47,47,48,48,48,48,47,48,47,47,48,48,47,47,47,47,48,47,47,48,47,47,47,48,47,47,47,48,48,48,47,47,47,47,47,48,48,48,47,48,48,47,48,48,48,47,48,48,48,48,48,47,47,47,47,48,48,48,47,48,48,47,47,47,47,47,47,47,48,48,48,48,48,47,47,47,47,47,48,48,47,48,47,47,47,47,47,47,47,47,48,48,47,48,47,48,48,47,48,47,48,47,47,48,48,47,47,48,47,47,48,47,48,48,47,48,48,48,48,47,48,47,48,48,48,48,47,47,48,47,48,47,48,48,48,48,48,47,48,48,47,48,48,48,47,48,47,47,47,47,47,47,47,48,47,47,48,48,48,47,47,48,47,48,47,48,48,47,48,47,47,47,48,48,48,47,48,48,47,47,48,47,47,48,48,47,47,47,48,47,48,48,47,48,48,48,47,48,47,48,48,47,48,48,48,48,47,47,47,48,48,47,48,48,48,48,48,47,47,47,47,47,48,47,48,48,47,47,47,47,48,47,48,47,47,48,48,47,48,47,47,47,47,47,47,48,48,48,48,47,48,47,48,47,48,47,47,47,48,47,47,48,47,47,47,48,47,47,47,47,47,48,47,47,47,47,48,48,47,48,48,48,48,47,47,48,48,47,47,47,48,47,48,48,48,47,47,47,48,48,48,47,48,48,48,48,
0,0,0,0,0,0,0,0,0,0,0,47,47,48,47,48,48,47,48,47,48,48,48,48,47,48,48,48,47,47,47,47,48,47,48,48,47,48,47,48,48,47,47,47,47,47,48,48,48,48,48,48,48,47,48,48,47,48,48,47,47,47,48,47,47,48,48,48,48,48,48,47,47,47,48,48,47,48,48,47,47,48,47,47,48,47,47,48,48,48,47,48,48,47,47,48,48,48,47,48,48,48,47,47,47,48,47,48,47,48,47,47,48,47,47,48,47,48,48,48,47,48,47,48,48,48,47,47,47,47,48,48,47,47,48,48,47,47,47,48,47,48,48,48,48,48,48,48,48,47,48,47,47,47,47,48,48,48,48,47,48,48,48,47,48,48,47,47,47,48,48,47,48,48,47,47,47,47,47,47,47,48,48,47,48,48,47,48,48,47,47,48,47,48,47,48,48,48,48,48,48,47,47,48,47,47,47,48,48,47,47,48,47,47,48,48,48,47,47,47,47,48,47,48,47,47,47,48,48,47,48,48,48,47,47,48,48,48,48,47,47,47,48,47,47,48,47,47,48,48,47,47,47,48,47,47,47,47,48,47,48,47,48,48,47,47,48,47,47,47,47,47,47,48,47,47,47,48,47,47,48,47,48,47,47,47,47,48,48,48,47,47,48,48,48,47,47,48,47,47,47,48,47,47,48,48,47,48,48,47,47,48,48,48,47,47,48,48,47,48,48,47,47,48,47,48,47,48,47,48,48,47,48,48,48,48,47,47,47,47,48,47,48,47,47,47,47,47,47,47,48,47,47,47,48,48,48,48,47,48,48,47,47,48,47,47,48,47,47,47,47,47,
0,0,0,0,0,0,0,0,0,0,0,0,47,47,48,48,48,47,47,47,48,48,48,47,47,47,48,48,48,48,47,48,48,47,48,47,47,47,48,47,47,47,48,47,48,47,47,48,47,48,48,47,47,48,47,48,48,47,47,48,48,47,47,47,47,47,47,47,47,48,48,47,47,47,47,47,47,47,48,47,47,47,48,47,47,48,48,47,47,47,48,48,47,48,47,48,48,48,47,48,48,47,47,47,48,48,48,47,47,47,48,48,47,48,48,47,48,48,48,48,48,48,47,47,48,48,48,48,48,48,47,47,47,47,48,48,47,47,48,47,47,48,47,47,47,48,47,47,47,48,47,47,47,48,47,48,47,47,47,48,48,48,48,48,48,47,48,47,48,48,48,47,48,47,48,47,47,48,47,48,47,47,47,48,48,48,47,47,47,48,48,48,48,47,47,48,48,48,48,47,47,48,47,48,47,48,47,48,47,48,47,47,47,47,47,47,48,48,47,48,47,47,48,47,48,48,48,48,48,47,48,48,48,48,47,48,48,47,48,48,47,48,47,48,47,48,47,47,47,47,48,48,47,48,48,48,47,47,47,48,48,47,48,47,47,48,47,48,48,47,47,47,48,47,48,47,48,48,47,47,48,47,48,47,48,48,47,48,48,47,47,47,47,48,47,48,48,48,48,47,48,47,48,48,48,48,48,48,48,47,48,48,48,47,48,48,47,47,47,48,47,48,48,47,48,48,47,48,47,47,48,47,48,48,47,47,47,47,47,47,48,47,47,47,48,47,48,47,48,47,47,47,47,47,48,48,47,47,47,47,48,48,47,48,47,47,48,48,48,48,48,47,
0,0,0,0,0,0,0,0,0,0,0,0,0,47,48,47,48,48,48,48,48,48,48,48,48,47,48,48,48,48,47,48,47,48,48,48,47,47,47,47,48,47,48,47,47,48,47,48,48,48,48,47,47,47,48,47,47,47,47,48,48,48,48,47,48,48,47,47,48,47,48,47,47,47,48,47,48,48,47,48,48,48,48,48,48,48,48,48,47,47,48,47,47,47,47,48,48,47,48,48,47,47,48,48,48,48,48,48,48,47,48,48,47,48,47,47,47,47,47,47,47,47,47,47,47,47,47,47,47,48,48,47,47,47,47,48,47,47,48,48,47,47,48,48,47,47,47,48,48,48,47,48,47,48,48,48,47,47,47,47,48,47,47,48,48,48,47,48,48,48,48,48,47,48,47,48,47,47,47,47,48,47,47,47,48,48,48,47,48,48,47,47,48,47,47,47,47,47,47,47,47,48,47,48,48,48,48,47,47,48,48,48,48,48,48,47,48,47,48,48,48,48,48,47,48,48,48,47,47,48,47,47,47,47,48,48,48,47,47,48,47,48,48,48,47,48,48,47,48,47,48,47,47,47,47,47,47,47,47,47,47,47,48,48,48,47,47,48,48,48,48,48,47,48,48,48,48,47,47,47,48,47,47,47,47,47,48,47,48,48,48,48,47,47,48,48,47,48,48,48,47,48,48,48,48,47,48,48,48,47,48,48,48,47,47,48,47,48,47,47,48,47,48,48,48,48,47,47,48,48,48,48,47,47,48,47,48,47,48,47,47,48,47,48,48,48,47,48,48,48,48,48,48,47,48,47,48,47,47,48,48,47,48,48,48,48,47,47,47,47,47,48,
0,0,0,0,0,0,0,0,0,0,0,0,0,0,47,48,48,48,48,48,47,48,48,47,47,47,48,47,47,48,47,48,48,47,47,47,47,47,48,48,48,47,48,47,47,47,47,47,47,47,48,47,47,48,47,47,48,47,47,47,47,48,47,47,48,48,47,48,47,48,47,48,47,48,48,47,47,48,47,47,48,47,47,47,48,47,48,47,47,48,48,47,47,47,48,47,48,47,47,48,48,48,47,47,48,48,47,47,48,48,48,48,48,47,48,48,47,48,47,48,48,47,47,47,48,47,47,48,47,47,48,47,47,47,48,47,48,48,48,47,47,47,48,47,48,47,48,48,47,48,48,48,48,48,47,48,48,48,48,47,48,47,47,48,48,47,47,47,48,48,48,47,48,47,47,48,47,48,48,48,48,47,48,47,47,47,47,47,48,48,47,48,47,47,48,48,48,47,48,47,47,48,47,48,47,48,47,48,47,48,47,48,48,48,47,48,48,47,47,47,48,48,48,47,48,48,48,47,47,47,47,47,47,48,47,48,47,47,47,48,48,48,47,48,47,47,48,47,47,47,47,48,47,47,48,47,47,47,47,48,47,47,47,47,48,48,48,47,48,47,47,48,48,48,47,47,47,48,47,47,48,47,48,47,47,48,48,48,47,47,47,47,47,48,48,47,47,47,48,48,47,48,47,48,48,48,48,48,47,48,48,47,47,47,47,47,48,48,47,48,48,48,47,47,47,47,47,47,48,48,48,47,48,47,47,47,48,48,47,47,47,47,48,48,48,47,47,48,47,47,47,47,48,48,47,48,48,48,48,47,48,48,47,48,47,48,48,48,47,48,48,48,
0,0,0,0,0,0,0,0,0,0,0,0,0,0,0,48,47,48,47,48,48,48,48,48,47,47,48,48,48,47,48,48,47,48,47,48,48,47,48,47,47,48,47,47,48,48,47,48,48,47,48,47,48,47,48,48,48,48,47,47,47,48,47,47,48,48,47,48,48,48,47,47,48,48,48,48,47,48,47,48,48,48,47,47,47,47,48,48,47,47,47,48,47,48,47,48,48,48,48,47,48,48,47,48,47,48,47,48,47,47,47,48,48,48,48,47,47,47,48,48,47,48,47,47,48,48,48,47,47,47,47,47,48,47,47,48,47,47,47,47,48,47,47,48,48,47,47,47,47,48,47,48,48,48,48,47,47,48,48,47,48,47,47,47,47,47,48,48,47,48,47,48,48,47,48,48,48,47,48,48,48,47,48,48,47,47,48,47,48,48,47,47,48,47,47,48,48,48,47,47,47,48,47,48,47,47,47,47,48,47,48,48,48,47,48,48,48,48,47,47,47,48,47,48,47,47,47,48,47,48,48,47,47,47,47,47,47,47,47,47,47,47,47,48,47,47,47,48,47,48,47,47,47,47,47,48,47,47,47,48,47,48,48,48,48,47,48,47,48,47,48,48,47,48,47,48,47,48,48,47,48,47,47,48,48,47,47,48,48,47,47,48,48,48,47,48,48,47,47,48,47,47,47,47,47,47,48,48,48,48,48,47,47,48,48,48,48,48,47,48,48,47,48,47,48,48,47,48,47,47,47,47,48,47,47,47,48,48,48,48,47,47,48,47,47,47,47,47,47,47,48,47,48,48,48,48,47,47,47,47,48,48,48,47,48,47,47,48,47,47,48,48,
0,0,0,0,0,0,0,0,0,0,0,0,0,0,0,0,47,48,47,48,48,47,48,48,47,48,47,47,48,47,48,48,47,47,48,47,48,48,47,47,48,48,48,48,48,48,48,47,47,47,48,48,48,48,47,48,47,48,48,47,48,48,48,47,48,47,47,47,48,47,48,47,47,47,48,47,48,48,48,47,48,48,48,48,48,48,47,48,48,47,48,48,48,47,48,47,47,47,47,48,47,48,47,47,48,47,47,48,48,48,48,47,48,48,48,47,48,47,47,47,48,48,48,48,47,47,47,48,48,48,48,48,47,48,48,47,48,47,48,48,48,47,47,48,48,47,48,47,48,47,48,47,48,47,47,47,48,47,48,48,48,47,47,47,48,47,47,47,48,47,47,47,47,48,48,47,48,48,48,47,48,47,47,47,48,48,47,48,48,47,48,48,48,48,47,47,48,48,48,47,47,48,47,48,47,47,47,47,47,48,47,47,48,48,48,47,48,47,48,47,48,48,48,47,48,47,48,47,48,48,48,48,48,47,47,47,47,48,48,47,47,48,47,47,47,48,48,48,47,48,48,48,47,48,48,47,48,47,48,47,48,48,48,48,48,48,47,47,48,48,48,48,47,47,48,47,47,47,48,47,47,47,47,47,48,48,47,48,48,47,48,47,47,47,47,47,48,48,47,48,48,48,47,48,47,47,47,48,47,47,48,48,48,48,47,47,48,48,48,48,48,47,47,47,48,47,47,47,47,47,48,48,47,48,48,47,48,48,47,48,47,48,47,48,47,48,47,47,48,47,48,47,48,48,48,48,47,47,48,48,48,47,48,48,48,48,47,48,47,48,47,47,
0,0,0,0,0,0,0,0,0,0,0,0,0,0,0,0,0,48,48,48,47,47,47,47,48,48,48,47,48,48,48,47,47,47,47,48,47,47,47,47,47,47,47,47,48,48,47,48,47,47,47,48,47,48,48,47,48,47,48,48,48,47,47,48,47,47,47,47,47,47,48,48,47,48,47,47,47,48,48,48,47,47,47,47,48,48,47,47,48,48,47,47,48,47,47,48,47,48,48,47,48,47,48,47,47,47,47,47,47,48,48,47,48,47,48,48,48,47,48,47,48,48,47,47,48,48,47,47,48,47,48,47,47,47,48,48,47,48,48,47,47,48,48,48,48,48,48,48,47,47,47,48,48,48,48,47,47,47,48,48,47,47,47,48,48,47,47,48,48,48,47,47,48,48,47,47,47,48,48,48,48,47,47,48,48,48,47,47,47,48,48,47,47,48,48,48,48,47,47,48,48,47,47,47,48,48,48,47,48,47,48,47,47,47,47,47,47,48,47,48,47,47,47,48,48,48,48,47,47,47,48,47,48,48,48,47,47,48,47,47,48,47,47,48,48,47,48,47,47,48,48,48,47,47,48,48,47,47,47,47,47,47,48,48,48,48,48,47,48,48,47,48,48,48,47,48,48,47,48,48,47,47,48,47,47,48,47,48,47,47,48,48,47,47,48,48,48,47,48,48,47,47,48,48,47,48,47,48,47,48,47,48,47,48,47,47,47,48,48,48,47,48,48,47,48,47,47,48,48,47,47,48,47,47,48,47,48,47,48,48,47,47,47,48,48,48,47,48,48,48,47,47,48,48,48,47,47,48,47,48,48,48,47,48,47,47,48,47,47,47,48,47,
0,0,0,0,0,0,0,0,0,0,0,0,0,0,0,0,0,0,48,48,48,48,48,47,47,47,47,47,48,48,47,48,48,47,48,47,48,48,47,47,47,48,47,47,47,47,47,47,48,48,48,48,48,48,48,48,47,48,48,48,48,48,48,48,48,48,47,47,48,48,47,48,48,47,47,48,47,47,48,48,47,48,47,47,48,48,47,47,48,47,47,47,47,48,48,48,48,48,47,48,48,47,47,48,48,47,47,47,47,47,47,48,47,48,47,47,47,48,48,47,47,48,48,48,48,47,47,47,48,47,47,48,48,47,47,47,47,48,48,47,48,48,48,48,48,47,47,48,48,48,48,48,47,48,47,48,48,47,47,48,47,48,47,48,47,48,48,48,47,48,48,47,47,48,48,48,48,48,48,47,47,47,48,48,47,47,48,47,47,47,48,47,48,48,48,48,47,47,48,48,47,48,47,47,47,48,48,48,48,47,47,48,47,48,47,48,47,47,48,47,48,48,48,47,48,48,47,47,48,47,47,47,47,48,47,48,48,47,48,48,48,48,48,48,48,48,47,48,48,48,48,48,47,47,47,47,47,48,47,47,48,48,48,48,48,48,47,47,47,47,48,47,48,48,47,47,48,47,48,47,48,47,47,47,47,48,48,48,48,48,47,47,47,47,47,48,48,48,47,48,47,48,47,48,48,48,47,47,47,48,47,47,47,48,47,47,47,48,48,47,47,48,48,48,47,48,48,47,47,47,48,48,48,48,48,47,47,47,48,47,48,48,48,47,48,48,47,48,48,48,47,47,47,48,48,47,48,48,47,47,47,47,47,47,47,47,48,48,47,48,48,48,
0,0,0,0,0,0,0,0,0,0,0,0,0,0,0,0,0,0,0,48,48,48,47,47,48,48,47,48,47,48,47,48,47,47,47,47,47,48,47,48,47,47,48,48,48,48,47,48,48,47,48,47,48,48,48,48,47,47,47,48,48,47,48,48,48,47,48,47,47,47,47,47,48,48,47,48,47,47,47,47,47,48,47,48,48,48,47,47,47,48,48,47,48,48,47,48,47,47,47,48,48,48,47,47,47,48,48,47,48,48,48,47,48,48,48,47,47,48,47,48,48,48,48,48,47,48,48,48,48,48,47,48,47,48,47,48,47,48,47,48,47,47,47,47,48,48,48,47,47,48,48,48,48,47,48,48,47,47,47,48,47,48,47,47,48,47,47,48,48,48,47,47,48,47,48,47,48,47,48,47,47,48,47,48,48,47,48,47,47,47,48,47,48,47,47,47,47,48,48,47,48,47,48,48,48,48,48,47,48,47,48,48,47,47,48,48,47,48,48,47,48,48,47,47,47,47,48,48,47,47,48,48,47,48,47,48,48,47,48,48,48,47,47,47,47,47,48,48,48,48,47,47,47,47,47,47,48,47,47,47,48,48,47,47,47,48,47,48,47,48,47,47,47,48,48,47,48,48,47,47,48,48,47,48,47,48,48,48,48,48,47,47,48,48,48,47,48,47,47,48,48,47,48,48,47,47,47,47,47,47,47,48,47,48,47,47,47,48,48,47,48,48,47,48,48,47,47,47,48,48,47,47,47,48,48,48,47,47,47,48,48,48,48,48,47,48,48,47,47,47,48,47,47,47,48,47,47,48,47,48,48,47,47,47,47,48,47,48,47,48,48,47,
0,0,0,0,0,0,0,0,0,0,0,0,0,0,0,0,0,0,0,0,48,47,48,47,47,47,48,47,48,48,47,47,48,47,47,47,48,48,47,47,48,47,48,47,47,47,47,48,48,47,47,47,47,47,48,48,48,48,47,47,48,48,48,47,47,47,47,48,48,48,48,47,48,47,48,48,47,47,48,47,47,48,48,48,47,48,47,47,48,47,48,47,47,48,48,47,48,47,47,47,48,47,48,48,48,47,48,48,48,48,48,47,47,47,48,48,47,47,47,47,48,47,47,48,48,48,47,48,47,47,47,47,48,47,48,47,47,48,48,48,47,48,47,48,48,47,47,47,47,48,47,48,48,47,47,48,48,48,47,48,47,48,47,47,48,47,48,47,47,47,47,48,47,48,47,48,47,47,48,47,48,48,47,47,47,47,47,48,48,48,48,48,47,47,48,47,48,47,48,47,48,47,47,47,48,47,48,47,48,48,48,47,47,48,47,47,48,47,48,47,48,48,48,48,47,47,48,47,48,47,47,48,48,48,48,48,48,48,47,47,47,47,48,47,48,48,47,48,48,47,48,48,48,48,47,48,48,48,48,48,47,48,48,48,48,47,48,47,47,48,47,47,48,47,48,48,47,47,47,48,48,48,48,48,48,48,48,48,48,48,48,48,48,48,48,47,47,48,47,47,48,47,48,48,48,48,47,48,48,47,47,48,48,47,47,48,47,47,47,48,48,47,48,48,48,48,48,47,47,48,47,47,47,48,48,47,47,48,47,48,48,47,47,48,47,47,48,48,48,48,47,48,47,48,47,48,47,48,47,47,48,48,48,47,47,48,48,48,47,48,47,47,
0,0,0,0,0,0,0,0,0,0,0,0,0,0,0,0,0,0,0,0,0,0,48,47,48,47,48,47,48,48,47,47,48,47,48,48,47,47,47,47,48,48,47,48,48,48,48,48,48,47,47,48,47,48,47,47,48,48,48,48,48,47,48,48,48,48,48,47,48,48,48,47,47,48,48,48,48,47,47,48,47,48,47,48,47,48,48,48,48,48,48,47,48,48,47,47,47,48,47,47,47,47,47,47,48,48,48,47,48,48,48,48,48,47,48,47,47,47,48,48,47,48,48,48,48,48,48,47,48,48,47,48,48,47,47,48,47,47,47,47,47,47,47,47,47,48,47,48,48,47,47,48,47,47,47,47,47,47,47,48,48,47,47,48,48,47,47,48,48,47,47,47,48,47,47,47,47,48,48,48,47,47,48,48,48,47,47,47,47,47,48,47,47,48,47,47,47,48,48,48,47,48,47,48,47,48,47,47,47,47,47,47,48,47,47,47,47,47,47,47,48,47,48,47,47,47,47,47,48,47,48,47,48,47,47,48,48,47,48,47,47,48,48,48,48,48,48,48,48,47,47,47,48,48,47,48,47,47,47,48,48,48,48,48,47,47,47,47,48,47,48,48,47,47,48,48,48,48,47,48,47,47,48,48,48,48,48,47,48,47,48,48,47,48,47,48,47,48,48,48,48,47,48,47,48,48,47,48,47,48,47,47,48,47,47,48,48,48,47,47,48,48,48,48,48,48,48,47,47,47,48,47,47,48,47,47,48,47,48,47,48,47,48,48,48,47,48,47,47,47,48,47,47,47,47,48,48,47,48,47,47,48,47,47,48,48,47,48,47,48,48,48,
0,0,0,0,0,0,0,0,0,0,0,0,0,0,0,0,0,0,0,0,0,0,0,0,48,47,48,48,48,47,48,48,47,48,48,48,47,47,48,48,47,48,48,48,48,48,47,48,47,48,47,47,48,47,47,48,48,48,48,47,47,48,48,48,48,47,47,47,48,47,47,47,47,48,47,47,47,48,47,47,47,48,47,47,47,48,48,47,48,48,48,47,48,47,48,48,48,47,48,48,47,47,47,47,47,48,47,48,48,48,48,47,48,47,48,48,47,48,48,47,47,47,48,47,48,48,47,48,48,47,47,47,48,48,47,47,48,48,48,48,47,48,48,48,48,47,47,48,47,48,48,47,48,48,47,48,47,47,47,48,47,47,48,47,48,47,47,48,47,47,48,48,48,48,47,48,47,47,47,48,48,48,48,48,48,47,48,47,47,47,48,48,47,47,48,48,47,48,47,47,47,47,48,48,47,48,48,47,48,47,47,48,48,48,47,47,47,48,48,48,48,47,48,48,48,47,48,48,47,48,47,48,48,48,47,48,48,48,48,47,48,47,47,47,47,48,47,48,48,48,47,48,47,47,48,48,48,48,47,48,47,48,47,48,48,47,47,48,48,48,48,47,48,48,47,48,47,48,48,48,47,48,48,48,47,48,48,47,47,47,47,48,47,48,47,48,47,48,48,48,47,47,48,47,47,48,48,47,48,47,47,48,48,47,48,48,48,48,48,48,48,47,47,48,48,47,47,47,47,47,47,48,48,48,48,47,47,48,48,48,48,48,47,47,47,47,48,47,48,47,48,47,48,48,48,47,47,47,47,48,48,48,48,48,48,48,48,48,47,47,47,47,
0,0,0,0,0,0,0,0,0,0,0,0,0,0,0,0,0,0,0,0,0,0,0,0,0,0,47,48,48,47,48,47,48,47,48,48,48,48,47,47,48,48,48,47,47,47,47,47,47,47,47,47,47,48,48,47,48,48,48,47,48,47,47,48,47,47,48,47,47,48,47,48,47,47,47,47,47,47,48,48,47,48,47,48,47,48,48,47,47,48,48,48,47,48,48,47,48,48,47,47,48,47,48,47,47,47,48,48,48,48,48,47,48,47,48,48,48,48,48,47,48,47,47,47,47,47,47,47,47,47,47,47,47,48,47,47,48,47,48,47,48,47,47,47,47,47,47,47,48,48,47,47,48,48,47,48,48,47,48,48,47,48,48,47,47,47,47,48,47,48,47,48,47,48,48,47,48,48,47,48,48,48,47,48,47,48,47,47,48,48,48,48,47,47,48,47,47,47,47,47,48,47,47,47,47,48,47,48,48,48,48,47,47,48,48,47,47,48,47,48,48,48,47,48,47,47,47,47,47,48,48,48,48,47,48,48,48,48,47,47,47,48,48,48,48,48,47,47,47,48,47,48,47,47,47,48,47,47,47,47,48,48,47,47,48,47,47,47,47,47,47,47,48,48,48,48,48,47,47,47,47,47,47,48,47,47,47,48,48,47,48,48,47,47,47,48,48,47,48,48,47,47,48,47,47,48,48,48,47,48,47,48,47,48,48,47,47,47,47,48,48,48,47,47,47,48,47,48,48,48,47,47,47,47,48,48,47,47,47,47,48,48,47,47,48,47,47,47,48,47,48,48,48,47,48,47,47,48,48,47,47,47,48,47,47,47,48,48,47,48,47,48,
0,0,0,0,0,0,0,0,0,0,0,0,0,0,0,0,0,0,0,0,0,0,0,0,0,0,0,0,47,47,47,48,47,48,48,47,48,48,48,47,48,48,47,47,47,47,47,47,47,47,48,48,47,48,47,47,47,47,48,47,47,47,47,47,48,47,47,48,48,48,48,48,48,47,48,47,48,47,48,48,47,47,47,47,47,48,47,48,47,48,48,48,48,48,47,48,48,48,48,47,48,47,48,48,47,47,48,47,47,48,47,48,47,48,47,48,48,47,47,48,47,48,47,48,48,48,48,47,48,47,48,47,48,48,48,48,47,47,48,47,47,48,48,47,47,48,47,48,48,47,47,47,48,47,47,48,47,47,47,47,48,48,48,48,47,48,48,47,47,48,48,47,47,48,47,47,47,48,48,47,48,47,47,48,47,47,48,47,48,47,48,48,47,47,47,48,48,47,47,47,47,47,48,47,47,47,48,48,47,47,48,47,47,48,48,47,47,48,47,47,48,48,47,48,48,47,48,48,47,47,47,47,48,48,47,47,47,47,47,47,48,47,47,47,48,48,47,47,48,47,47,47,47,47,48,48,47,48,47,47,48,48,48,47,48,48,48,47,48,48,47,48,48,47,47,47,47,47,48,47,48,47,47,48,48,48,48,47,48,47,48,48,48,47,47,47,47,48,47,47,47,47,48,47,47,47,48,48,47,47,48,47,47,48,47,48,48,48,47,47,48,47,47,48,47,48,47,48,47,47,48,48,48,48,47,48,48,47,47,47,47,48,48,47,47,47,47,47,48,47,47,47,48,47,48,47,48,47,48,48,47,48,48,48,47,47,47,47,47,48,48,47,
48,47,48,48,48,48,47,47,48,48,48,48,48,47,48,47,48,47,0,0,0,0,0,0,0,0,0,0,0,0,48,48,48,48,48,48,48,47,47,48,48,48,48,47,48,47,47,48,48,47,48,48,48,47,47,48,48,47,48,47,48,48,48,47,48,47,47,48,48,47,47,47,47,47,47,48,48,47,47,47,47,48,48,47,48,47,47,48,47,47,47,47,48,48,47,48,47,47,47,47,48,47,48,47,47,47,48,48,47,47,47,48,48,48,48,48,47,48,47,47,48,48,48,47,47,47,47,48,47,47,48,48,47,48,47,47,47,47,47,48,48,47,47,48,47,48,47,47,47,48,48,48,48,47,47,48,47,48,48,47,48,48,48,48,48,47,47,48,47,47,47,47,48,47,47,48,47,48,48,48,47,48,48,47,47,48,48,48,48,48,47,47,48,48,48,47,48,48,48,48,47,48,47,47,47,48,47,48,48,47,47,47,48,48,48,48,48,48,47,47,48,47,47,48,47,47,47,48,48,47,47,47,48,47,48,47,48,48,48,47,47,48,47,48,48,48,48,47,48,48,48,47,47,47,48,47,47,48,48,48,48,47,48,48,48,47,48,47,47,48,47,48,48,47,47,48,48,48,47,47,47,48,48,47,48,47,48,47,47,48,48,47,47,48,48,48,47,47,47,47,48,48,47,48,47,48,47,48,47,48,47,47,48,47,48,48,47,48,47,48,48,48,47,48,47,48,48,47,47,48,47,47,47,47,47,48,47,48,48,48,47,47,47,48,47,47,47,47,47,48,47,47,48,48,47,47,48,48,47,47,47,48,47,47,47,47,47,48,47,48,48,48,
47,47,47,47,47,48,47,48,48,47,47,48,47,48,48,47,47,47,0,0,0,0,0,0,0,0,0,0,0,0,0,0,48,48,47,48,48,48,48,48,47,48,48,47,48,47,47,48,47,47,48,48,47,48,48,48,48,47,47,47,47,47,47,48,47,48,47,47,47,48,48,47,48,47,48,47,48,47,48,47,48,48,47,48,48,47,47,47,48,48,48,48,47,48,48,47,48,47,47,47,47,48,48,48,47,47,48,47,47,48,48,47,48,47,47,47,47,48,47,48,48,48,48,48,48,48,47,47,47,48,48,48,48,47,47,48,48,47,48,48,48,47,47,47,47,47,48,47,48,48,48,47,47,47,47,47,48,48,48,47,48,48,47,47,48,47,48,48,47,47,47,48,47,48,47,47,48,48,48,47,47,47,48,47,48,47,47,47,47,47,47,48,47,48,47,48,48,47,47,47,48,48,47,47,48,47,48,48,47,47,48,47,48,48,47,48,48,48,48,47,47,47,47,48,48,47,47,47,47,48,48,47,47,47,47,48,48,48,48,48,47,48,47,47,47,48,47,48,48,47,47,47,48,47,48,48,48,48,48,47,48,47,48,47,47,48,48,48,47,47,47,47,47,48,47,48,48,47,47,47,47,47,47,48,47,47,48,47,47,48,48,48,47,48,47,48,48,48,47,48,47,48,48,48,47,48,48,47,47,48,47,47,48,48,47,48,47,48,48,47,47,47,47,48,47,48,48,47,48,47,48,48,48,48,48,47,48,48,48,47,47,48,47,48,47,47,48,47,48,48,47,48,47,48,47,48,48,48,47,48,48,47,48,47,47,48,48,47,48,47,48,48,
47,47,47,48,48,48,48,48,47,48,48,47,48,47,48,47,48,48,48,48,0,0,0,0,0,0,0,0,0,0,0,0,0,0,47,48,47,47,47,48,47,47,48,47,48,48,47,48,48,48,48,48,48,48,48,47,47,47,47,48,47,47,48,48,48,48,47,48,47,48,47,48,47,48,47,47,48,47,48,48,47,48,48,47,47,48,47,47,47,48,47,48,47,47,47,47,48,47,48,48,48,47,48,48,47,47,47,47,47,47,47,47,47,48,48,48,47,48,48,48,48,48,47,47,48,47,47,47,48,48,48,47,48,47,48,47,47,47,48,47,48,48,47,47,47,47,47,48,47,48,47,48,48,47,47,47,48,48,48,48,47,47,48,48,48,47,48,47,48,47,47,48,47,47,47,48,48,47,47,47,48,47,47,47,48,47,47,47,47,48,47,47,47,48,48,47,47,48,48,47,47,47,47,47,47,48,47,48,48,48,48,47,48,48,47,47,47,47,47,48,47,47,48,48,47,48,47,48,48,48,48,47,48,48,48,48,48,48,47,48,47,48,47,48,47,48,47,47,48,47,48,47,48,48,47,48,47,48,48,47,48,47,47,48,47,48,47,48,47,47,47,48,47,48,47,48,47,47,48,47,48,47,47,48,48,48,47,47,48,48,47,48,47,47,47,47,47,47,48,48,47,48,47,48,48,47,48,47,48,48,48,47,47,47,48,48,47,47,47,48,47,47,48,47,47,47,48,48,48,48,47,47,48,48,48,48,47,48,47,48,47,48,48,47,47,48,48,47,48,47,48,48,47,48,47,47,47,48,48,48,47,47,47,47,47,47,47,47,48,47,47,48,
47,47,48,47,47,47,48,48,47,48,47,47,47,48,47,48,48,47,47,47,0,0,0,0,0,0,0,0,0,0,0,0,0,0,0,0,47,47,47,47,47,47,47,47,47,47,47,48,48,47,48,48,48,47,47,47,48,48,48,47,47,48,48,47,47,47,47,47,48,47,48,48,47,48,47,47,48,47,48,48,47,48,47,47,48,47,48,47,47,48,47,47,47,47,48,48,48,48,48,48,48,47,47,47,48,48,48,48,47,48,48,47,48,48,48,47,48,47,47,47,48,48,48,48,48,47,48,47,48,47,48,48,47,47,48,47,48,48,47,47,48,47,48,48,47,48,48,47,48,47,47,47,48,48,48,48,47,47,47,47,47,47,47,47,47,47,47,48,48,47,48,48,47,48,48,48,47,48,47,48,48,48,48,47,47,47,47,47,48,47,48,48,47,47,48,48,47,48,47,47,48,48,48,48,48,47,48,48,47,47,47,48,48,47,48,47,48,48,48,47,48,47,47,47,47,47,48,47,48,47,47,48,47,48,48,48,48,48,47,48,48,47,48,47,47,47,47,47,47,47,47,47,48,48,47,48,48,47,48,47,47,48,48,47,47,47,47,48,48,48,48,47,47,48,48,48,48,47,47,48,47,48,48,47,48,48,48,48,48,48,47,47,47,47,48,47,47,47,47,48,47,48,47,47,48,48,47,48,48,48,48,48,47,48,48,48,48,48,47,48,48,48,47,47,48,48,47,48,47,48,48,48,48,48,47,47,47,48,47,48,48,48,47,47,47,47,47,48,47,47,47,47,48,48,48,48,47,48,48,47,47,47,48,47,47,47,48,48,47,48,48,47,
48,47,48,48,48,47,47,47,47,48,48,48,48,47,48,48,47,48,48,48,0,0,0,0,0,0,0,0,0,0,0,0,0,0,0,0,0,0,47,48,47,48,48,48,47,47,47,48,48,47,47,48,48,47,48,47,48,47,48,47,48,47,47,48,48,48,48,48,47,48,47,48,48,48,48,48,48,48,47,48,47,47,47,48,47,47,47,47,47,48,47,48,48,48,47,47,47,47,47,48,48,47,48,47,47,48,48,47,48,47,47,47,48,47,48,47,47,47,48,47,48,48,48,48,48,48,48,47,48,48,48,48,47,48,48,48,47,48,47,48,48,48,47,47,48,48,47,48,47,47,48,47,47,47,47,48,47,48,47,48,48,48,47,48,48,48,47,47,48,48,48,48,48,47,47,47,48,48,48,47,48,48,48,47,48,47,48,48,47,48,47,48,48,48,47,47,47,48,47,48,47,48,47,48,48,48,48,48,47,47,47,47,48,48,48,47,48,48,47,48,48,47,47,48,47,47,47,48,48,47,48,48,48,47,47,47,47,47,47,48,48,48,48,47,47,48,48,47,47,47,47,47,48,48,48,48,48,47,47,47,48,48,47,47,47,47,48,47,48,48,48,48,47,48,47,48,47,47,48,48,48,48,48,47,48,47,47,48,48,47,47,47,47,48,47,47,48,48,47,47,48,48,47,48,48,48,47,47,48,48,47,48,47,48,48,48,47,48,47,47,47,47,48,47,48,48,47,47,48,48,48,48,47,47,47,48,47,47,48,47,48,47,48,48,47,48,48,48,48,47,47,47,47,48,48,47,48,48,48,47,48,47,48,48,47,47,48,48,47,48,48,47,
48,47,48,48,47,48,47,48,47,48,48,48,47,48,47,48,47,47,47,48,0,0,0,0,0,0,0,0,0,0,0,0,0,0,0,0,0,0,0,0,48,47,47,47,48,47,48,47,47,48,47,47,48,47,47,48,47,48,48,47,47,48,48,48,48,47,48,47,48,47,48,47,48,47,47,47,48,47,48,48,48,48,48,47,47,47,48,47,48,47,48,47,48,48,47,48,47,47,47,48,48,47,48,47,47,48,48,47,47,47,47,47,48,47,48,48,47,47,47,48,47,48,47,48,48,48,47,48,48,47,47,47,47,48,48,48,47,47,47,47,48,48,48,48,48,47,48,48,47,48,48,48,48,47,48,47,47,47,48,48,48,47,47,47,47,47,48,47,48,47,48,47,47,48,48,47,48,48,48,47,48,47,47,48,48,47,48,48,47,48,47,47,47,48,48,48,47,48,48,47,48,47,47,48,48,47,48,47,47,48,48,48,47,48,47,47,47,48,47,48,48,47,48,47,48,47,47,47,47,47,48,47,48,47,48,47,47,48,47,48,48,47,47,48,48,47,47,47,47,48,47,47,47,47,48,48,47,48,47,47,48,47,47,47,48,48,47,47,48,47,47,48,47,48,47,48,47,48,47,48,47,48,48,48,47,48,47,47,48,47,48,48,48,47,47,47,47,48,48,47,47,47,48,48,47,48,47,47,47,48,47,47,47,48,47,48,48,47,48,48,48,47,48,47,47,47,47,47,48,48,48,47,47,48,47,48,48,48,48,48,48,47,47,48,47,47,48,47,47,48,48,47,48,48,48,48,47,47,48,47,47,48,47,47,47,47,47,47,47,47,48,47,
48,47,48,48,48,47,47,48,47,48,48,48,48,47,47,48,47,47,0,0,0,0,0,0,0,0,0,0,0,0,0,0,0,0,0,0,0,0,0,0,0,0,48,47,47,48,48,47,47,48,48,47,47,48,48,47,47,48,48,48,48,48,47,47,48,48,48,48,48,47,48,48,47,47,48,47,48,48,48,48,48,47,48,48,48,47,48,47,48,47,47,48,48,48,47,48,47,48,47,48,47,48,48,47,48,47,48,48,48,47,48,47,48,47,48,48,47,47,47,47,47,47,47,48,47,47,48,47,48,47,47,47,48,47,47,48,48,48,47,48,47,47,48,48,47,48,48,47,47,48,48,48,48,48,47,48,48,48,47,48,47,48,48,47,47,48,48,47,48,48,47,48,47,47,48,48,47,48,48,47,48,48,48,47,48,47,48,48,48,48,47,48,48,48,47,47,47,48,47,48,47,47,47,47,48,48,48,47,48,47,47,48,47,47,48,47,48,47,47,47,47,47,48,47,47,48,48,47,47,48,48,47,48,47,47,47,47,47,48,48,47,47,48,48,48,47,47,47,47,47,48,47,47,47,47,47,47,47,47,47,47,47,47,47,47,47,47,47,47,48,48,48,48,48,47,47,47,47,47,47,47,48,48,47,47,47,47,48,48,47,47,47,47,47,48,47,47,47,47,47,47,48,48,47,48,48,47,47,48,47,47,48,48,48,47,47,47,48,47,48,47,48,47,47,47,48,48,48,48,48,47,48,48,48,47,47,47,48,48,48,48,48,48,48,47,48,47,48,47,47,47,48,48,48,48,48,48,48,47,47,47,48,47,48,48,48,47,48,47,47,47,47,
48,47,47,48,47,48,47,47,47,48,48,47,47,47,47,48,48,47,0,0,0,0,0,0,0,0,0,0,0,0,0,0,0,0,0,0,0,0,0,0,0,0,0,0,47,47,47,47,48,48,48,47,47,47,47,47,48,47,48,48,47,47,47,47,47,48,48,47,47,48,47,48,48,47,47,47,47,47,47,48,48,48,47,48,47,47,48,47,48,47,48,48,47,48,47,48,47,47,47,48,48,48,47,47,48,48,48,48,47,48,48,47,48,47,48,48,48,47,48,47,47,47,47,47,47,47,48,47,47,48,47,48,48,47,47,47,47,48,47,48,47,48,47,47,48,48,47,48,48,48,48,47,47,48,48,47,48,47,48,47,47,47,47,47,47,48,47,47,47,47,48,47,48,48,48,48,48,48,47,48,47,47,47,47,47,47,48,47,47,47,48,48,47,47,48,48,48,47,48,47,47,48,47,47,48,47,48,47,47,47,47,47,48,48,48,48,47,48,47,47,48,47,48,47,48,47,48,48,48,48,48,47,48,47,47,47,48,48,47,47,48,48,47,48,47,47,47,48,48,48,48,47,48,48,48,47,47,47,48,47,47,48,47,48,47,48,47,47,48,48,47,47,48,47,47,48,47,47,48,47,48,47,47,48,48,47,48,48,48,47,47,48,48,47,48,48,47,47,47,47,48,48,48,48,48,48,47,47,47,48,47,47,47,47,47,47,48,47,47,48,48,47,47,47,47,47,47,48,48,47,47,47,47,48,47,47,48,47,48,47,47,47,47,47,48,47,47,48,48,47,48,47,48,48,47,47,48,48,47,48,48,47,48,48,48,48,48,48,48,48,47,48,
47,48,48,47,47,47,47,47,48,48,47,48,47,47,48,48,47,47,0,0,0,0,0,0,0,0,0,0,0,0,0,0,0,0,0,0,0,0,0,0,0,0,0,0,47,48,47,47,47,47,48,48,47,48,47,47,47,47,47,47,47,47,48,48,48,48,47,47,48,47,47,47,47,48,48,47,48,48,48,47,48,48,48,48,47,48,47,47,47,47,47,48,48,48,47,48,47,47,47,48,47,48,48,47,47,48,48,48,47,48,47,47,48,47,48,48,47,47,48,47,48,48,47,47,47,48,47,48,48,47,47,48,47,47,47,48,47,47,48,48,47,47,47,48,48,47,47,47,48,47,47,48,48,47,47,48,48,48,47,48,48,47,48,47,47,47,48,48,47,48,48,47,47,48,48,48,48,48,48,47,48,48,48,47,47,47,47,47,47,47,48,47,47,48,48,47,48,47,47,47,48,47,47,47,47,48,48,48,48,47,47,47,47,48,47,47,48,47,47,47,48,48,48,48,47,47,47,47,48,47,47,47,48,47,47,48,47,47,48,48,48,48,48,47,47,48,47,48,47,47,47,47,47,47,48,48,47,48,48,48,48,48,47,48,47,47,47,47,48,47,48,47,48,47,48,47,47,47,47,47,47,47,47,47,47,47,47,48,47,47,48,47,48,47,48,48,48,47,47,48,48,48,47,47,48,48,48,48,47,48,47,47,47,48,48,47,48,47,47,48,47,48,48,47,48,48,47,47,48,48,48,47,47,47,48,47,48,48,47,47,48,48,47,48,47,48,47,48,48,48,47,48,47,48,47,47,48,48,47,48,47,47,47,48,47,48,48,47,48,47,47,47,
47,48,47,48,47,47,48,47,48,48,48,47,47,48,48,48,48,48,0,0,0,0,0,0,0,0,0,0,0,0,0,0,0,0,0,0,0,0,0,0,0,0,0,0,48,48,48,47,48,48,48,48,47,47,47,48,48,47,47,48,47,47,47,48,47,47,48,47,48,48,48,47,48,47,47,47,47,47,48,47,48,48,48,47,47,47,47,48,47,47,47,47,48,48,47,47,47,47,47,48,48,47,48,47,48,47,47,48,47,47,48,47,47,47,47,48,47,47,48,48,48,48,47,48,48,47,47,47,48,48,48,48,47,47,47,48,47,48,47,47,48,47,47,47,47,48,47,48,48,48,47,48,48,48,47,47,48,48,47,48,48,48,48,48,48,48,48,48,47,47,47,48,47,48,47,48,48,48,47,47,48,48,47,47,47,47,47,47,47,48,48,48,47,47,48,47,47,47,47,47,48,47,48,47,47,48,47,47,47,47,47,47,47,47,48,47,48,48,48,47,47,48,47,48,48,47,47,47,48,48,48,47,48,48,48,47,48,47,48,47,47,47,48,47,47,47,48,47,48,48,48,47,47,48,47,47,48,47,47,47,48,48,47,48,48,48,48,47,47,47,47,47,47,47,48,48,48,47,47,47,47,48,48,47,48,48,48,48,47,48,47,48,47,48,48,48,47,47,48,48,48,47,48,48,47,47,47,47,48,48,47,47,48,48,47,47,47,48,47,47,48,48,48,47,47,47,48,48,48,47,47,48,48,47,47,48,47,47,48,48,47,48,47,48,48,48,47,48,47,48,47,48,48,48,47,48,47,47,47,47,47,47,47,48,48,48,48,47,48,48,48,47,
47,48,48,47,48,48,48,47,48,47,47,47,47,48,48,48,47,47,0,0,0,0,0,0,0,0,0,0,0,0,0,0,0,0,0,0,0,0,0,0,0,0,0,0,47,47,48,48,47,48,47,47,47,47,47,48,48,48,48,47,48,47,48,47,48,48,48,47,47,48,47,47,48,47,48,47,47,48,47,47,48,47,47,47,48,47,48,47,48,47,48,47,48,48,48,48,47,47,48,48,47,48,47,48,47,47,47,48,47,48,47,47,48,48,47,48,47,48,48,48,48,48,48,48,48,47,48,48,48,48,47,48,48,47,48,48,47,48,48,48,47,48,48,47,47,47,47,48,48,48,47,47,47,48,47,48,48,48,47,48,48,48,48,47,47,47,47,48,48,47,47,47,48,47,47,47,48,47,47,47,48,48,47,47,47,48,48,47,48,47,47,47,47,48,47,48,48,48,47,47,47,47,47,48,47,48,47,47,48,48,47,48,48,47,48,48,48,47,48,47,48,47,47,47,47,48,47,47,47,48,47,47,47,47,47,47,47,48,48,47,47,47,48,47,47,48,48,47,48,47,48,48,47,47,48,47,47,48,48,47,48,48,47,47,48,47,48,47,48,47,48,48,47,47,47,47,48,47,48,48,48,47,48,48,48,48,48,47,47,47,48,48,47,48,48,48,47,47,47,47,48,48,48,47,48,47,48,47,47,48,48,47,48,47,47,48,48,48,48,47,47,48,47,48,47,47,48,47,47,47,47,48,48,48,47,48,47,48,48,47,47,47,48,47,48,47,48,48,48,48,48,48,48,47,47,48,48,47,48,47,48,48,48,48,47,47,47,48,47,47,47,47,
48,48,48,47,47,47,47,47,48,47,48,48,47,48,47,48,47,48,0,0,0,0,0,0,0,0,0,0,0,0,0,0,0,0,0,0,0,0,0,0,0,0,0,0,48,48,48,48,47,47,48,48,47,48,47,48,47,48,47,48,47,47,48,48,48,47,48,47,47,48,47,47,48,48,48,47,48,48,47,48,47,48,48,47,48,48,48,47,48,47,47,47,48,48,48,48,47,48,47,47,48,47,47,48,47,47,48,47,47,48,47,48,48,48,48,48,48,47,48,47,47,47,48,47,47,48,48,48,47,47,47,47,47,48,47,48,48,47,48,47,47,48,48,48,48,47,47,48,47,48,48,48,47,48,47,48,47,48,48,48,47,47,47,48,47,47,47,48,47,48,47,48,47,47,48,47,48,47,48,48,48,48,48,48,47,47,47,48,47,47,48,48,48,47,48,47,47,47,47,48,48,47,47,47,47,47,48,47,48,48,48,47,48,47,48,47,48,48,48,47,48,48,47,47,48,47,48,47,47,48,47,48,48,47,47,47,48,47,47,47,47,48,48,47,48,47,48,47,47,48,47,48,47,48,47,47,47,47,47,47,47,48,48,47,47,48,48,48,48,47,48,47,48,48,47,48,47,48,47,48,48,48,48,47,47,48,48,48,48,48,48,48,48,47,48,48,47,48,48,48,47,48,47,47,47,47,47,48,47,47,48,47,47,48,47,47,48,48,48,47,48,47,47,47,47,48,47,48,47,48,47,48,48,48,47,47,48,48,48,48,48,47,47,48,48,48,47,47,48,48,48,47,48,48,47,47,48,47,48,48,47,48,48,48,47,48,47,47,47,47,48,47,
47,48,48,47,47,48,47,47,48,47,47,47,48,47,47,47,47,47,48,47,48,47,48,47,48,48,48,48,47,47,48,47,0,0,47,47,47,48,47,48,47,47,47,47,48,48,48,48,48,48,47,48,48,47,47,48,48,47,48,48,47,48,48,48,48,47,47,48,47,47,47,47,47,48,48,47,47,48,47,48,47,48,48,48,47,47,48,48,48,47,47,47,47,47,47,48,48,48,47,48,47,48,47,48,47,47,48,47,48,48,48,48,48,47,47,47,48,47,48,47,48,47,48,47,47,48,48,48,47,47,47,47,48,47,48,47,48,47,47,48,47,47,47,48,47,47,47,48,47,48,47,48,48,47,47,48,48,48,48,47,47,48,47,47,47,48,48,47,47,47,48,48,48,48,48,47,48,48,47,47,48,47,48,47,47,48,47,48,48,47,48,48,48,47,47,47,48,48,47,47,47,47,47,47,47,48,48,48,48,48,48,47,47,47,48,47,47,47,47,47,48,47,48,47,48,48,48,48,47,47,48,47,48,48,47,47,47,48,47,47,47,48,48,47,48,47,48,47,47,47,47,47,47,47,48,48,48,47,48,48,48,48,48,47,47,47,47,48,48,47,48,48,48,48,48,47,47,48,47,47,48,47,47,48,48,47,48,48,47,47,48,47,47,47,48,47,47,47,47,48,47,48,48,47,48,47,47,47,48,48,48,47,48,48,48,47,48,48,47,47,48,47,48,47,47,48,48,47,47,47,48,48,47,47,48,47,48,47,48,47,48,47,48,47,47,48,47,48,48,48,48,47,47,47,47,48,48,48,48,48,47,47,48,47,48,47,47,48,48,48,48,47,
48,47,48,48,47,47,48,47,47,47,47,48,48,47,48,47,48,48,47,48,47,47,47,47,47,48,48,47,48,47,47,48,0,0,48,48,47,47,48,48,48,48,47,47,48,47,47,47,48,47,47,47,47,47,48,47,47,47,48,47,48,47,47,47,47,48,48,47,48,47,48,47,48,48,47,48,48,48,48,48,48,48,47,47,48,47,47,47,48,47,47,47,48,47,47,47,48,47,47,47,47,47,48,47,48,48,48,48,48,47,47,48,48,48,48,48,48,48,47,48,47,48,47,47,48,48,47,47,48,47,47,48,47,48,47,47,48,47,47,47,48,48,48,47,48,47,47,48,47,48,47,48,47,48,48,48,47,47,47,48,48,48,48,47,47,47,47,47,48,48,47,47,48,47,47,48,48,47,47,48,48,47,47,48,47,48,48,48,47,48,48,47,48,47,48,47,48,47,48,48,48,47,47,48,47,48,47,48,48,48,47,48,48,47,47,48,47,48,48,47,48,47,47,47,48,48,47,47,48,47,47,47,48,47,48,48,48,48,48,48,48,47,47,48,47,48,47,47,47,48,47,48,47,47,47,48,48,47,48,48,47,48,47,47,48,48,48,48,47,48,48,47,47,48,48,48,48,48,47,47,48,48,47,48,47,48,48,48,47,48,47,48,47,48,48,48,48,48,47,47,47,47,48,47,47,47,48,47,48,48,47,47,48,48,47,48,47,48,48,48,48,48,48,47,48,47,48,47,47,47,48,47,48,47,47,48,47,47,48,47,48,48,48,48,48,48,47,47,48,47,47,47,48,47,48,47,48,48,48,48,48,48,48,47,48,48,48,48,48,47,48,47,
48,47,48,47,48,47,47,48,48,47,47,47,47,48,48,47,48,47,47,48,47,48,48,47,47,47,47,48,48,48,47,0,0,0,0,47,47,47,48,48,48,47,47,47,47,48,47,48,48,48,47,48,48,48,47,47,47,47,48,48,47,47,47,47,48,47,48,47,48,47,48,48,47,48,48,48,47,47,47,47,47,47,47,47,47,47,48,48,48,48,47,47,48,48,48,47,47,48,48,47,48,47,48,48,48,48,47,47,47,48,48,48,47,48,47,48,48,47,47,47,47,47,47,48,47,48,48,48,47,47,48,48,48,48,47,47,47,48,47,47,47,47,47,48,47,47,48,48,47,47,47,47,47,47,47,48,47,47,48,48,48,48,48,48,47,47,48,48,47,48,48,48,48,47,47,48,48,48,47,48,48,48,48,47,48,47,48,47,48,48,47,47,48,48,47,48,48,47,48,48,47,47,47,47,48,47,47,48,47,48,47,48,47,48,48,48,48,47,48,48,48,48,48,47,48,48,47,48,48,48,47,47,47,48,47,48,48,48,48,48,47,47,47,48,48,47,47,47,47,47,48,47,48,47,48,48,47,47,48,48,48,47,48,47,47,47,48,47,47,47,48,47,47,47,47,48,47,47,48,47,48,47,47,48,47,47,47,48,48,47,47,48,48,47,48,48,47,47,47,48,48,47,47,47,47,48,47,48,48,47,47,48,48,47,48,48,48,48,48,48,48,47,48,48,47,48,47,47,48,47,47,48,48,47,47,48,48,47,48,47,47,48,48,48,47,48,47,48,48,48,48,48,48,47,47,48,47,47,48,47,48,47,48,48,48,48,48,47,47,47,47,47,
47,48,48,47,47,47,48,47,48,48,48,48,48,48,48,48,47,47,48,48,48,48,47,47,48,48,47,48,48,48,47,0,0,0,0,0,47,47,47,48,47,47,48,48,47,48,47,47,48,47,47,47,47,47,47,48,47,47,47,48,48,47,47,47,47,48,47,48,47,47,47,48,47,48,47,47,47,47,48,48,48,48,47,48,47,48,48,48,47,48,48,48,48,48,47,47,48,48,48,48,47,47,47,48,47,48,48,47,47,48,47,48,47,48,48,48,47,48,48,48,47,47,47,48,47,47,48,47,48,48,47,48,48,48,47,48,48,47,47,48,47,47,47,48,47,47,47,47,48,48,48,47,48,48,47,47,47,47,48,47,47,47,48,47,48,47,48,47,48,48,47,47,48,48,47,47,47,48,47,48,48,48,48,47,48,47,47,48,47,48,48,47,47,47,48,48,47,48,47,47,47,48,48,47,48,47,47,47,47,48,48,48,48,48,47,48,48,48,47,47,47,47,47,47,48,47,47,48,48,47,48,47,47,48,48,47,47,47,47,48,47,47,48,48,48,48,48,48,47,48,48,47,48,47,47,48,47,47,48,47,48,47,48,48,48,47,47,48,47,47,47,48,48,48,47,47,47,48,48,47,48,48,47,48,48,47,48,48,47,48,48,47,47,47,47,47,48,48,48,47,47,48,48,47,48,48,47,47,47,47,48,48,48,47,47,48,48,47,47,47,47,47,48,48,48,47,48,48,47,48,47,48,47,48,48,48,48,48,47,48,48,48,48,48,47,47,47,48,47,47,47,48,48,48,47,47,48,48,48,48,48,48,47,48,47,48,47,47,47,48,48,47,
47,47,48,47,48,48,48,47,47,48,47,47,48,47,47,47,47,47,48,47,48,48,48,48,48,48,47,47,47,48,0,0,0,0,0,0,0,0,47,48,48,48,48,48,47,47,48,48,48,48,47,48,48,48,48,47,48,48,48,47,47,47,47,48,47,48,47,47,48,47,48,48,47,48,47,47,47,47,47,47,47,48,48,48,48,47,48,48,47,48,47,47,47,48,47,47,47,48,47,47,47,47,48,47,48,48,48,48,48,47,47,47,48,48,47,48,47,48,47,47,48,47,47,47,48,47,48,47,47,48,47,48,47,47,48,48,48,47,47,48,47,48,47,48,48,48,48,48,48,47,48,47,48,47,47,48,47,48,47,47,47,48,48,47,48,47,47,48,47,47,48,47,48,47,48,48,48,47,48,48,48,47,47,47,48,48,47,47,47,47,47,48,47,48,47,48,47,47,48,48,48,47,48,48,47,48,47,47,47,47,47,48,48,48,47,48,48,47,47,48,48,48,48,48,47,48,47,47,48,48,48,47,48,48,47,47,48,47,47,48,47,47,47,47,47,48,47,48,47,47,48,48,48,47,48,47,47,48,48,48,47,47,48,48,48,48,47,47,47,48,47,47,47,47,47,48,48,47,47,47,47,47,48,47,48,47,48,48,47,48,47,48,47,47,47,47,47,48,48,47,48,48,47,48,48,47,47,47,48,48,48,48,47,47,47,48,48,47,48,48,47,47,48,48,48,48,48,48,47,48,48,47,48,48,48,47,47,47,48,47,48,48,48,48,48,47,48,48,48,48,48,47,47,48,47,48,48,47,48,48,48,48,47,48,47,48,48,47,47,48,48,47,
47,47,47,47,47,48,48,47,47,48,48,47,48,47,47,47,47,47,48,47,48,47,48,48,48,48,48,47,47,0,0,0,0,0,0,0,0,0,0,0,47,47,48,47,48,48,47,48,47,48,47,48,47,48,47,47,48,47,48,47,48,47,48,47,48,48,47,47,47,48,47,47,47,47,47,48,48,48,48,47,47,48,48,48,48,48,48,47,47,48,47,47,47,47,47,48,48,47,48,47,47,47,48,48,48,47,47,48,48,47,47,47,47,48,48,48,47,48,48,48,48,48,47,47,48,48,48,47,47,47,47,47,48,47,48,47,47,47,48,47,47,47,48,47,47,47,47,48,47,47,47,48,48,47,48,47,48,48,48,48,48,48,48,48,48,47,48,48,47,48,47,47,47,48,47,47,47,47,47,48,48,47,48,48,47,47,47,47,47,48,48,48,48,48,47,48,47,48,47,47,47,48,47,48,47,48,48,47,47,48,47,47,47,48,48,47,48,48,47,48,47,48,48,47,48,47,48,47,48,48,47,47,47,48,47,48,48,47,47,48,48,48,48,47,47,47,47,48,48,47,48,47,48,47,48,48,47,48,48,47,47,48,48,48,47,48,47,48,47,47,47,47,47,47,47,47,48,47,48,48,48,48,47,48,47,48,47,48,47,48,48,47,48,48,48,48,47,48,47,48,47,48,47,48,47,47,47,47,48,48,48,47,48,47,47,47,47,48,47,47,48,47,48,48,48,47,47,48,48,47,48,48,47,48,47,48,48,47,48,48,47,48,48,48,47,48,47,47,48,47,48,48,48,48,48,47,47,47,48,48,47,47,47,48,48,48,48,48,47,48,47,47,
47,47,47,47,47,48,48,48,48,48,47,47,47,47,48,47,47,48,47,48,47,48,48,47,48,47,48,47,0,0,0,0,0,0,0,0,0,0,0,0,0,0,47,47,47,48,47,47,47,47,48,48,47,47,47,47,48,47,48,47,48,48,47,48,48,47,48,47,48,48,47,47,47,48,48,48,47,47,47,48,48,47,47,48,47,47,47,48,48,48,48,47,47,48,47,48,48,48,48,47,47,47,48,47,48,48,48,48,47,48,48,47,48,48,48,47,47,47,48,48,48,48,48,48,48,47,48,48,47,47,48,47,47,47,48,48,48,47,47,48,48,48,48,48,48,48,48,47,47,47,48,48,48,47,47,48,47,47,48,47,47,47,48,48,47,47,48,47,47,47,47,47,48,48,48,47,47,47,47,48,47,47,47,47,47,47,47,48,48,48,48,48,48,48,48,48,47,47,47,48,48,48,47,48,48,48,47,47,47,48,48,48,47,48,47,48,48,47,48,47,48,47,48,48,47,47,48,48,48,47,48,48,47,47,47,47,48,48,48,48,48,48,47,48,48,48,47,48,48,47,48,48,48,47,47,47,47,48,48,48,48,48,48,47,48,47,47,48,47,48,47,48,47,47,48,47,47,47,48,47,48,47,48,47,47,47,47,47,48,48,47,47,48,48,48,48,48,47,47,47,48,47,48,48,48,48,48,48,47,47,47,48,48,48,47,47,47,48,48,47,48,48,48,48,47,48,47,48,48,48,48,47,48,47,48,48,48,48,48,47,47,48,47,48,47,47,48,48,47,47,48,47,47,47,48,48,48,47,48,48,47,48,47,48,48,48,48,47,48,48,48,48,
47,48,47,48,47,47,47,48,48,47,48,47,48,48,47,48,47,48,47,47,47,48,48,48,48,47,48,0,0,0,0,0,0,0,0,0,0,0,0,0,0,0,0,0,47,47,47,48,48,48,47,48,48,47,47,47,48,48,47,48,47,48,47,47,48,47,47,48,48,47,47,47,48,48,48,48,48,48,47,48,48,47,47,48,47,48,48,48,48,48,48,48,47,47,47,47,48,47,48,47,47,47,48,48,47,48,48,48,47,48,47,48,47,47,48,48,48,47,48,48,47,48,47,48,47,48,47,47,47,47,47,48,47,47,47,48,48,48,48,47,47,48,48,47,48,48,47,47,48,48,47,47,47,47,48,48,48,47,48,48,48,48,48,48,47,48,48,48,48,48,48,47,47,47,47,48,48,47,48,47,47,48,48,48,48,47,47,47,47,48,48,47,47,47,48,47,47,48,47,47,48,47,48,48,47,47,47,48,48,47,48,47,48,48,47,47,47,48,47,47,47,48,48,47,47,48,47,47,48,47,48,47,47,47,48,48,48,47,47,48,47,48,48,48,48,48,47,48,48,48,47,47,48,47,48,47,47,48,47,48,48,48,47,48,48,48,48,48,48,48,48,48,47,48,47,48,47,47,47,48,48,48,48,47,48,48,48,48,47,48,47,48,47,48,47,48,47,48,47,47,47,48,48,47,48,48,47,48,48,48,47,48,48,47,48,47,48,47,47,47,47,48,48,48,47,47,48,48,48,47,48,47,47,47,47,48,47,47,48,47,48,48,47,47,48,48,48,48,48,48,47,47,48,47,47,48,47,47,48,48,48,47,48,48,48,48,47,47,47,48,48,48,
47,48,47,48,48,48,48,48,47,48,47,47,48,47,48,48,48,47,48,47,47,47,48,48,47,0,0,0,0,0,0,0,0,0,0,0,0,0,0,0,0,0,0,0,0,47,47,48,47,47,47,47,47,47,47,48,48,48,48,47,47,48,47,48,48,47,48,47,48,48,48,47,47,48,48,48,47,48,47,47,47,48,48,48,48,48,48,48,47,48,47,48,47,48,47,48,48,48,48,47,48,48,47,48,48,48,48,48,48,47,47,48,47,48,47,48,48,48,48,48,48,47,48,48,48,48,48,48,48,47,48,48,48,48,47,47,48,48,47,47,47,48,47,47,48,48,47,48,47,48,47,47,48,48,48,47,47,48,47,48,48,47,47,47,48,48,48,47,47,48,48,47,47,48,47,47,48,47,47,48,47,47,48,47,48,47,47,48,48,47,48,48,48,47,48,48,48,48,48,47,47,48,48,48,47,48,48,48,48,47,48,48,48,47,48,48,48,48,48,48,48,47,48,47,48,48,48,47,47,47,48,47,48,48,47,47,48,47,48,47,47,48,48,47,47,48,48,47,48,48,47,47,48,47,47,47,47,47,47,48,47,47,48,47,48,48,48,48,48,48,47,47,47,47,47,47,47,47,48,48,48,48,47,48,47,47,48,47,47,47,47,48,48,47,48,48,48,47,48,48,47,48,47,48,48,47,47,48,47,47,47,47,47,47,48,47,48,47,48,48,47,48,48,47,48,48,47,48,48,48,47,47,47,47,47,48,48,48,47,48,48,47,48,47,48,48,47,47,48,47,47,48,48,48,47,47,47,48,48,47,48,48,47,47,47,47,47,47,48,48,47,48,
48,48,48,48,47,47,48,48,47,47,47,48,48,47,48,48,48,47,48,47,48,47,48,0,0,0,0,0,0,0,0,0,0,0,0,0,0,0,0,0,0,0,0,0,0,0,48,48,48,48,47,48,47,48,48,48,47,47,47,48,48,48,48,48,48,48,47,47,48,48,48,48,47,47,48,47,47,47,48,48,48,47,48,48,47,48,47,48,48,48,48,47,48,47,48,48,48,47,48,47,47,47,48,47,48,47,47,47,48,47,47,47,47,48,48,47,48,47,47,48,47,47,47,48,48,47,48,48,47,47,47,47,48,47,48,48,48,47,47,47,47,48,48,47,48,48,47,47,47,48,48,48,47,47,47,48,48,47,48,47,47,47,47,47,48,48,48,48,48,47,47,47,48,47,48,47,48,48,47,48,47,48,47,47,48,47,48,47,48,47,47,48,47,48,47,47,48,47,48,48,48,47,48,47,47,48,47,48,48,47,47,47,47,48,47,47,47,48,47,47,48,48,47,48,48,47,47,48,48,48,47,47,48,47,48,47,47,48,48,47,47,47,47,47,48,47,48,48,47,47,48,48,47,47,47,48,47,47,48,48,47,47,47,48,48,47,47,47,48,48,47,47,47,48,48,47,47,47,47,48,48,48,47,47,47,47,47,47,47,48,47,48,47,48,48,47,47,47,48,48,48,48,48,48,47,48,47,47,47,47,47,47,48,47,47,47,47,47,48,48,47,48,47,47,47,48,47,47,47,48,48,48,47,48,48,48,48,47,48,47,48,47,47,48,47,47,48,47,48,47,47,48,48,48,48,47,47,47,48,48,48,48,48,48,47,48,47,48,48,47,47,47,
0,0,0,0,0,0,0,0,0,0,0,0,0,0,0,0,0,0,0,0,0,0,0,0,0,0,0,0,0,0,0,0,0,0,0,0,0,0,0,0,0,0,0,0,0,0,0,48,47,48,47,48,47,48,48,47,48,48,48,48,47,48,48,47,48,48,48,47,47,47,47,47,48,47,47,48,47,47,48,47,48,47,47,47,48,48,47,48,48,47,48,47,47,47,48,47,47,48,47,48,47,48,48,47,48,47,48,48,47,47,48,48,47,47,48,47,48,48,47,48,47,47,47,48,48,48,47,48,47,48,47,48,47,47,47,48,47,48,48,48,48,47,48,48,48,48,47,47,48,47,47,47,48,48,48,47,47,47,47,48,48,48,48,48,47,48,47,48,47,48,47,48,48,47,48,48,47,48,47,47,48,48,48,47,48,47,47,48,47,47,48,47,47,48,48,47,47,47,48,48,48,48,48,47,48,47,48,48,47,48,47,47,47,48,47,48,47,47,47,47,47,48,48,47,47,47,48,48,47,48,47,48,48,48,48,47,48,47,48,47,47,48,48,47,47,47,48,47,47,47,48,48,47,47,47,47,48,48,48,47,48,48,47,48,47,47,47,48,47,47,47,48,48,47,48,48,48,47,47,48,47,47,48,47,47,47,47,48,48,48,48,48,47,48,47,48,47,48,47,47,47,48,48,47,48,47,47,47,48,48,47,48,47,47,48,47,47,48,48,47,47,47,47,47,48,48,47,48,47,47,47,48,48,48,48,47,47,47,47,47,47,48,47,47,48,47,47,48,47,48,47,47,48,47,47,48,48,47,48,47,48,48,48,47,47,47,48,48,47,47,48,47,
0,0,0,0,0,0,0,0,0,0,0,0,0,0,0,0,0,0,0,0,0,0,0,0,0,0,0,0,0,0,0,0,0,0,0,0,0,0,0,0,0,0,0,0,0,0,0,0,48,47,48,47,47,48,48,47,47,48,48,47,48,48,48,48,48,47,47,47,47,48,48,48,47,48,48,47,47,48,48,47,48,47,48,47,47,47,48,47,48,47,48,47,47,47,48,47,48,48,48,47,48,47,48,47,47,47,48,47,47,48,48,47,48,47,47,47,47,48,48,47,48,47,48,47,48,48,48,48,48,48,47,48,48,48,48,48,47,47,47,47,48,48,48,47,47,47,47,47,48,48,47,48,47,48,48,48,48,48,48,47,48,47,48,48,48,47,47,48,47,48,48,47,47,47,47,47,48,48,48,47,48,48,48,48,47,48,47,47,47,48,47,48,48,48,47,47,48,47,48,48,48,48,48,48,47,47,48,48,47,47,48,48,48,47,48,47,47,47,48,48,48,48,48,48,47,47,48,47,48,48,47,47,48,47,47,47,48,48,47,48,47,47,47,47,48,48,48,48,48,47,48,47,48,48,47,47,48,48,48,47,48,47,48,48,48,47,48,48,48,47,47,48,47,48,48,47,47,48,48,47,47,47,48,47,47,47,47,48,48,47,47,47,48,48,47,48,47,48,48,47,47,48,47,47,48,48,48,48,48,48,48,48,47,47,48,47,48,47,48,47,47,48,48,48,48,47,48,48,48,48,48,48,48,48,47,48,48,48,47,48,48,48,48,48,48,48,47,48,48,47,47,48,47,48,48,47,48,48,47,48,47,47,48,47,48,47,48,47,47,47,48,48,
0,0,0,0,0,0,0,0,0,0,0,0,0,0,0,0,0,0,0,0,0,0,0,0,0,0,0,0,0,0,0,0,0,0,0,0,0,0,0,0,0,0,0,0,0,0,0,0,0,47,48,47,48,47,47,48,47,48,47,48,47,47,47,47,48,48,48,48,47,48,47,48,47,48,48,47,48,48,47,47,48,47,47,48,48,48,47,48,47,48,47,47,48,47,48,48,47,48,48,48,47,48,47,47,47,48,48,47,47,48,48,48,48,48,48,47,47,48,47,48,47,47,47,48,48,47,47,48,48,48,48,48,47,47,48,48,48,48,47,47,47,47,48,47,48,48,48,47,48,47,47,48,47,47,47,48,48,47,48,47,47,48,47,47,47,48,48,48,47,48,48,48,47,48,48,48,48,47,48,47,47,48,48,47,48,48,48,47,48,47,47,47,47,47,47,47,48,47,48,48,48,48,48,48,47,48,47,47,47,47,48,47,48,47,48,47,48,47,47,48,48,47,48,48,47,48,47,48,47,47,47,48,47,47,48,47,47,48,47,48,48,48,48,48,47,47,48,47,47,47,48,48,48,47,48,48,48,48,47,47,48,47,48,48,48,47,47,48,47,48,48,48,48,48,48,48,48,48,48,47,47,48,47,48,47,48,48,47,47,48,48,48,48,47,47,47,47,47,48,47,48,48,47,48,47,48,47,47,48,47,48,48,47,48,48,47,48,48,47,48,48,47,48,48,47,48,48,47,48,47,48,47,47,47,48,48,47,48,48,47,48,47,47,48,47,47,48,48,48,47,47,47,47,47,48,48,47,47,47,48,48,48,48,47,48,47,47,47,48,47,48,48,
0,0,0,0,0,0,0,0,0,0,0,0,0,0,0,0,0,0,0,0,0,0,0,0,0,0,0,0,0,0,0,0,0,0,0,0,0,0,0,0,0,0,0,0,0,0,0,0,0,47,48,47,47,47,48,48,48,47,48,48,47,48,47,48,48,47,47,48,47,47,47,48,48,48,48,48,47,47,48,48,48,47,47,48,48,47,48,48,47,47,48,47,48,47,47,48,47,47,48,48,47,48,47,47,47,47,48,48,48,47,47,48,47,47,48,47,47,48,48,48,47,48,48,48,48,47,47,48,47,47,47,48,47,48,48,47,48,47,47,47,47,48,48,48,48,48,47,47,48,48,48,47,47,47,47,48,48,48,47,47,47,47,47,48,48,47,48,48,48,48,47,47,47,48,48,48,47,47,48,47,48,48,47,48,48,47,48,48,48,48,47,48,48,48,47,47,48,47,47,48,48,48,47,48,48,48,47,48,47,48,47,47,47,48,47,48,48,47,48,47,48,48,47,47,48,48,47,47,47,48,48,48,48,47,48,48,47,47,47,48,47,47,47,48,47,47,47,48,47,48,47,47,47,47,47,47,47,48,47,48,48,47,48,48,47,48,47,48,48,48,47,48,48,48,47,47,48,47,47,47,47,47,47,48,47,47,48,47,47,47,48,47,48,48,48,48,47,48,47,47,47,47,48,48,48,48,48,48,47,48,48,47,48,47,48,48,48,48,47,48,47,48,48,47,47,47,48,48,47,48,47,47,47,47,47,47,47,48,48,47,47,47,47,47,48,47,48,48,48,48,48,48,47,48,48,48,47,48,47,48,47,48,48,47,47,47,48,47,48,47,47,47,
0,0,0,0,0,0,0,0,0,0,0,0,0,0,0,0,0,0,0,0,0,0,0,0,0,0,0,0,0,0,0,0,0,0,0,0,0,0,0,0,0,0,0,0,0,0,0,0,0,0,47,47,47,48,48,48,47,48,47,47,48,48,48,48,48,47,47,48,47,47,47,48,47,47,48,48,48,47,48,48,48,48,48,48,48,47,47,47,47,48,48,47,47,48,47,48,48,48,48,47,47,47,48,48,48,47,47,48,47,48,47,48,48,48,48,48,47,48,47,47,48,47,47,48,48,47,47,48,48,48,48,48,47,47,47,48,48,47,47,47,48,47,48,47,48,47,47,47,47,47,47,47,47,47,48,47,47,48,47,48,47,48,48,47,48,47,47,47,48,48,47,48,47,47,47,48,47,47,48,48,48,48,48,48,47,48,47,47,48,48,47,48,48,47,48,48,47,47,47,48,48,47,47,48,48,47,48,48,48,48,48,48,48,48,48,48,47,47,48,47,48,48,47,47,47,48,47,48,47,47,48,47,47,47,47,47,47,48,48,47,47,47,48,48,48,47,47,48,48,47,48,48,48,47,48,48,48,47,47,47,47,48,48,48,47,47,47,48,47,47,48,48,48,47,47,47,48,48,47,47,48,47,48,47,48,47,47,48,48,47,47,47,48,48,48,48,47,48,47,48,48,47,48,48,48,48,47,48,48,47,47,48,48,48,48,47,48,47,47,47,47,48,48,47,48,48,48,48,48,47,48,48,48,48,48,47,48,48,47,48,48,48,48,47,48,48,48,47,47,47,48,47,48,47,48,48,48,48,47,48,48,47,47,47,48,47,47,47,47,47,47,47,
0,0,0,0,0,0,0,0,0,0,0,0,0,0,0,0,0,0,0,0,0,0,0,0,0,0,0,0,0,0,0,0,0,0,0,0,0,0,0,0,0,0,0,0,0,0,0,0,0,0,47,48,47,47,47,47,48,47,48,48,48,48,48,48,47,47,47,47,48,48,47,47,48,47,48,47,47,47,47,47,48,48,48,47,48,47,48,48,48,47,47,47,48,48,48,47,48,47,47,47,48,48,48,48,48,48,47,47,48,47,48,47,48,47,47,48,48,48,47,48,47,48,48,48,47,48,48,48,47,47,47,47,48,48,47,48,47,47,47,48,48,47,47,48,47,47,47,48,47,48,48,47,48,47,47,48,47,47,47,48,48,48,48,47,47,47,47,47,48,47,47,48,48,47,48,48,48,48,48,47,47,47,48,48,47,48,47,48,48,47,47,47,48,48,47,48,47,48,48,48,47,48,47,48,48,48,47,47,48,48,47,47,48,48,48,47,48,48,47,47,48,48,47,47,48,48,48,47,48,48,48,48,48,48,48,47,48,47,48,47,48,47,48,48,48,47,47,47,47,47,47,47,48,48,48,47,47,48,47,48,48,47,47,48,48,47,48,48,48,48,48,47,47,48,48,48,47,47,47,47,48,48,47,48,47,47,47,48,47,47,48,47,48,47,47,48,47,48,47,48,47,47,48,48,48,47,47,48,47,47,48,47,47,48,47,47,47,47,47,48,48,48,47,48,48,48,47,48,47,47,48,48,48,47,47,48,48,48,48,47,48,48,48,47,48,48,47,48,47,48,47,48,48,48,47,48,47,47,47,48,48,47,47,48,47,47,47,48,48,47,47,48,
0,0,0,0,0,0,0,0,0,0,0,0,0,0,0,0,0,0,0,0,0,0,0,0,0,0,0,0,0,0,0,0,0,0,0,0,0,0,0,0,0,0,0,0,0,0,0,0,0,0,0,47,48,48,48,48,48,48,47,48,48,48,48,48,48,47,48,48,47,47,48,48,48,47,47,47,48,48,48,48,47,47,48,48,47,47,47,47,47,47,48,47,47,48,47,47,48,48,47,47,47,48,47,48,47,47,47,47,47,47,47,47,48,47,47,48,48,47,48,47,48,48,47,48,47,47,48,47,48,48,48,47,48,48,48,47,48,48,47,47,47,48,47,47,48,47,47,48,48,47,47,48,47,47,48,48,47,48,48,48,48,48,48,48,47,48,47,47,47,48,48,47,48,47,47,48,48,48,48,47,48,47,47,48,48,48,47,48,48,48,48,48,48,47,48,48,47,48,47,48,47,47,47,48,48,47,48,48,48,48,48,48,48,48,48,47,48,48,47,47,47,47,47,48,47,47,48,47,47,47,48,48,48,47,47,47,48,47,48,48,47,47,48,47,47,47,48,47,47,47,47,47,47,48,47,47,47,48,48,48,48,48,48,47,47,48,47,48,48,47,47,47,48,48,47,48,47,47,48,47,48,48,47,47,47,48,48,48,47,48,48,48,48,47,48,48,48,47,47,47,47,47,47,48,48,48,47,47,48,47,47,47,47,48,47,48,47,48,48,47,48,47,48,47,48,48,48,48,48,48,47,48,48,47,48,48,47,47,48,48,47,48,48,47,47,47,48,47,48,47,47,47,47,48,47,48,47,48,47,48,48,48,48,48,47,47,48,48,48,47,47,48,
0,0,0,0,0,0,0,0,0,0,0,0,0,0,0,0,0,0,0,0,0,0,0,0,0,0,0,0,0,0,0,0,0,0,0,0,0,0,0,0,0,0,0,0,0,0,0,0,0,0,0,48,48,48,47,48,47,48,47,48,47,47,48,48,47,48,47,47,48,48,48,48,47,47,47,48,47,48,48,48,48,47,47,48,47,47,48,47,47,47,48,48,47,48,48,48,47,47,47,48,48,48,48,47,47,47,47,47,47,47,47,48,48,47,47,48,48,47,48,47,47,47,47,48,47,47,47,48,47,48,47,48,48,47,48,48,48,47,47,48,48,48,48,48,48,48,48,47,47,48,48,47,48,48,48,47,48,47,47,48,47,47,48,48,48,47,48,48,48,47,48,47,48,48,48,48,47,47,47,48,47,47,48,48,47,47,48,47,47,48,47,48,48,47,48,48,47,47,47,48,48,48,47,48,48,47,48,47,47,47,48,48,47,48,48,47,47,48,47,48,47,48,47,48,47,47,48,48,47,48,47,47,48,47,47,48,48,47,47,48,48,48,47,48,47,48,47,47,48,48,48,47,48,48,47,48,48,47,47,47,48,48,48,47,48,48,47,48,47,48,48,48,48,47,48,48,47,47,48,48,47,47,47,48,48,47,47,47,48,48,47,47,47,47,47,47,48,48,47,48,47,47,48,47,48,48,47,47,48,47,48,48,47,47,48,47,47,47,48,47,48,48,47,48,48,47,48,47,48,47,48,47,48,48,48,48,48,47,48,48,47,47,48,48,47,47,47,47,47,48,47,47,47,47,47,48,47,48,47,48,47,47,48,47,47,47,47,48,47,48,48,47,
0,0,0,0,0,0,0,0,0,0,0,0,0,0,0,0,0,0,0,0,0,0,0,0,0,0,0,0,0,0,0,0,0,0,0,0,0,0,0,0,0,0,0,0,0,0,0,0,0,0,0,0,47,48,48,47,48,47,48,47,48,47,47,47,48,47,47,47,48,48,47,48,48,48,47,48,48,48,47,47,48,48,47,47,48,47,47,48,47,47,47,47,47,47,48,48,48,47,47,47,48,47,48,48,47,47,47,48,47,48,47,47,48,48,47,47,47,47,48,48,47,47,47,47,47,48,47,48,47,48,47,47,48,47,48,48,48,47,48,48,47,48,47,47,48,47,47,47,47,47,47,48,47,48,48,48,48,47,47,48,48,47,47,48,48,47,48,48,47,47,47,47,48,47,48,47,47,48,47,48,48,47,48,47,48,48,47,48,48,47,47,48,48,48,48,47,48,47,48,48,48,48,48,48,48,48,47,47,47,48,48,47,48,47,48,48,47,47,48,48,48,48,48,48,47,48,48,48,47,48,48,48,47,48,48,47,48,47,47,47,47,47,47,47,47,48,47,48,47,47,48,48,47,48,47,48,48,47,48,47,48,47,48,47,48,48,47,48,48,48,48,47,48,47,47,48,47,47,48,48,48,48,48,48,48,48,48,47,48,47,47,48,47,48,47,47,47,47,47,48,47,47,48,48,48,47,47,47,48,48,48,48,47,47,48,48,48,48,48,47,47,47,48,48,48,48,47,48,48,47,47,47,47,47,48,47,48,47,47,48,48,48,48,48,48,47,47,47,48,47,48,48,47,48,47,48,48,48,48,48,48,48,48,47,47,47,48,48,47,48,48,47,
0,0,0,0,0,0,0,0,0,0,0,0,0,0,0,0,0,0,0,0,0,0,0,0,0,0,0,0,0,0,0,0,0,0,0,0,0,0,0,0,0,0,0,0,0,0,0,0,0,0,0,0,47,47,48,47,48,47,47,47,48,47,48,47,48,47,47,47,48,48,48,47,47,47,47,47,47,48,48,47,47,48,48,48,47,47,47,47,47,47,47,48,48,47,47,47,47,47,48,48,48,48,48,48,48,47,48,48,47,47,48,48,47,47,48,48,48,48,47,48,47,47,47,47,48,48,47,48,48,47,47,48,47,47,47,48,47,48,47,48,47,47,48,48,48,48,47,47,48,47,48,47,47,47,47,48,47,47,47,47,47,47,48,48,47,47,48,47,47,48,48,47,47,47,48,47,48,47,48,47,48,47,48,47,48,47,47,48,47,47,48,48,48,48,47,47,47,47,48,48,48,47,48,48,48,48,48,47,47,47,48,48,47,47,48,47,47,47,47,48,47,47,47,48,48,48,48,47,47,48,47,47,47,48,48,48,47,47,48,47,48,47,48,48,47,48,48,48,47,47,48,47,48,47,47,48,48,48,47,48,48,47,48,48,48,48,48,47,48,48,47,47,48,47,48,48,48,47,48,48,47,47,47,47,47,47,47,47,47,47,48,47,47,47,47,47,47,48,48,48,48,47,47,48,48,47,47,48,47,48,47,48,48,48,47,48,47,48,47,47,47,47,47,47,47,47,47,47,47,48,48,47,47,48,48,47,47,48,48,47,48,47,48,47,47,47,48,48,48,48,47,47,48,47,48,47,47,47,48,47,48,47,47,47,47,47,48,48,48,48,47,47,
0,0,0,0,0,0,0,0,0,0,0,0,0,0,0,0,0,0,0,0,0,0,0,0,0,0,0,0,0,0,0,0,0,0,0,0,0,0,0,0,0,0,0,0,0,0,0,0,0,0,0,0,0,47,48,48,47,48,48,47,48,48,48,48,47,47,48,48,48,48,47,47,47,47,47,47,48,47,48,48,48,47,48,47,48,48,48,48,47,48,47,48,47,48,47,47,47,48,48,48,48,48,47,48,48,47,48,48,47,48,48,48,47,48,47,48,48,48,48,48,47,47,47,48,48,47,47,47,47,47,48,47,47,47,47,47,47,47,48,47,47,47,48,48,47,47,48,48,47,48,47,47,47,48,48,47,47,47,48,47,47,48,47,48,47,48,48,47,47,48,47,47,47,48,47,47,48,47,48,47,47,48,48,48,47,47,47,47,48,48,47,47,48,47,47,47,48,47,47,48,47,48,47,47,48,47,47,48,48,48,48,48,47,48,47,47,48,47,48,47,48,47,48,48,48,48,47,47,47,47,47,48,48,47,47,47,47,48,47,48,48,47,47,47,47,47,48,47,47,48,47,48,48,47,47,48,48,47,48,48,47,47,48,47,48,47,48,47,47,47,48,47,48,48,47,47,48,47,48,48,47,47,48,48,48,48,47,48,47,48,47,47,48,47,48,47,47,47,47,48,48,48,48,48,48,47,48,48,48,48,47,48,47,47,47,48,48,48,47,48,47,48,47,47,48,48,47,47,47,47,47,48,48,48,48,47,47,48,48,47,48,47,48,48,47,47,47,48,48,47,48,48,47,48,47,47,47,48,48,47,47,47,47,48,47,48,47,47,48,47,48,48,
0,0,0,0,0,0,0,0,0,0,0,0,0,0,0,0,0,0,0,0,0,0,0,0,0,0,0,0,0,0,0,0,0,0,0,0,0,0,0,0,0,0,0,0,0,0,0,0,0,0,0,0,0,48,48,48,47,47,48,47,47,48,47,48,48,48,47,48,47,47,47,47,48,48,47,47,48,47,47,48,48,47,48,48,48,48,47,47,48,48,48,47,48,48,48,47,48,48,47,48,47,47,47,47,48,48,48,47,47,47,48,47,47,47,48,47,47,47,47,47,47,47,47,48,48,48,47,48,48,47,47,47,47,48,47,48,48,48,47,48,48,47,48,47,47,48,47,47,47,48,47,47,48,47,48,47,48,47,47,47,48,48,48,47,48,48,47,47,47,48,48,47,47,47,47,47,48,48,48,48,47,47,48,47,47,48,47,47,47,48,47,48,47,47,47,47,47,47,48,48,48,47,47,47,48,47,47,48,47,48,48,47,48,48,47,48,48,47,48,47,48,48,47,48,47,47,47,48,47,48,48,47,48,47,48,48,47,47,47,48,47,47,48,48,48,47,47,47,48,47,48,47,47,48,48,47,48,48,48,48,47,48,47,47,47,48,47,48,47,48,47,47,47,48,47,47,47,47,48,47,47,48,48,48,48,47,48,47,47,48,48,47,48,47,48,47,48,48,47,48,48,48,48,47,47,47,47,47,48,48,47,47,47,47,48,47,48,47,47,48,48,48,48,47,47,47,47,47,47,47,48,48,48,48,48,48,47,47,47,48,48,47,47,48,47,48,47,48,48,48,48,48,47,47,48,47,47,47,48,47,48,47,48,47,48,48,48,48,47,48,47,47,
0,0,0,0,0,0,0,0,0,0,0,0,0,0,0,0,0,0,0,0,0,0,0,0,0,0,0,0,0,0,0,0,0,0,0,0,0,0,0,0,0,0,0,0,0,0,0,0,0,0,0,0,0,0,47,48,47,48,48,48,48,48,47,48,48,47,47,48,47,47,47,48,47,48,47,48,48,48,48,48,47,48,47,47,48,47,48,48,47,48,48,48,47,47,48,48,48,47,47,48,48,48,47,48,47,48,47,47,47,48,48,47,47,47,47,47,47,47,48,47,48,47,47,48,47,47,47,47,47,47,47,48,48,48,47,48,47,47,47,47,47,48,48,47,47,47,48,47,48,48,47,48,47,47,47,47,48,47,47,48,47,48,48,48,47,47,48,47,48,47,48,47,48,47,48,47,47,48,48,48,48,47,47,48,48,48,47,47,48,47,47,47,48,48,48,47,48,47,48,48,48,47,48,48,48,48,47,47,47,48,47,48,47,47,47,48,48,48,47,48,48,47,48,48,48,47,47,47,48,47,48,48,48,48,47,47,48,48,48,48,47,47,47,47,47,48,47,48,48,48,48,47,48,47,48,47,47,47,48,48,48,47,48,48,47,47,47,47,48,47,47,48,47,47,47,48,48,47,48,48,47,48,47,48,47,48,47,48,47,48,48,48,48,48,48,48,48,48,48,47,47,47,48,47,47,47,48,48,48,48,48,48,48,47,47,47,48,48,47,47,48,47,47,47,47,48,47,48,47,48,47,47,47,47,47,47,47,48,48,47,48,47,47,47,48,48,48,48,48,47,47,48,48,47,48,48,47,47,47,47,48,48,47,47,47,48,48,48,47,47,48,47,
0,0,0,0,0,0,0,0,0,0,0,0,0,0,0,0,0,0,0,0,0,0,0,0,0,0,0,0,0,0,0,0,0,0,0,0,0,0,0,0,0,0,0,0,0,0,0,0,0,0,0,0,0,0,48,48,48,48,47,48,48,48,47,47,48,47,47,47,47,47,48,48,47,48,48,48,48,48,48,47,47,48,47,48,48,48,48,48,47,47,47,47,48,47,48,48,47,48,47,48,48,47,47,47,48,48,48,48,47,47,48,48,47,47,47,47,47,47,48,47,47,47,47,48,48,48,48,47,47,47,48,47,47,47,48,48,48,48,47,48,48,48,47,48,47,48,47,47,48,48,48,47,48,48,48,47,48,48,48,48,47,48,48,47,47,48,47,47,47,48,48,48,47,47,47,47,47,48,48,47,47,47,47,47,47,48,47,47,48,48,47,47,47,48,47,48,48,47,47,48,47,48,47,47,47,47,47,47,47,48,47,47,48,48,48,48,48,47,48,47,48,48,48,47,48,47,47,48,47,47,48,47,47,48,47,48,48,47,47,47,48,47,47,47,47,48,47,48,47,47,48,47,48,48,48,48,47,47,47,47,48,48,47,48,47,48,47,48,47,48,48,48,47,47,48,47,48,47,48,48,48,47,47,47,48,47,47,48,48,48,47,47,47,48,48,47,47,48,48,48,47,48,47,48,47,48,47,47,48,48,48,47,48,48,47,48,47,47,48,48,48,47,47,47,47,47,47,47,47,47,47,48,47,48,48,48,48,47,47,48,47,47,47,48,47,48,48,47,48,47,47,47,47,48,48,47,48,47,47,48,47,47,47,47,47,48,48,48,47,47,48,48,
0,0,0,0,0,0,0,0,0,0,0,0,0,0,0,0,0,0,0,0,0,0,0,0,0,0,0,0,0,0,0,0,0,0,0,0,0,0,0,0,0,0,0,0,0,0,0,0,0,0,0,0,0,0,0,48,48,47,47,48,47,47,47,47,48,47,47,47,47,48,47,48,48,47,47,47,47,47,48,47,48,48,48,48,48,47,48,48,48,47,47,47,47,48,48,48,47,48,47,48,47,48,48,48,47,48,47,48,47,47,48,48,48,47,47,47,47,48,47,47,47,48,48,47,47,48,47,47,47,48,47,48,47,48,47,47,48,48,48,47,47,48,47,48,48,47,48,48,47,47,48,47,47,48,47,47,48,48,47,47,47,48,48,47,48,48,47,47,48,48,47,47,48,47,47,47,48,47,48,48,47,48,47,47,48,47,47,48,48,47,47,48,48,47,47,48,47,47,47,48,47,48,48,48,48,48,47,48,47,47,48,47,48,48,47,47,48,47,48,47,48,47,48,47,47,48,47,48,48,47,47,48,48,48,48,48,47,48,47,47,48,48,48,48,48,48,48,47,48,48,47,48,47,47,48,48,48,47,48,47,47,48,48,48,48,47,48,47,48,48,48,47,47,47,47,48,48,48,47,48,47,48,47,47,47,47,48,47,47,47,48,48,48,48,47,48,47,47,48,47,47,47,47,47,47,48,47,48,48,48,47,48,48,48,47,48,47,48,48,47,47,48,48,48,47,48,47,48,48,48,48,48,48,48,47,48,47,48,47,47,48,48,48,47,47,47,48,48,47,47,47,47,47,47,48,47,48,47,48,48,48,47,48,47,48,47,47,47,48,48,47,47,
0,0,0,0,0,0,0,0,0,0,0,0,0,0,0,0,0,0,0,0,0,0,0,0,0,0,0,0,0,0,0,0,0,0,0,0,0,0,0,0,0,0,0,0,0,0,0,0,0,0,0,0,0,0,0,48,48,48,48,47,47,48,47,47,47,47,48,48,47,48,48,48,48,48,47,48,47,47,47,48,48,47,47,47,48,48,47,47,48,47,48,47,47,48,47,48,47,47,48,47,48,47,48,47,47,48,48,48,47,47,47,48,48,48,47,47,48,47,47,47,48,48,47,48,48,48,48,48,48,47,47,47,48,48,48,48,47,47,47,47,48,47,48,48,48,48,48,47,47,48,47,48,48,48,47,47,48,47,47,47,48,47,48,47,47,48,48,47,47,48,47,48,48,48,48,48,48,47,48,48,48,48,48,47,48,47,48,48,48,47,48,47,47,47,47,47,48,47,47,47,47,47,47,48,47,48,48,48,47,48,47,47,48,47,48,48,48,48,48,47,47,47,47,47,48,48,48,47,47,47,47,48,47,48,47,48,47,48,48,48,48,47,47,48,48,47,47,48,47,48,47,48,48,47,48,47,47,47,47,48,47,48,48,47,47,47,47,47,48,48,47,47,48,48,48,48,48,47,47,47,48,48,48,48,48,48,47,47,48,47,48,48,48,48,48,48,47,48,47,47,47,47,48,47,48,48,47,48,48,48,47,48,48,48,48,47,47,48,47,47,48,47,48,48,48,48,48,47,47,47,47,48,48,48,48,48,48,47,48,48,47,48,48,47,47,48,48,47,48,47,47,48,48,47,48,48,47,47,48,47,48,47,48,48,48,48,48,48,47,48,47,48,
0,0,0,0,0,0,0,0,0,0,0,0,0,0,0,0,0,0,0,0,0,0,0,0,0,0,0,0,0,0,0,0,0,0,0,0,0,0,0,0,0,0,0,0,0,0,0,0,0,0,0,0,0,0,0,0,48,48,48,48,48,47,47,47,48,48,48,48,47,48,47,47,47,48,47,47,47,48,47,47,47,47,48,48,47,47,47,47,47,47,47,48,47,48,47,48,48,47,47,48,48,47,47,48,48,48,48,47,47,47,48,47,48,47,47,47,47,47,47,48,48,47,48,48,48,47,47,47,48,47,48,47,47,47,47,47,47,48,48,48,47,47,48,48,48,48,47,48,48,47,48,48,48,47,47,47,48,48,47,47,48,48,47,48,48,47,48,48,47,48,48,48,47,48,48,48,48,47,48,47,47,48,48,47,47,47,47,48,48,48,48,47,48,47,48,48,47,47,47,48,47,48,48,48,48,48,47,48,48,48,48,47,48,47,47,48,47,47,47,47,47,48,48,48,47,48,47,47,47,47,48,48,47,48,48,47,47,47,48,48,48,47,48,48,48,47,47,47,48,47,47,48,47,47,47,48,48,47,47,47,47,48,47,48,47,47,47,47,48,48,48,47,47,48,47,47,47,47,47,47,47,47,48,47,47,48,48,48,48,48,47,48,47,48,48,47,48,47,48,48,47,48,47,47,48,47,48,47,48,47,48,48,47,48,47,48,47,48,47,47,48,47,47,48,47,47,47,48,48,48,48,48,47,47,48,47,48,48,47,47,47,48,48,47,47,47,47,47,48,48,47,48,48,47,47,47,48,47,47,47,48,48,48,48,48,48,47,48,47,47,47,48,
0,0,0,0,0,0,0,0,0,0,0,0,0,0,0,0,0,0,0,0,0,0,0,0,0,0,0,0,0,0,0,0,0,0,0,0,0,0,0,0,0,0,0,0,0,0,0,0,0,0,0,0,0,0,0,0,47,48,47,47,48,47,48,47,47,48,48,48,48,47,47,48,47,47,47,48,48,47,48,48,48,47,48,48,47,47,47,47,48,48,47,47,48,48,48,47,48,48,48,47,48,48,48,48,47,47,47,48,47,47,47,47,47,48,48,48,47,48,48,48,48,48,48,47,48,47,47,47,48,47,48,48,48,47,47,48,48,47,47,48,48,48,47,48,47,48,48,47,47,47,48,47,48,47,47,47,47,48,47,47,47,47,47,48,48,47,47,48,48,47,47,47,48,48,47,47,47,47,47,47,47,47,47,48,48,47,47,48,47,48,47,48,48,48,48,47,47,47,47,47,47,48,47,47,47,48,48,47,47,47,47,47,48,48,47,48,48,48,47,47,48,48,47,48,47,47,48,48,48,48,47,47,47,47,48,47,48,48,47,48,47,48,47,47,47,47,47,48,47,47,48,47,47,47,48,47,47,47,47,47,48,48,48,47,48,48,48,48,48,47,48,47,47,48,48,47,48,47,47,47,47,47,48,47,48,47,48,47,47,48,47,48,48,48,47,48,47,48,48,47,47,47,48,48,48,48,48,47,47,48,48,47,48,48,48,47,47,47,47,47,47,48,47,47,48,47,48,47,48,47,48,47,47,48,47,47,48,48,47,48,47,47,48,48,47,47,48,47,47,48,47,48,48,48,48,47,48,48,47,47,48,48,48,47,47,47,47,48,47,47,48,48,
0,0,0,0,0,0,0,0,0,0,0,0,0,0,0,0,0,0,0,0,0,0,0,0,0,0,0,0,0,0,0,0,0,0,0,0,0,0,0,0,0,0,0,0,0,0,0,0,0,0,0,0,0,0,0,0,0,47,48,48,48,48,48,48,47,47,48,47,47,47,47,47,48,48,48,48,47,48,48,47,47,47,47,48,48,47,47,48,47,48,47,47,48,48,47,47,47,47,47,48,47,47,47,48,47,48,47,48,47,47,47,48,48,48,47,48,48,48,47,48,48,48,47,47,48,48,47,48,48,47,48,48,47,48,47,47,48,48,47,47,47,48,47,47,48,48,47,47,48,47,48,48,47,48,47,48,48,48,47,48,47,48,48,47,48,48,48,47,47,47,48,47,48,47,47,47,48,48,47,48,47,47,48,48,47,47,47,47,48,47,48,47,48,48,47,48,47,48,48,48,48,47,48,48,47,48,48,48,48,47,47,48,47,47,47,48,48,48,47,47,47,47,48,47,48,48,47,48,48,47,47,48,47,48,48,48,47,48,47,48,48,48,48,47,48,47,48,47,47,47,47,48,48,47,48,48,48,47,47,47,48,48,47,47,48,48,47,48,47,47,48,47,48,47,47,48,48,47,47,47,47,48,48,48,48,47,47,48,48,48,48,47,47,48,47,47,48,47,48,48,48,47,47,48,47,48,48,48,48,47,47,48,48,47,47,47,47,48,47,48,47,48,47,48,47,47,48,47,48,48,47,48,48,48,48,47,48,47,47,48,48,48,47,48,47,48,47,48,47,47,48,48,47,47,47,47,47,48,47,47,47,48,47,48,48,48,47,48,47,48,48,47,
0,0,0,0,0,0,0,0,0,0,0,0,0,0,0,0,0,0,0,0,0,0,0,0,0,0,0,0,0,0,0,0,0,0,0,0,0,0,0,0,0,0,0,0,0,0,0,0,0,0,0,0,0,0,0,0,0,48,47,48,47,47,47,47,47,47,48,47,47,48,48,47,48,48,47,48,47,47,47,47,47,48,47,48,47,47,48,47,48,47,48,48,47,47,47,47,48,47,48,47,47,48,48,47,47,47,47,47,48,47,48,47,48,48,47,48,48,47,47,48,48,47,47,47,47,48,47,48,47,47,47,47,47,47,47,47,48,47,48,47,48,48,48,48,48,48,47,47,47,47,47,47,47,47,48,48,48,48,47,47,47,47,47,47,48,48,48,47,47,48,47,48,48,47,48,48,47,47,47,48,48,48,48,47,47,47,48,48,47,48,47,47,48,48,48,48,48,47,47,48,47,48,47,47,47,48,48,47,48,47,48,48,48,48,47,47,47,47,47,48,48,48,48,48,48,48,48,48,47,48,48,48,48,48,47,47,48,48,48,48,47,47,48,48,47,47,47,48,47,47,48,48,48,47,47,48,48,47,47,48,48,47,48,48,48,48,47,48,48,48,47,48,47,48,48,47,48,48,48,48,47,48,47,48,47,47,47,47,48,47,47,48,48,48,48,47,47,48,47,47,48,48,47,47,47,48,47,47,47,48,48,48,48,47,47,48,47,48,48,48,48,47,48,48,48,48,48,48,47,48,48,48,47,48,48,47,48,48,48,48,47,48,47,47,48,47,47,47,47,48,47,48,47,48,48,48,47,48,47,47,48,47,48,48,48,48,48,48,48,48,48,48,
0,0,0,0,0,0,0,0,0,0,0,0,0,0,0,0,0,0,0,0,0,0,0,0,0,0,0,0,0,0,0,0,0,0,0,0,0,0,0,0,0,0,0,0,0,0,0,0,0,0,0,0,0,0,0,0,0,0,48,48,47,48,47,47,48,48,48,48,48,48,48,47,48,47,48,47,48,48,47,47,48,47,47,48,48,48,47,47,48,48,47,47,48,48,47,48,48,48,48,48,48,47,48,47,48,47,48,48,47,48,48,48,47,47,48,47,47,47,48,48,48,47,48,48,47,48,47,48,47,47,47,47,48,48,48,47,48,48,47,47,47,48,47,47,48,48,48,48,48,48,48,48,47,48,48,47,47,47,48,48,47,48,47,47,48,48,48,48,48,48,48,47,48,48,48,48,48,47,47,47,48,48,47,48,48,47,48,48,48,47,47,48,47,48,48,48,47,47,48,48,47,48,47,48,48,47,48,47,48,48,48,48,48,48,47,47,48,48,48,48,48,48,48,47,48,48,48,47,47,47,47,47,48,48,48,48,47,48,47,47,48,47,48,48,48,48,47,48,47,48,47,48,48,47,47,48,47,48,48,47,48,48,48,48,48,48,48,47,48,48,48,47,47,47,47,47,47,48,47,48,47,48,47,48,48,47,47,48,47,47,47,47,47,47,47,48,47,48,48,48,48,48,48,47,47,48,47,48,48,48,47,48,48,47,48,47,48,47,47,47,48,47,48,48,48,47,47,48,47,48,48,48,48,48,48,47,48,47,48,48,48,48,47,47,47,47,48,48,48,47,47,48,47,47,47,48,48,47,48,48,47,48,47,48,47,48,48,48,47,48,47,48,
0,0,0,0,0,0,0,0,0,0,0,0,0,0,0,0,0,0,0,0,0,0,0,0,0,0,0,0,0,0,0,0,0,0,0,0,0,0,0,0,0,0,0,0,0,0,0,0,0,0,0,0,0,0,0,0,0,0,48,48,47,48,47,47,47,48,48,48,48,48,47,48,48,48,48,47,48,48,48,47,48,47,47,48,47,48,47,47,47,48,48,47,48,47,47,48,48,48,47,47,48,47,47,48,47,48,48,48,48,48,48,47,48,48,47,47,47,47,47,48,48,47,47,47,47,48,47,47,47,48,47,48,47,48,47,47,48,47,48,48,47,47,48,47,48,48,47,48,48,47,47,47,48,47,47,47,48,47,47,47,48,47,48,47,48,48,47,48,48,48,48,47,47,47,47,48,48,48,48,48,47,47,47,48,47,47,47,48,48,47,48,48,48,47,47,48,48,47,48,48,47,47,48,48,48,47,48,47,47,47,48,47,48,48,47,47,48,47,48,47,47,47,47,48,48,48,47,48,48,48,47,47,47,48,48,47,48,47,47,47,48,47,47,48,48,47,48,48,47,47,47,48,47,48,47,47,48,47,47,48,48,48,48,48,48,48,47,47,47,47,48,48,47,48,48,48,48,48,48,47,47,48,47,47,48,47,48,47,47,47,47,48,47,48,47,47,47,48,48,47,47,48,47,48,47,48,47,47,47,48,48,48,47,48,47,48,48,47,48,47,47,47,47,48,48,47,47,47,48,48,48,48,48,47,47,47,47,48,48,48,47,48,48,48,48,48,48,48,48,48,47,48,48,48,47,48,48,48,48,48,47,48,47,47,47,47,47,48,47,48,48,47,
0,0,0,0,0,0,0,0,0,0,0,0,0,0,0,0,0,0,0,0,0,0,0,0,0,0,0,0,0,0,0,0,0,0,0,0,0,0,0,0,0,0,0,0,0,0,0,0,0,0,0,0,0,0,0,0,0,0,0,47,47,48,48,48,48,47,47,47,48,48,48,47,47,47,48,47,48,48,48,47,48,48,48,47,48,47,47,48,48,48,47,48,48,47,48,47,48,47,48,48,47,48,47,48,47,47,48,47,47,48,48,48,47,48,48,48,47,47,47,47,47,47,47,47,47,47,48,47,48,47,48,48,47,48,48,48,48,48,48,48,47,47,48,48,47,47,48,48,48,48,48,48,48,48,47,47,47,48,47,47,48,48,48,47,47,48,48,48,48,48,47,48,47,48,47,47,47,47,48,48,48,47,48,48,48,48,47,47,47,47,47,47,48,47,48,48,47,47,48,47,47,48,47,48,47,47,47,48,48,47,48,48,48,48,48,47,48,47,48,47,48,48,47,47,47,48,48,48,47,47,47,48,47,47,48,48,47,47,47,48,47,48,47,47,48,47,48,47,48,47,48,48,48,48,48,47,47,48,47,47,48,47,48,48,48,47,48,47,48,47,47,47,47,48,47,48,47,48,48,47,47,48,48,48,47,47,48,48,48,47,47,48,47,48,47,48,47,47,47,47,48,48,47,47,48,48,48,47,48,47,47,47,47,48,48,47,47,47,47,48,47,47,48,48,47,47,48,48,47,48,48,48,47,48,47,48,48,47,48,48,48,47,48,48,47,48,47,47,48,48,48,48,47,47,47,47,47,48,48,47,48,48,48,48,48,48,48,48,48,47,47,48,
0,0,0,0,0,0,0,0,0,0,0,0,0,0,0,0,0,0,0,0,0,0,0,0,0,0,0,0,0,0,0,0,0,0,0,0,0,0,0,0,0,0,0,0,0,0,0,0,0,0,0,0,0,0,0,0,0,0,0,0,47,48,48,47,47,48,48,48,48,47,48,47,48,47,47,48,48,47,48,47,48,48,48,48,47,48,47,47,47,47,48,48,48,48,48,48,48,47,47,48,47,47,47,47,47,47,47,48,48,47,47,48,48,48,47,47,48,47,47,48,47,48,48,47,47,48,47,47,47,48,48,47,47,47,47,47,48,47,47,47,48,48,48,48,47,47,48,47,47,47,47,48,48,48,47,48,47,47,48,47,48,47,47,47,47,48,47,47,47,47,48,47,47,48,48,48,47,48,48,47,48,47,48,48,48,47,48,48,48,48,47,47,47,48,48,47,47,48,47,48,47,47,48,48,47,48,48,47,48,47,47,47,48,47,48,48,48,48,48,47,48,48,48,48,48,48,48,48,47,47,48,48,47,48,47,47,48,48,47,48,48,48,47,48,47,48,47,48,47,48,47,47,48,47,47,48,48,47,47,47,48,48,47,48,47,48,47,47,48,48,47,48,47,48,47,47,48,48,48,47,47,48,47,48,47,48,47,48,47,47,47,48,48,47,48,48,48,47,47,47,47,48,48,47,48,47,48,47,48,48,47,47,48,48,47,48,48,48,47,48,48,47,47,47,47,47,47,48,48,48,48,48,48,47,48,47,48,47,47,48,48,48,48,47,48,48,47,47,48,48,47,48,48,48,48,48,48,47,48,48,47,47,47,48,48,48,47,48,48,48,47,48,
0,0,0,0,0,0,0,0,0,0,0,0,0,0,0,0,0,0,0,0,0,0,0,0,0,0,0,0,0,0,0,0,0,0,0,0,0,0,0,0,0,0,0,0,0,0,0,0,0,0,0,0,0,0,0,0,0,0,0,0,0,48,48,47,48,47,47,47,48,47,47,47,48,48,48,48,47,48,48,47,48,48,47,48,48,47,47,48,47,47,47,48,47,48,47,48,48,48,48,48,48,47,48,47,48,47,48,47,47,48,48,48,47,48,47,48,48,47,48,48,47,47,48,47,47,47,47,48,48,48,47,47,48,47,48,47,48,47,48,47,47,48,47,47,48,47,47,47,47,47,48,47,47,47,48,48,47,47,47,48,48,47,47,47,47,48,48,47,47,48,47,48,48,48,48,47,48,47,47,48,47,48,48,47,47,47,48,47,48,47,48,47,47,48,47,48,47,47,48,48,47,47,47,48,47,48,48,47,48,47,48,48,47,48,47,48,48,47,47,47,48,48,48,48,48,47,47,47,48,47,47,48,48,47,47,47,47,47,48,48,48,47,47,47,48,47,47,48,48,47,47,47,48,48,48,47,47,48,48,48,48,47,48,47,47,48,48,47,47,48,47,48,48,47,48,47,47,48,48,48,48,48,48,48,47,47,47,47,48,47,48,47,48,48,48,47,48,48,47,47,47,48,48,47,48,48,47,47,48,47,48,47,48,47,47,47,47,48,48,48,47,47,48,47,48,47,48,47,47,47,47,48,47,47,47,48,47,48,47,47,48,47,48,48,47,47,48,47,47,48,48,47,48,48,48,47,48,47,47,47,48,47,48,47,47,48,48,48,47,48,48,48,
0,0,0,0,0,0,0,0,0,0,0,0,0,0,0,0,0,0,0,0,0,0,0,0,0,0,0,0,0,0,0,0,0,0,0,0,0,0,0,0,0,0,0,0,0,0,0,0,0,0,0,0,0,0,0,0,0,0,0,0,0,0,47,47,48,48,48,47,48,48,48,47,48,48,48,48,48,48,48,48,48,48,47,48,48,48,47,47,48,47,48,47,47,48,47,48,48,48,48,48,47,47,47,48,48,48,48,48,47,48,48,47,48,48,48,47,47,47,47,47,48,47,48,47,47,48,48,47,48,48,47,48,48,48,48,47,48,48,47,48,48,47,47,47,48,48,48,48,48,47,48,48,47,47,47,47,48,48,48,47,47,48,48,48,48,48,48,48,48,48,47,47,48,48,47,48,48,48,48,47,47,48,48,47,47,48,48,48,48,48,47,48,47,48,48,47,47,47,47,47,48,47,48,47,48,48,47,48,47,48,47,48,48,47,47,47,48,47,47,48,47,47,47,47,48,48,48,48,48,48,48,48,47,47,48,47,48,48,48,48,48,47,48,48,47,48,48,47,48,48,47,48,48,47,48,47,47,48,47,47,47,48,48,48,47,48,47,48,48,47,48,48,47,48,47,48,48,48,47,48,47,48,47,47,47,48,48,48,48,48,48,47,47,48,48,47,48,48,47,48,48,48,48,47,47,48,48,48,48,47,47,48,47,48,48,47,48,47,48,48,47,47,48,48,47,48,48,48,48,48,47,47,48,47,47,48,47,47,47,48,47,47,47,47,47,48,48,47,48,48,47,48,47,47,48,47,47,48,48,47,47,47,48,48,48,47,48,48,47,47,48,47,
0,0,0,0,0,0,0,0,0,0,0,0,0,0,0,0,0,0,0,0,0,0,0,0,0,0,0,0,0,0,0,0,0,0,0,0,0,0,0,0,0,0,0,0,0,0,0,0,0,0,0,0,0,0,0,0,0,0,0,0,0,0,0,47,47,47,47,48,47,48,48,47,47,48,47,47,47,48,48,47,48,47,48,47,48,48,47,47,47,47,48,48,48,48,48,47,47,48,47,47,47,48,48,47,47,48,48,48,48,48,47,47,47,47,47,47,48,47,48,48,48,48,48,47,48,48,47,47,48,47,47,47,47,47,48,48,47,47,48,47,48,48,48,47,47,48,47,48,47,47,48,47,48,48,47,48,48,47,47,47,48,47,48,47,47,47,47,48,47,47,48,47,47,48,47,47,48,48,47,48,47,47,48,48,47,47,48,48,47,48,48,47,47,48,47,48,47,47,47,47,48,48,48,47,47,48,48,47,47,48,48,47,48,47,47,48,47,47,48,48,48,48,47,47,48,47,48,47,48,47,47,47,47,48,47,47,48,47,48,47,48,48,47,48,47,47,48,47,47,48,48,48,48,47,48,48,48,47,47,47,48,48,48,47,48,48,47,48,48,47,47,48,48,47,47,48,47,48,47,48,47,48,48,48,47,48,48,47,48,48,48,48,47,47,48,48,48,47,47,48,47,48,48,48,47,48,48,48,48,48,47,47,48,47,48,47,47,47,47,48,48,48,47,47,47,47,48,48,48,48,47,48,47,47,47,48,48,47,48,48,47,47,48,48,48,47,48,47,48,47,47,47,48,48,48,47,47,47,48,48,48,48,48,48,48,47,47,48,48,48,47,48,
0,0,0,0,0,0,0,0,0,0,0,0,0,0,0,0,0,0,0,0,0,0,0,0,0,0,0,0,0,0,0,0,0,0,0,0,0,0,0,0,0,0,0,0,0,0,0,0,0,0,0,0,0,0,0,0,0,0,0,0,0,0,0,0,48,47,48,47,47,48,48,48,47,47,47,47,48,48,47,48,48,47,48,48,47,48,47,47,47,48,48,47,48,47,47,48,48,47,47,47,48,48,48,48,48,47,47,48,47,48,47,48,48,48,48,47,47,48,47,47,48,47,48,47,47,48,48,47,48,48,48,48,48,48,47,47,47,47,48,48,47,48,48,47,48,47,47,47,47,47,47,48,47,48,48,47,47,47,48,48,48,48,47,48,47,48,47,47,47,48,48,47,47,47,47,47,48,48,48,48,48,47,48,47,48,48,47,48,47,47,48,47,48,47,48,47,47,47,48,48,48,47,47,48,48,47,47,47,47,48,48,47,47,47,48,48,47,48,48,47,48,48,48,47,47,47,47,48,48,48,47,47,48,47,47,48,47,48,48,47,47,48,47,48,48,48,47,47,47,47,48,48,48,47,47,48,47,47,48,48,48,48,47,48,47,48,48,47,47,48,48,47,48,47,47,48,47,48,48,48,47,47,47,47,48,47,47,47,47,47,48,47,47,47,47,47,47,48,47,47,47,48,48,47,48,48,48,47,47,47,47,48,47,48,47,48,48,48,47,47,47,47,47,48,47,47,47,48,47,47,48,47,48,47,48,48,48,47,48,47,48,48,48,48,48,47,47,48,47,47,48,47,47,47,48,47,48,48,47,47,47,47,48,48,48,47,48,47,48,47,47,48,
0,0,0,0,0,0,0,0,0,0,0,0,0,0,0,0,0,0,0,0,0,0,0,0,0,0,0,0,0,0,0,0,0,0,0,0,0,0,0,0,0,0,0,0,0,0,0,0,0,0,0,0,0,0,0,0,0,0,0,0,0,0,0,0,0,47,47,47,48,47,47,47,48,48,48,48,47,47,47,48,47,47,47,48,47,47,48,47,47,48,48,47,47,48,48,47,48,47,47,48,47,47,47,47,47,48,47,47,48,48,47,47,47,47,47,48,47,48,47,47,48,47,48,48,47,48,47,47,48,47,47,47,47,47,48,47,47,48,48,47,47,47,48,47,47,48,48,48,48,47,48,48,47,47,47,47,48,48,48,47,48,48,47,48,48,48,48,47,48,48,47,47,47,47,47,47,47,48,48,47,47,48,47,47,47,47,47,48,47,48,47,47,48,48,47,47,48,47,47,47,47,47,48,48,48,47,47,48,48,48,47,47,48,48,47,48,48,47,48,47,47,48,47,47,47,47,48,48,48,48,48,47,48,47,48,48,47,47,48,47,47,48,48,48,48,48,47,47,48,47,47,47,47,48,48,47,47,48,47,48,47,47,48,47,47,48,47,48,48,47,47,48,48,48,47,47,47,47,47,47,47,47,48,47,47,47,47,47,48,47,48,47,47,47,48,47,48,48,47,47,48,48,47,47,48,47,48,48,48,47,47,47,47,47,47,48,48,48,48,48,47,48,47,48,48,47,48,47,48,47,48,47,47,47,47,47,48,47,47,47,47,48,48,48,48,47,48,47,47,48,47,47,48,47,47,48,48,48,47,47,48,48,47,48,48,47,47,48,48,48,47,47,
0,0,0,0,0,0,0,0,0,0,0,0,0,0,0,0,0,0,0,0,0,0,0,0,0,0,0,0,0,0,0,0,0,0,0,0,0,0,0,0,0,0,0,0,0,0,0,0,0,0,0,0,0,0,0,0,0,0,0,0,0,0,0,0,0,0,48,47,48,47,48,47,48,47,48,48,47,48,47,48,47,47,48,47,48,47,48,47,48,48,48,48,47,47,47,47,47,47,48,47,48,48,47,47,47,48,48,48,47,47,47,48,48,48,47,48,48,47,47,47,48,47,48,48,47,47,47,47,48,48,48,47,47,47,47,47,47,48,48,47,47,48,48,47,48,48,48,47,47,47,47,48,47,47,48,47,48,48,48,47,47,47,48,48,48,47,48,47,47,47,48,48,48,47,47,48,47,47,48,47,47,48,47,47,48,48,47,47,47,48,47,48,48,47,47,48,48,47,47,47,48,48,48,48,48,48,47,48,47,47,48,48,47,48,48,47,48,47,48,47,47,47,47,48,47,47,47,47,47,47,48,48,48,47,48,48,47,47,47,47,48,48,47,48,48,48,48,47,48,48,47,48,48,47,48,47,48,47,48,48,48,47,47,48,48,48,47,48,47,48,48,47,48,48,48,47,48,48,47,47,48,47,48,47,48,48,48,47,47,47,47,48,47,47,47,47,47,47,47,47,47,47,48,47,48,48,48,48,47,48,47,48,47,48,48,48,47,47,47,47,48,47,48,47,48,48,48,48,48,47,47,47,47,47,47,48,48,48,47,48,47,48,47,48,47,48,47,48,48,48,48,47,47,48,48,47,48,48,47,47,47,47,48,48,47,48,48,48,47,48,47,48,
0,0,0,0,0,0,0,0,0,0,0,0,0,0,0,0,0,0,0,0,0,0,0,0,0,0,0,0,0,0,0,0,0,0,0,0,0,0,0,0,0,0,0,0,0,0,0,0,0,0,0,0,0,0,0,0,0,0,0,0,0,0,0,0,0,0,0,0,47,47,48,47,48,47,48,48,47,48,47,47,47,47,47,48,47,48,47,48,48,48,47,47,47,48,47,48,47,47,48,48,47,48,47,47,47,48,47,48,48,48,48,48,47,47,47,47,47,47,48,48,48,48,47,47,47,47,48,47,48,48,48,47,47,47,48,48,47,48,48,47,48,48,48,47,48,48,48,48,48,47,47,47,48,48,47,47,47,47,47,47,48,48,48,48,48,48,47,48,47,47,48,47,47,48,47,47,47,48,48,48,48,48,48,48,48,47,47,47,48,48,48,47,47,48,47,48,47,47,48,47,48,48,47,47,48,48,48,47,47,47,47,48,47,48,47,47,48,48,48,47,48,48,48,47,48,47,48,47,48,48,48,47,47,48,48,48,47,47,47,48,47,48,47,48,47,47,48,48,47,48,48,48,47,48,47,47,48,47,47,48,47,48,47,48,47,48,48,47,48,48,48,48,47,48,47,47,47,47,48,48,48,48,47,48,47,48,47,47,47,47,48,47,47,47,47,47,47,48,48,48,47,47,48,48,47,47,48,48,48,47,47,48,48,48,48,48,47,47,47,48,47,48,47,47,48,47,47,47,47,47,48,48,48,47,47,48,47,47,47,48,47,48,48,47,48,47,48,47,47,48,47,48,47,47,48,47,47,47,48,47,47,47,48,48,47,48,47,47,48,47,47,48,
0,0,0,0,0,0,0,0,0,0,0,0,0,0,0,0,0,0,0,0,0,0,0,0,0,0,0,0,0,0,0,0,0,0,0,0,0,0,0,0,0,0,0,0,0,0,0,0,0,0,0,0,0,0,0,0,0,0,0,0,0,0,0,0,0,0,0,0,0,0,48,47,47,48,48,48,48,48,48,48,48,48,48,47,47,47,47,47,47,47,47,48,48,47,48,48,48,48,47,48,48,47,47,48,47,48,48,47,48,47,47,48,48,48,47,47,47,47,48,48,48,47,47,48,48,48,48,47,47,47,48,48,47,48,47,48,48,48,48,48,48,47,47,47,48,48,48,48,48,48,47,47,48,48,47,48,47,47,47,48,48,48,48,47,48,47,48,47,48,47,48,48,48,47,48,47,48,48,48,47,47,48,48,47,47,48,47,47,48,48,47,47,48,47,47,48,48,48,48,47,48,48,48,48,47,47,48,48,48,47,47,47,47,48,48,47,48,47,48,48,47,48,48,48,48,47,47,48,47,48,47,47,47,48,48,47,48,47,48,47,47,47,48,47,47,47,47,47,48,48,47,47,47,47,47,48,47,47,48,47,47,48,47,47,47,48,48,48,48,47,47,47,48,47,47,48,47,47,48,47,48,48,48,48,48,47,47,48,48,47,47,47,47,48,47,48,48,47,48,47,48,47,48,48,48,48,48,47,48,48,48,48,48,47,48,47,47,47,47,47,47,47,48,47,47,48,47,47,47,47,47,47,48,48,48,48,48,47,48,48,48,47,47,47,48,47,48,48,47,48,48,47,47,48,48,47,48,48,47,48,48,47,48,48,48,48,47,48,47,47,48,47,
0,0,0,0,0,0,0,0,0,0,0,0,0,0,0,0,0,0,0,0,0,0,0,0,0,0,0,0,0,0,0,0,0,0,0,0,0,0,0,0,0,0,0,0,0,0,0,0,0,0,0,0,0,0,0,0,0,0,0,0,0,0,0,0,0,0,0,0,0,0,0,0,47,48,47,48,47,47,48,47,47,47,48,47,47,48,47,48,48,48,48,47,48,48,47,47,48,48,47,47,47,48,47,48,48,48,47,48,47,47,48,48,47,47,48,48,48,47,47,48,48,48,47,47,48,48,48,48,48,47,48,48,48,48,47,48,48,48,48,47,47,47,47,47,47,47,47,48,48,47,48,47,47,48,47,48,47,47,47,47,48,48,47,48,47,47,47,47,47,48,48,48,48,48,47,47,48,47,47,48,48,48,47,47,48,47,47,47,48,48,48,47,48,48,47,48,47,47,47,48,48,48,48,48,48,48,47,47,48,47,47,47,48,47,47,47,48,47,47,48,48,47,47,48,47,48,47,47,48,47,47,47,47,47,48,47,48,47,48,47,48,48,47,47,47,47,47,48,47,48,47,47,48,48,48,47,48,47,48,47,47,47,48,48,47,47,48,47,48,47,48,47,48,48,48,47,47,47,47,47,47,48,48,48,47,47,48,48,47,48,48,48,47,48,48,47,48,48,47,48,47,48,47,48,47,47,48,48,48,47,48,47,48,47,47,47,47,47,48,48,47,47,48,48,48,47,48,48,48,47,47,48,48,48,47,48,47,48,48,47,48,47,48,47,48,48,47,48,47,47,48,47,47,48,48,47,47,48,48,48,47,47,48,48,47,47,47,48,47,48,47,47,
0,0,0,0,0,0,0,0,0,0,0,0,0,0,0,0,0,0,0,0,0,0,0,0,0,0,0,0,0,0,0,0,0,0,0,0,0,0,0,0,0,0,0,0,0,0,0,0,0,0,0,0,0,0,0,0,0,0,0,0,0,0,0,0,0,0,0,0,0,0,0,0,0,0,48,48,47,48,48,47,47,47,47,47,48,48,47,47,48,47,47,48,47,47,47,47,48,48,48,48,48,48,48,47,48,47,47,47,47,47,47,47,48,47,48,47,48,47,48,48,47,47,47,47,48,47,48,48,47,48,48,48,48,48,47,47,47,48,48,47,47,48,47,47,47,48,48,48,48,48,48,48,48,47,48,48,48,48,47,48,47,47,48,47,48,48,47,47,48,48,48,47,48,47,47,47,47,48,47,48,47,47,48,47,47,48,48,48,47,48,48,48,47,47,47,48,47,48,47,48,47,48,47,47,47,48,47,47,48,47,48,47,48,48,48,48,48,48,48,47,47,48,48,48,48,48,48,48,48,47,47,48,47,47,47,48,47,48,47,48,47,47,48,47,47,48,47,48,48,47,48,48,47,48,47,48,47,48,47,48,47,48,48,48,47,48,48,47,48,48,47,48,48,47,47,48,47,48,48,47,47,47,48,48,47,47,47,48,48,48,48,48,48,47,48,47,48,47,48,48,47,48,47,47,47,48,47,48,47,48,48,48,48,48,47,48,48,47,47,48,48,48,47,48,48,48,47,48,48,48,48,48,48,48,47,47,47,47,48,48,47,47,47,47,47,48,47,48,48,48,47,48,47,47,47,48,47,47,48,48,48,48,48,47,48,47,48,47,48,48,48,48,
0,0,0,0,0,0,0,0,0,0,0,0,0,0,0,0,0,0,0,0,0,0,0,0,0,0,0,0,0,0,0,0,0,0,0,0,0,0,0,0,0,0,0,0,0,0,0,0,0,0,0,0,0,0,0,0,0,0,0,0,0,0,0,0,0,0,0,0,0,0,0,0,0,0,0,0,0,0,0,0,0,0,0,0,0,0,0,0,0,0,0,0,0,0,0,0,0,0,0,0,0,0,0,0,0,0,0,0,0,0,0,0,0,0,0,0,0,0,0,0,0,0,0,0,0,0,0,0,0,0,0,0,0,0,0,0,0,0,0,0,0,0,0,0,0,0,0,0,0,0,0,0,0,0,0,0,0,0,0,0,0,0,48,47,47,48,48,48,48,47,0,0,0,0,0,0,0,0,0,0,0,0,0,0,0,0,0,0,0,0,0,0,0,0,0,0,0,0,0,0,0,0,0,0,0,0,0,0,0,0,0,0,0,0,0,0,0,0,0,0,0,0,0,0,0,0,0,0,0,0,0,0,0,0,0,0,0,0,0,0,0,0,0,0,0,0,0,0,0,0,0,0,0,0,0,0,0,0,0,0,0,0,0,0,0,0,0,0,0,0,0,0,0,0,0,0,0,0,0,0,0,0,0,0,0,0,48,48,47,48,47,47,48,0,0,0,0,0,0,0,0,0,0,0,0,0,0,0,0,0,0,0,0,0,0,0,0,0,0,0,0,0,0,0,0,0,0,0,0,0,0,0,0,0,0,0,0,0,0,0,0,0,0,0,0,0,0,0,0,0,0,0,0,0,0,0,0,0,0,0,0,0,0,0,0,0,0,0,0,0,0,0,
0,0,0,0,0,0,0,0,0,0,0,0,0,0,0,0,0,0,0,0,0,0,0,0,0,0,0,0,0,0,0,0,0,0,0,0,0,0,0,0,0,0,0,0,0,0,0,0,0,0,0,0,0,0,0,0,0,0,0,0,0,0,0,0,0,0,0,0,0,0,0,0,0,0,0,0,0,0,0,0,0,0,0,0,0,0,0,0,0,0,0,0,0,0,0,0,0,0,0,0,0,0,0,0,0,0,0,0,0,0,0,0,0,0,0,0,0,0,0,0,0,0,0,0,0,0,0,0,0,0,0,0,0,0,0,0,0,0,0,0,0,0,0,0,0,0,0,0,0,0,0,0,0,0,0,0,0,0,0,0,0,0,47,48,47,47,47,48,48,48,0,0,0,0,0,0,0,0,0,0,0,0,0,0,0,0,0,0,0,0,0,0,0,0,0,0,0,0,0,0,0,0,0,0,0,0,0,0,0,0,0,0,0,0,0,0,0,0,0,0,0,0,0,0,0,0,0,0,0,0,0,0,0,0,0,0,0,0,0,0,0,0,0,0,0,0,0,0,0,0,0,0,0,0,0,0,0,0,0,0,0,0,0,0,0,0,0,0,0,0,0,0,0,0,0,0,0,0,0,0,0,0,0,0,0,0,48,48,47,47,47,47,47,0,0,0,0,0,0,0,0,0,0,0,0,0,0,0,0,0,0,0,0,0,0,0,0,0,0,0,0,0,0,0,0,0,0,0,0,0,0,0,0,0,0,0,0,0,0,0,0,0,0,0,0,0,0,0,0,0,0,0,0,0,0,0,0,0,0,0,0,0,0,0,0,0,0,0,0,0,0,0,
0,0,0,0,0,0,0,0,0,0,0,0,0,0,0,0,0,0,0,0,0,0,0,0,0,0,0,0,0,0,0,0,0,0,0,0,0,0,0,0,0,0,0,0,0,0,0,0,0,0,0,0,0,0,0,0,0,0,0,0,0,0,0,0,0,0,0,0,0,0,0,0,0,0,0,0,0,0,0,0,0,0,0,0,0,0,0,0,0,0,0,0,0,0,0,0,0,0,0,0,0,0,0,0,0,0,0,0,0,0,0,0,0,0,0,0,0,0,0,0,0,0,0,0,0,0,0,0,0,0,0,0,0,0,0,0,0,0,0,0,0,0,0,0,0,0,0,0,0,0,0,0,0,0,0,0,0,0,0,0,0,0,47,48,47,47,47,48,48,48,0,0,0,0,0,0,0,0,0,0,0,0,0,0,0,0,0,0,0,0,0,0,0,0,0,0,0,0,0,0,0,0,0,0,0,0,0,0,0,0,0,0,0,0,0,0,0,0,0,0,0,0,0,0,0,0,0,0,0,0,0,0,0,0,0,0,0,0,0,0,0,0,0,0,0,0,0,0,0,0,0,0,0,0,0,0,0,0,0,0,0,0,0,0,0,0,0,0,0,0,0,0,0,0,0,0,0,0,0,0,0,0,0,0,0,0,47,48,48,48,47,47,48,0,0,0,0,0,0,0,0,0,0,0,0,0,0,0,0,0,0,0,0,0,0,0,0,0,0,0,0,0,0,0,0,0,0,0,0,0,0,0,0,0,0,0,0,0,0,0,0,0,0,0,0,0,0,0,0,0,0,0,0,0,0,0,0,0,0,0,0,0,0,0,0,0,0,0,0,0,0,0,
0,0,0,0,0,0,0,0,0,0,0,0,0,0,0,0,0,0,0,0,0,0,0,0,0,0,0,0,0,0,0,0,0,0,0,0,0,0,0,0,0,0,0,0,0,0,0,0,0,0,0,0,0,0,0,0,0,0,0,0,0,0,0,0,0,0,0,0,0,0,0,0,0,0,0,0,0,0,0,0,0,0,0,0,0,0,0,0,0,0,0,0,0,0,0,0,0,0,0,0,0,0,0,0,0,0,0,0,0,0,0,0,0,0,0,0,0,0,0,0,0,0,0,0,0,0,0,0,0,0,0,0,0,0,0,0,0,0,0,0,0,0,0,0,0,0,0,0,0,0,0,0,0,0,0,0,0,0,0,0,0,0,47,47,47,48,47,47,47,48,0,0,0,0,0,0,0,0,0,0,0,0,0,0,0,0,0,0,0,0,0,0,0,0,0,0,0,0,0,0,0,0,0,0,0,0,0,0,0,0,0,0,0,0,0,0,0,0,0,0,0,0,0,0,0,0,0,0,0,0,0,0,0,0,0,0,0,0,0,0,0,0,0,0,0,0,0,0,0,0,0,0,0,0,0,0,0,0,0,0,0,0,0,0,0,0,0,0,0,0,0,0,0,0,0,0,0,0,0,0,0,0,0,0,0,0,47,47,47,48,47,47,47,0,0,0,0,0,0,0,0,0,0,0,0,0,0,0,0,0,0,0,0,0,0,0,0,0,0,0,0,0,0,0,0,0,0,0,0,0,0,0,0,0,0,0,0,0,0,0,0,0,0,0,0,0,0,0,0,0,0,0,0,0,0,0,0,0,0,0,0,0,0,0,0,0,0,0,0,0,0,0,
0,0,0,0,0,0,0,0,0,0,0,0,0,0,0,0,0,0,0,0,0,0,0,0,0,0,0,0,0,0,0,0,0,0,0,0,0,0,0,0,0,0,0,0,0,0,0,0,0,0,0,0,0,0,0,0,0,0,0,0,0,0,0,0,0,0,0,0,0,0,0,0,0,0,0,0,0,0,0,0,0,0,0,0,0,0,0,0,0,0,0,0,0,0,0,0,0,0,0,0,0,0,0,0,0,0,0,0,0,0,0,0,0,0,0,0,0,0,0,0,0,0,0,0,0,0,0,0,0,0,0,0,0,0,0,0,0,0,0,0,0,0,0,0,0,0,0,0,0,0,0,0,0,0,0,0,0,0,0,0,0,0,47,48,48,47,48,48,47,48,0,0,0,0,0,0,0,0,0,0,0,0,0,0,0,0,0,0,0,0,0,0,0,0,0,0,0,0,0,0,0,0,0,0,0,0,0,0,0,0,0,0,0,0,0,0,0,0,0,0,0,0,0,0,0,0,0,0,0,0,0,0,0,0,0,0,0,0,0,0,0,0,0,0,0,0,0,0,0,0,0,0,0,0,0,0,0,0,0,0,0,0,0,0,0,0,0,0,0,0,0,0,0,0,0,0,0,0,0,0,0,0,0,0,0,0,47,48,48,47,48,48,47,0,0,0,0,0,0,0,0,0,0,0,0,0,0,0,0,0,0,0,0,0,0,0,0,0,0,0,0,0,0,0,0,0,0,0,0,0,0,0,0,0,0,0,0,0,0,0,0,0,0,0,0,0,0,0,0,0,0,0,0,0,0,0,0,0,0,0,0,0,0,0,0,0,0,0,0,0,0,0,
0,0,0,0,0,0,0,0,0,0,0,0,0,0,0,0,0,0,0,0,0,0,0,0,0,0,0,0,0,0,0,0,0,0,0,0,0,0,0,0,0,0,0,0,0,0,0,0,0,0,0,0,0,0,0,0,0,0,0,0,0,0,0,0,0,0,0,0,0,0,0,0,0,0,0,0,0,0,0,0,0,0,0,0,0,0,0,0,0,0,0,0,0,0,0,0,0,0,0,0,0,0,0,0,0,0,0,0,0,0,0,0,0,0,0,0,0,0,0,0,0,0,0,0,0,0,0,0,0,0,0,0,0,0,0,0,0,0,0,0,0,0,0,0,0,0,0,0,0,0,0,0,0,0,0,0,0,0,0,47,47,47,47,48,47,47,48,47,48,47,47,48,48,0,0,0,0,0,0,0,0,0,0,0,0,0,0,0,0,0,0,0,0,0,0,0,0,0,0,0,0,0,0,0,0,0,0,0,0,0,0,0,0,0,0,0,0,0,0,0,0,0,0,0,0,0,0,0,0,0,0,0,0,0,0,0,0,0,0,0,0,0,0,0,0,0,0,0,0,0,0,0,0,0,0,0,0,0,0,0,0,0,0,0,0,0,0,0,0,0,0,0,0,0,0,0,0,0,0,0,0,0,0,48,47,47,48,47,47,47,47,48,48,48,47,48,48,0,0,0,0,0,0,0,0,0,0,0,0,0,0,0,0,0,0,0,0,0,0,0,0,0,0,0,0,0,0,0,0,0,0,0,0,0,0,0,0,0,0,0,0,0,0,0,0,0,0,0,0,0,0,0,0,0,0,0,0,0,0,0,0,0,0,0,0,0,0,0,0,0,0,0,
0,0,0,0,0,0,0,0,0,0,0,0,0,0,0,0,0,0,0,0,0,0,0,0,0,0,0,0,0,0,0,0,0,0,0,0,0,0,0,0,0,0,0,0,0,0,0,0,0,0,0,0,0,0,0,0,0,0,0,0,0,0,0,0,0,0,0,0,0,0,0,0,0,0,0,0,0,0,0,0,0,0,0,0,0,0,0,0,0,0,0,0,0,0,0,0,0,0,0,0,0,0,0,0,0,0,0,0,0,0,0,0,0,0,0,0,0,0,0,0,0,0,0,0,0,0,0,0,0,0,0,0,0,0,0,0,0,0,0,0,0,0,0,0,0,0,0,0,0,0,0,0,0,0,0,0,0,0,0,48,47,48,47,47,47,48,48,48,47,47,47,47,48,0,0,0,0,0,0,0,0,0,0,0,0,0,0,0,0,0,0,0,0,0,0,0,0,0,0,0,0,0,0,0,0,0,0,0,0,0,0,0,0,0,0,0,0,0,0,0,0,0,0,0,0,0,0,0,0,0,0,0,0,0,0,0,0,0,0,0,0,0,0,0,0,0,0,0,0,0,0,0,0,0,0,0,0,0,0,0,0,0,0,0,0,0,0,0,0,0,0,0,0,0,0,0,0,0,0,0,0,0,0,48,48,47,47,47,47,48,48,48,47,47,47,47,47,0,0,0,0,0,0,0,0,0,0,0,0,0,0,0,0,0,0,0,0,0,0,0,0,0,0,0,0,0,0,0,0,0,0,0,0,0,0,0,0,0,0,0,0,0,0,0,0,0,0,0,0,0,0,0,0,0,0,0,0,0,0,0,0,0,0,0,0,0,0,0,0,0,0,0,
0,0,0,0,0,0,0,0,0,0,0,0,0,0,0,0,0,0,0,0,0,0,0,0,0,0,0,0,0,0,0,0,0,0,0,0,0,0,0,0,0,0,0,0,0,0,0,0,0,0,0,0,0,0,0,0,0,0,0,0,0,0,0,0,0,0,0,0,0,0,0,0,0,0,0,0,0,0,0,0,0,0,0,0,0,0,0,0,0,0,0,0,0,0,0,0,0,0,0,0,0,0,0,0,0,0,0,0,0,0,0,0,0,0,0,0,0,0,0,0,0,0,0,0,0,0,0,0,0,0,0,0,0,0,0,0,0,0,0,0,0,0,0,0,0,0,0,0,0,0,0,0,0,0,0,0,0,0,0,0,0,0,0,0,0,0,0,0,0,0,0,0,0,0,0,0,0,0,0,0,0,0,0,0,0,0,0,0,0,0,0,0,0,0,0,0,0,0,0,0,0,0,0,0,0,0,0,0,0,0,0,0,0,0,0,0,0,0,0,0,0,0,0,0,0,0,0,0,0,0,0,0,0,0,0,0,0,0,0,0,0,0,0,0,0,0,0,0,0,0,0,0,0,0,0,0,0,0,0,0,0,0,0,0,0,0,0,0,0,0,0,0,0,0,0,0,0,0,0,0,0,0,0,0,0,0,0,0,0,0,0,0,0,0,0,0,0,0,0,0,0,0,0,0,0,0,0,0,0,0,0,0,0,0,0,0,0,0,0,0,0,0,0,0,0,0,0,0,0,0,0,0,0,0,0,0,0,0,0,0,0,0,0,0,0,0,0,0,0,0,0,0,0,0,0,0,0,0,0,0,0,0,0,0,0,0,0,0,0,0,0,0
</data>
 </layer>
 <layer id="1" name="LevelIn" width="372" height="152" visible="0" opacity="0.8">
  <data encoding="csv">
0,0,0,0,0,0,0,0,0,0,0,0,0,0,0,0,0,0,0,0,0,0,0,0,0,0,0,0,0,0,0,0,0,0,0,0,0,0,0,0,4,4,0,0,0,0,0,0,0,0,0,0,0,0,0,0,0,0,0,0,0,0,0,0,0,0,0,0,0,0,0,0,0,0,0,0,0,0,0,0,0,0,0,0,0,0,0,0,0,0,0,0,0,0,0,0,0,0,0,0,0,0,0,0,0,0,0,0,0,0,0,0,0,0,0,0,0,0,0,0,0,0,0,0,0,0,0,0,0,0,0,0,0,0,0,0,0,0,0,0,0,0,0,0,0,0,0,0,0,0,0,0,0,0,0,0,0,0,0,0,0,0,0,0,0,0,0,0,0,0,0,0,0,0,0,0,0,0,0,0,0,0,0,0,0,0,0,0,0,0,0,0,0,0,0,0,0,0,0,0,0,0,0,0,0,0,0,0,0,0,0,0,0,0,0,0,0,0,0,0,0,0,0,0,0,0,0,0,0,0,0,0,0,0,0,0,0,0,0,0,0,0,0,0,0,0,0,0,0,0,0,0,0,0,0,0,0,0,0,0,0,0,0,0,0,0,0,0,0,0,4,4,4,4,4,4,4,4,4,4,4,4,4,4,4,4,4,4,4,4,4,4,4,4,4,4,4,4,4,4,0,0,0,0,0,0,0,0,0,0,0,0,0,0,0,0,0,0,0,0,0,0,0,0,0,0,0,0,0,0,0,0,0,0,0,0,0,0,0,0,0,0,0,0,0,0,0,0,4,4,4,4,4,4,4,4,4,4,4,4,4,4,4,4,4,4,4,4,4,4,4,4,
0,0,0,0,0,0,0,0,0,0,0,0,0,0,0,0,0,0,0,0,0,0,0,0,0,0,0,0,0,0,0,0,0,0,0,0,0,0,0,0,4,4,0,0,0,0,0,0,0,0,0,0,0,0,0,0,0,0,0,0,0,0,0,0,0,0,0,0,0,0,0,0,0,0,0,0,0,0,0,0,0,0,0,0,0,0,0,0,0,0,0,0,0,0,0,0,0,0,0,0,0,0,0,0,0,0,0,0,0,0,0,0,0,0,0,0,0,0,0,0,0,0,0,0,0,0,0,0,0,0,0,0,0,0,0,0,0,0,0,0,0,0,0,0,0,0,0,0,0,0,0,0,0,0,0,0,0,0,0,0,0,0,0,0,0,0,0,0,0,0,0,0,0,0,0,0,0,0,0,0,0,0,0,0,0,0,0,0,0,0,0,0,0,0,0,0,0,0,0,0,0,0,0,0,0,0,0,0,0,0,0,0,0,0,0,0,0,0,0,0,0,0,0,0,0,0,0,0,0,0,0,0,0,0,0,0,0,0,0,0,0,0,0,0,0,0,0,0,0,0,0,0,0,0,0,0,0,0,0,0,0,0,0,0,0,0,0,0,0,0,4,4,4,4,4,4,4,4,4,4,4,4,4,4,4,4,4,4,4,4,4,4,4,4,4,4,4,4,4,4,0,0,0,0,0,0,0,0,0,0,0,0,0,0,0,0,0,0,0,0,0,0,0,0,0,0,0,0,0,0,0,0,0,0,0,0,0,0,0,0,0,0,0,0,0,0,0,0,4,4,4,4,4,4,4,4,4,4,4,4,4,4,4,4,4,4,4,4,4,4,4,4,
0,0,0,0,0,0,0,0,0,0,0,0,0,0,0,0,0,0,0,0,0,0,0,0,0,0,0,0,0,0,0,0,0,0,0,0,0,0,0,0,4,4,0,0,0,0,0,0,0,0,0,0,0,0,0,0,0,0,0,0,0,0,0,0,0,0,0,0,0,0,0,0,0,0,0,0,0,0,0,0,0,0,0,0,0,0,0,0,0,0,0,0,0,0,0,0,0,0,0,0,0,0,0,0,0,0,0,0,0,0,0,0,0,0,0,0,0,0,0,0,0,0,0,0,0,0,0,0,0,0,0,0,0,0,0,0,0,0,0,0,0,0,0,0,0,0,0,0,0,0,0,0,0,0,0,0,0,0,0,0,0,0,0,0,0,0,0,0,0,0,0,0,0,0,0,0,0,0,0,0,0,0,0,0,0,0,0,0,0,0,0,0,0,0,0,0,0,0,0,0,0,0,0,0,0,0,0,0,0,0,0,0,0,0,0,0,0,0,0,0,0,0,0,0,0,0,0,0,0,0,0,0,0,0,0,0,0,0,0,0,0,0,0,0,0,0,0,0,0,0,0,0,0,0,0,0,0,0,0,0,0,0,0,0,0,0,0,0,0,0,4,4,4,4,4,4,4,4,4,4,4,4,4,4,4,4,4,4,4,4,4,4,4,4,4,4,4,4,4,4,0,0,0,0,0,0,0,0,0,0,0,0,0,0,0,0,0,0,0,0,0,0,0,0,0,0,0,0,0,0,0,0,0,0,0,0,0,0,0,0,0,0,0,0,0,0,0,0,4,4,4,4,4,4,4,4,4,4,4,4,4,4,4,4,4,4,4,4,4,4,4,4,
0,0,0,0,0,0,0,0,0,0,0,0,0,0,0,0,0,0,0,0,0,0,0,0,0,0,0,0,0,0,0,0,0,0,0,0,0,0,0,0,4,4,0,0,0,0,0,0,0,0,0,0,0,0,0,0,0,0,0,0,0,0,0,0,0,0,0,0,0,0,0,0,0,0,0,0,0,0,0,0,0,0,0,0,0,0,0,0,0,0,0,0,0,0,0,0,0,0,0,0,0,0,0,0,0,0,0,0,0,0,0,0,0,0,0,0,0,0,0,0,0,0,0,0,0,0,0,0,0,0,0,0,0,0,0,0,0,0,0,0,0,0,0,0,0,0,0,0,0,0,0,0,0,0,0,0,0,0,0,0,0,0,0,0,0,0,0,0,0,0,0,0,0,0,0,0,0,0,0,0,0,0,0,0,0,0,0,0,0,0,0,0,0,0,0,0,0,0,0,0,0,0,0,0,0,0,0,0,0,0,0,0,0,0,0,0,0,0,0,0,0,0,0,0,0,0,0,0,0,0,0,0,0,0,0,0,0,0,0,0,0,0,0,0,0,0,0,0,0,0,0,0,0,0,0,0,0,0,0,0,0,0,0,0,0,0,0,0,0,0,4,4,4,4,4,4,4,4,4,4,4,4,4,4,4,4,4,4,4,4,4,4,4,4,4,4,4,4,4,4,0,0,0,0,0,0,0,0,0,0,0,0,0,0,0,0,0,0,0,0,0,0,0,0,0,0,0,0,0,0,0,0,0,0,0,0,0,0,0,0,0,0,0,0,0,0,0,0,4,4,4,4,4,4,4,4,4,4,4,4,4,4,4,4,4,4,4,4,4,4,4,4,
0,0,0,0,0,0,0,0,0,0,0,0,0,0,0,0,0,0,0,0,0,0,0,0,0,0,0,0,0,0,0,0,0,0,0,0,0,0,0,0,4,4,0,0,0,0,0,0,0,0,0,0,0,0,0,0,0,0,0,0,0,0,0,0,0,0,0,0,0,0,0,0,0,0,0,0,0,0,0,0,0,0,0,0,0,0,0,0,0,0,0,0,0,0,0,0,0,0,0,0,0,0,0,0,0,0,0,0,0,0,0,0,0,0,0,0,0,0,0,0,0,0,0,0,0,0,0,0,0,0,0,0,0,0,0,0,0,0,0,0,0,0,0,0,0,0,0,0,0,0,0,0,0,0,0,0,0,0,0,0,0,0,0,0,0,0,0,0,0,0,0,0,0,0,0,0,0,0,0,0,0,0,0,0,0,0,0,0,0,0,0,0,0,0,0,0,0,0,0,0,0,0,0,0,0,0,0,0,0,0,0,0,0,0,0,0,0,0,0,0,0,0,0,0,0,0,0,0,0,0,0,0,0,0,0,0,0,0,0,0,0,0,0,0,0,0,0,0,0,0,0,0,0,0,0,0,0,0,0,0,0,0,0,0,0,0,0,0,0,0,4,4,4,4,4,4,4,4,4,4,4,4,4,4,4,4,4,4,4,4,4,4,4,4,4,4,4,4,4,4,0,0,0,0,0,0,0,0,0,0,0,0,0,0,0,0,0,0,0,0,0,0,0,0,0,0,0,0,0,0,0,0,0,0,0,0,0,0,0,0,0,0,0,0,0,0,0,0,4,4,4,4,4,4,4,4,4,4,4,4,4,4,4,4,4,4,4,4,4,4,4,4,
0,0,0,0,0,0,0,0,0,0,0,0,0,0,0,0,0,0,0,0,0,0,0,0,0,0,0,0,0,0,0,0,0,0,0,0,0,0,0,0,4,4,0,0,0,0,0,0,0,0,0,0,0,0,0,0,0,0,0,0,0,0,0,0,0,0,0,0,0,0,0,0,0,0,0,0,0,0,0,0,0,0,0,0,0,0,0,0,0,0,0,0,0,0,0,0,0,0,0,0,0,0,0,0,0,0,0,0,0,0,0,0,0,0,0,0,0,0,0,0,0,0,0,0,0,0,0,0,0,0,0,0,0,0,0,0,0,0,0,0,0,0,0,0,0,0,0,0,0,0,0,0,0,0,0,0,0,0,0,0,0,0,0,0,0,0,0,0,0,0,0,0,0,0,0,0,0,0,0,0,0,0,0,0,0,0,0,0,0,0,0,0,0,0,0,0,0,0,0,0,0,0,0,0,0,0,0,0,0,0,0,0,0,0,0,0,0,0,0,0,0,0,0,0,0,0,0,0,0,0,0,0,0,0,0,0,0,0,0,0,0,0,0,0,0,0,0,0,0,0,0,0,0,0,0,0,0,0,0,0,0,0,0,0,0,0,0,0,0,0,4,4,4,4,4,4,4,4,4,4,4,4,4,4,4,4,4,4,4,4,4,4,4,4,4,4,4,4,4,4,0,0,0,0,0,0,0,0,0,0,0,0,0,0,0,0,0,0,0,0,0,0,0,0,0,0,0,0,0,0,0,0,0,0,0,0,0,0,0,0,0,0,0,0,0,0,0,0,4,4,4,4,4,4,4,4,4,4,4,4,4,4,4,4,4,4,4,4,4,4,4,4,
0,0,0,0,0,0,0,0,0,0,0,0,0,0,0,0,0,0,0,0,0,0,0,0,0,0,0,0,0,0,0,0,0,0,0,0,0,0,0,0,4,4,0,0,0,0,0,0,0,0,0,0,0,0,0,0,0,0,0,0,0,0,0,0,0,0,0,0,0,0,0,0,0,0,0,0,0,0,0,0,0,0,0,0,0,0,0,0,0,0,0,0,0,0,0,0,0,0,0,0,0,0,0,0,0,0,0,0,0,0,0,0,0,0,0,0,0,0,0,0,0,0,0,0,0,0,0,0,0,0,0,0,0,0,0,0,0,0,0,0,0,0,0,0,0,0,0,0,0,0,0,0,0,0,0,0,0,0,0,0,0,0,0,0,0,0,0,0,0,0,0,0,0,0,0,0,0,0,0,0,0,0,0,0,0,0,0,0,0,0,0,0,0,0,0,0,0,0,0,0,0,0,0,0,0,0,0,0,0,0,0,0,0,0,0,0,0,0,0,0,0,0,0,0,0,0,0,0,0,0,0,0,0,0,0,0,0,0,0,0,0,0,0,0,0,0,0,0,0,0,0,0,0,0,0,0,0,0,0,0,0,0,0,0,0,0,0,0,0,0,4,4,4,4,4,4,4,4,4,4,4,4,4,4,4,4,4,4,4,4,4,4,4,4,4,4,4,4,4,4,0,0,0,0,0,0,0,0,0,0,0,0,0,0,0,0,0,0,0,0,0,0,0,0,0,0,0,0,0,0,0,0,0,0,0,0,0,0,0,0,0,0,0,0,0,0,0,0,4,4,4,4,4,4,4,4,4,4,4,4,4,4,4,4,4,4,4,4,4,4,4,4,
0,0,0,0,0,0,0,0,0,0,0,0,0,0,0,0,0,0,0,0,0,0,0,0,0,0,0,0,0,0,0,0,0,0,0,0,0,0,0,0,4,4,0,0,0,0,0,0,0,0,0,0,0,0,0,0,0,0,0,0,0,0,0,0,0,0,0,0,0,0,0,0,0,0,0,0,0,0,0,0,0,0,0,0,0,0,0,0,0,0,0,0,0,0,0,0,0,0,0,0,0,0,0,0,0,0,0,0,0,0,0,0,0,0,0,0,0,0,0,0,0,0,0,0,0,0,0,0,0,0,0,0,0,0,0,0,0,0,0,0,0,0,0,0,0,0,0,0,0,0,0,0,0,0,0,0,0,0,0,0,0,0,0,0,0,0,0,0,0,0,0,0,0,0,0,0,0,0,0,0,0,0,0,0,0,0,0,0,0,0,0,0,0,0,0,0,0,0,0,0,0,0,0,0,0,0,0,0,0,0,0,0,0,0,0,0,0,0,0,0,0,0,0,0,0,0,0,0,0,0,0,0,0,0,0,0,0,0,0,0,0,0,0,0,0,0,0,0,0,0,0,0,0,0,0,0,0,0,0,0,0,0,0,0,0,0,0,0,0,0,4,4,4,4,4,4,4,4,4,4,4,4,4,4,4,4,4,4,4,4,4,4,4,4,4,4,4,4,4,4,0,0,0,0,0,0,0,0,0,0,0,0,0,0,0,0,0,0,0,0,0,0,0,0,0,0,0,0,0,0,0,0,0,0,0,0,0,0,0,0,0,0,0,0,0,0,0,0,4,4,4,4,4,4,4,4,4,4,4,4,4,4,4,4,4,4,4,4,4,4,4,4,
0,0,0,0,0,0,0,0,0,0,0,0,0,0,0,0,0,0,0,0,0,0,0,0,0,0,0,0,0,0,0,0,0,0,0,0,0,0,0,0,4,4,0,0,0,0,0,0,0,0,0,0,0,0,0,0,0,0,0,0,0,0,0,0,0,0,0,0,0,0,0,0,0,0,0,0,0,0,0,0,0,0,0,0,0,0,0,0,0,0,0,0,0,0,0,0,0,0,0,0,0,0,0,0,0,0,0,0,0,0,0,0,0,0,0,0,0,0,0,0,0,0,0,0,0,0,0,0,0,0,0,0,0,0,0,0,0,0,0,0,0,0,0,0,0,0,0,0,0,0,0,0,0,0,0,0,0,0,0,0,0,0,0,0,0,0,0,0,0,0,0,0,0,0,0,0,0,0,0,0,0,0,0,0,0,0,0,0,0,0,0,0,0,0,0,0,0,0,0,0,0,0,0,0,0,0,0,0,0,0,0,0,0,0,0,0,0,0,0,0,0,0,0,0,0,0,0,0,0,0,0,0,0,0,0,0,0,0,0,0,0,0,0,0,0,0,0,0,0,0,0,0,0,0,0,0,0,0,0,0,0,0,0,0,0,99,99,99,99,99,4,4,4,4,4,4,4,4,4,4,4,4,4,4,4,4,4,4,4,4,4,4,4,4,4,4,4,4,4,4,0,0,0,0,0,0,0,0,0,0,0,0,0,0,0,0,0,0,0,0,0,0,0,0,0,0,0,0,0,0,0,0,0,0,0,0,0,0,0,0,0,0,0,0,0,0,0,0,4,4,4,4,4,4,4,4,4,4,4,4,4,4,4,4,4,4,4,4,4,4,4,4,
0,0,0,0,0,0,0,0,0,0,0,0,0,0,0,0,0,0,0,0,0,0,0,0,0,0,0,0,0,0,0,0,0,0,0,0,0,0,0,0,4,4,0,0,0,0,0,0,0,0,0,0,0,0,0,0,0,0,0,0,0,0,0,0,0,0,0,0,0,0,0,0,0,0,0,0,0,0,99,99,99,99,99,99,99,99,0,0,0,0,0,0,0,0,0,0,0,0,0,0,0,0,0,0,0,0,0,0,0,0,0,0,0,0,0,0,0,0,0,0,0,0,0,0,0,0,0,0,0,0,0,0,0,0,0,0,0,0,0,0,0,0,0,0,0,0,0,0,0,0,0,0,0,0,0,0,0,0,0,0,0,0,0,0,0,0,0,0,0,0,0,0,0,0,0,0,0,0,0,0,0,0,0,0,0,0,0,0,0,0,0,0,0,0,0,0,0,0,0,0,0,0,0,0,0,0,0,0,0,0,0,0,0,0,0,0,0,0,0,0,0,0,0,0,0,0,0,0,0,0,0,0,0,0,0,0,0,0,0,0,0,0,0,0,0,0,0,0,0,0,0,0,0,0,0,0,0,0,0,0,0,0,0,0,0,67,0,0,0,0,4,4,4,4,4,4,4,4,4,4,4,4,4,4,4,4,4,4,4,4,4,4,4,4,4,4,4,4,4,4,0,0,0,0,0,0,0,0,0,0,0,0,0,0,0,0,0,0,0,0,0,0,0,0,0,0,0,0,0,0,0,0,0,0,0,0,0,0,0,0,0,0,0,0,0,0,0,0,4,4,4,4,4,4,4,4,4,4,4,4,4,4,4,4,4,4,4,4,4,4,4,4,
0,0,0,0,0,0,0,0,0,0,0,0,0,0,0,0,0,0,0,0,0,0,0,0,0,0,0,0,0,0,0,0,0,0,0,0,0,0,0,0,4,4,0,0,0,0,0,0,0,0,0,0,99,99,99,99,99,99,99,99,99,99,99,99,0,0,0,0,0,0,0,0,0,0,0,0,0,0,67,0,0,0,0,0,0,67,0,0,0,0,0,0,0,0,0,0,0,0,0,0,0,0,0,0,0,0,0,0,0,0,0,0,0,0,0,0,0,0,0,0,0,0,0,0,0,0,0,0,0,0,0,0,0,0,0,0,0,0,0,0,0,0,0,0,0,0,0,0,0,0,0,0,0,0,0,0,0,0,0,0,0,0,0,0,0,0,0,0,0,0,0,0,0,0,0,0,0,0,0,0,0,0,0,0,0,0,0,0,0,0,0,0,0,0,0,0,0,0,0,0,0,0,0,0,0,0,0,0,0,0,0,0,0,0,0,0,0,0,0,0,0,0,0,0,0,0,0,0,0,0,0,0,0,0,0,0,0,0,0,0,0,0,0,0,99,99,99,99,99,99,99,0,0,0,0,0,0,0,0,0,0,0,0,0,0,67,0,0,0,0,4,4,4,4,4,4,4,4,4,4,4,4,4,4,4,4,4,4,4,4,4,4,4,4,4,4,4,4,4,4,0,0,0,0,0,0,0,0,0,0,0,0,0,0,0,0,0,0,0,0,0,0,0,0,0,0,0,0,0,0,0,0,0,0,0,0,0,0,0,0,0,0,0,0,0,0,0,0,4,4,4,4,4,4,4,4,4,4,4,4,4,4,4,4,4,4,4,4,4,4,4,4,
0,0,0,0,0,0,0,0,0,0,0,0,0,0,0,0,0,0,0,0,0,0,0,0,0,0,0,0,0,0,0,0,0,0,0,0,0,0,0,0,4,4,0,0,0,0,0,0,0,0,0,0,67,0,0,0,0,0,0,0,0,0,0,67,0,0,0,0,0,0,0,0,0,0,0,0,0,0,67,0,0,0,0,0,0,67,0,0,0,0,0,0,0,0,0,0,0,0,0,0,0,0,0,0,0,0,0,0,0,0,0,0,0,0,0,0,0,0,0,0,0,0,0,0,0,0,0,0,0,0,0,0,0,0,0,0,0,0,0,0,0,0,0,0,0,0,0,0,0,0,0,0,0,0,0,0,0,0,0,0,0,0,0,0,0,0,0,0,0,0,0,0,0,0,0,0,0,0,0,0,0,0,0,0,0,0,0,0,0,0,0,0,0,0,0,0,0,0,0,0,0,0,0,0,0,0,0,0,0,0,0,0,0,0,0,0,0,0,0,0,0,0,0,0,0,0,0,0,0,0,0,0,0,0,0,0,0,0,0,0,0,0,0,0,67,0,0,0,0,0,67,0,0,0,0,0,0,0,0,0,99,99,99,99,99,99,99,99,0,0,4,4,4,4,4,4,4,4,4,4,4,4,4,4,4,4,4,4,4,4,4,4,4,4,4,4,4,4,4,4,0,0,0,0,0,0,0,0,0,0,0,0,0,0,0,0,0,0,0,0,0,0,0,0,0,0,0,0,0,0,0,0,0,0,0,0,0,0,0,0,0,0,0,0,0,0,0,0,4,4,4,4,4,4,4,4,4,4,4,4,4,4,4,4,4,4,4,4,4,4,4,4,
0,0,0,0,0,0,0,0,0,0,0,0,0,0,0,0,0,0,0,0,0,0,0,0,0,0,0,0,0,0,0,0,0,0,0,0,0,0,0,0,4,4,0,0,0,0,0,0,0,0,0,0,67,0,0,0,0,0,0,0,0,0,0,67,0,0,0,0,0,0,0,0,0,0,99,99,99,99,99,99,0,0,0,0,0,67,0,0,0,0,0,0,0,0,0,0,0,0,0,0,0,0,0,0,0,0,0,0,0,0,0,0,0,0,0,0,0,0,0,0,0,0,0,0,0,0,0,0,0,0,0,0,0,0,0,0,0,0,0,0,0,0,0,0,0,0,0,0,0,0,0,0,0,0,0,0,0,0,0,0,0,0,0,0,0,0,0,0,0,0,0,0,0,0,0,0,0,0,0,0,0,0,0,0,0,0,0,0,0,0,0,0,0,0,0,0,0,0,0,0,0,0,0,0,0,99,99,99,99,99,99,99,99,99,0,0,0,0,0,0,0,0,0,0,0,0,0,0,0,0,0,0,99,99,99,99,99,99,99,99,0,0,0,0,67,0,0,0,0,0,67,0,0,0,0,0,0,0,0,0,67,0,0,0,0,0,0,67,0,0,4,4,4,4,4,4,4,4,4,4,4,4,4,4,4,4,4,4,4,4,4,4,4,4,4,4,4,4,4,4,0,0,0,0,0,0,0,0,0,0,0,0,0,0,0,0,0,0,0,0,0,0,0,0,0,0,0,0,0,0,0,0,0,0,0,0,0,0,0,0,0,0,0,0,0,0,0,0,4,4,4,4,4,4,4,4,4,4,4,4,4,4,4,4,4,4,4,4,4,4,4,4,
0,0,0,0,0,0,0,0,0,0,0,0,0,0,0,0,0,0,0,0,0,0,0,0,0,0,0,0,0,0,0,0,0,0,0,0,0,0,0,0,4,4,0,0,0,0,0,0,0,0,0,0,67,0,0,0,0,0,0,0,0,0,0,67,0,0,0,0,0,0,0,0,0,0,67,0,0,0,0,67,0,0,0,0,0,67,0,0,0,0,0,0,0,0,0,0,0,0,0,0,0,0,0,0,0,0,0,0,0,0,0,0,0,0,0,0,0,0,0,0,0,0,0,0,0,0,0,0,0,0,0,0,0,0,0,0,0,0,0,0,0,0,0,0,0,0,0,0,0,0,0,0,0,0,0,0,0,0,0,0,0,0,0,0,0,0,0,0,0,0,0,0,0,0,0,0,0,0,0,0,0,0,0,0,0,0,0,0,0,0,0,0,0,0,0,0,0,0,0,0,0,0,0,0,0,67,0,0,0,0,0,0,0,67,0,0,0,0,0,0,0,0,0,0,0,0,0,0,0,0,0,0,67,0,0,0,0,0,0,67,0,0,0,0,67,0,0,0,0,0,99,99,99,99,99,99,0,0,0,0,67,0,0,0,0,0,0,67,0,0,4,4,4,4,4,4,4,4,4,4,4,4,4,4,4,4,4,4,4,4,4,4,4,4,4,4,4,4,4,4,0,0,0,0,0,0,0,0,0,0,0,0,0,0,0,0,0,0,0,0,0,0,0,0,0,0,0,0,0,0,0,0,0,0,0,0,0,0,0,0,0,0,0,0,0,0,0,0,4,4,4,4,4,4,4,4,4,4,4,4,4,4,4,4,4,4,4,4,4,4,4,4,
0,0,0,0,0,0,0,0,0,0,0,0,0,0,0,0,0,0,0,0,0,0,0,0,0,0,0,0,0,0,0,0,0,0,0,0,0,0,0,0,4,4,0,0,0,0,0,0,99,99,99,99,99,99,0,0,0,0,0,0,0,0,99,99,99,99,99,99,99,99,0,0,0,0,67,0,0,0,0,67,0,0,99,99,99,99,99,99,99,99,0,0,0,0,0,0,0,0,0,0,0,0,0,0,0,0,2,2,0,0,0,0,0,0,0,0,0,0,0,0,0,0,0,0,0,0,0,0,0,0,0,0,0,0,0,0,0,0,0,0,0,0,0,0,0,0,0,0,0,0,0,0,0,0,0,0,0,0,0,0,0,0,0,0,0,0,0,0,0,0,0,0,0,0,0,0,0,0,0,0,0,0,0,0,0,0,0,0,0,0,0,0,0,0,0,0,0,0,0,0,0,0,0,0,0,67,0,0,0,0,0,0,99,99,99,99,99,99,99,99,0,0,0,0,0,0,0,0,0,0,0,0,67,0,0,0,0,0,0,99,99,99,99,99,99,0,0,0,0,0,67,0,0,0,0,99,99,99,99,99,99,99,99,0,0,0,0,67,0,0,4,4,4,4,4,4,4,4,4,4,4,4,4,4,4,4,4,4,4,4,4,4,4,4,4,4,4,4,4,4,0,0,0,0,0,0,0,0,0,0,0,0,0,0,0,0,0,0,0,0,0,0,0,0,0,0,0,0,0,0,0,0,0,0,0,0,0,0,0,0,0,0,0,0,0,0,0,0,4,4,4,4,4,4,4,4,4,4,4,4,4,4,4,4,4,4,4,4,4,4,4,4,
0,0,0,0,0,0,0,0,0,0,0,0,0,0,0,0,0,0,0,0,0,0,0,0,0,0,0,0,0,0,0,0,0,0,0,0,0,0,0,0,4,4,0,0,0,0,0,0,67,0,0,0,0,67,0,0,99,99,99,99,0,0,67,0,0,0,0,0,0,99,99,99,99,99,99,99,0,0,0,67,0,0,67,0,0,0,0,0,0,67,0,0,0,0,0,0,0,0,0,0,0,0,0,0,0,0,0,0,0,0,0,0,0,0,0,0,0,0,0,0,0,0,0,0,0,0,0,0,0,0,0,0,0,0,0,0,0,0,0,0,0,0,0,0,0,0,0,0,0,0,0,0,0,0,0,0,0,0,0,0,0,0,0,0,0,0,0,0,0,0,0,0,0,0,0,0,0,0,0,0,0,0,0,0,0,0,0,0,0,0,0,0,0,0,0,0,0,0,0,0,0,0,0,0,0,67,0,0,0,0,0,0,67,0,0,0,0,0,0,67,0,0,0,0,99,99,99,99,0,0,0,0,67,0,0,0,0,0,0,67,0,0,0,0,99,99,99,99,0,0,67,0,0,0,0,67,0,0,0,0,0,0,67,0,0,0,99,99,99,99,4,4,4,4,4,4,4,4,4,4,4,4,4,4,4,4,4,4,4,4,4,4,4,4,4,4,4,4,4,4,0,0,0,0,0,0,0,0,0,0,0,0,0,0,0,0,0,0,0,0,0,0,0,0,0,0,0,0,0,0,0,0,0,0,0,0,0,0,0,0,0,0,0,0,0,0,0,0,4,4,4,4,4,4,4,4,4,4,4,4,4,4,4,4,4,4,4,4,4,4,4,4,
0,0,0,0,0,0,0,0,0,0,0,0,0,0,0,0,0,0,0,0,0,0,0,0,0,0,0,0,0,0,0,0,0,0,0,0,0,0,0,0,4,4,0,0,0,0,0,0,67,0,0,0,0,67,0,0,67,0,0,67,0,0,67,0,0,0,0,0,0,67,0,0,0,0,0,67,0,0,0,67,0,0,67,0,0,0,0,0,0,67,0,0,0,0,0,0,0,0,0,0,0,0,2,2,0,0,0,0,0,0,0,0,0,0,0,0,0,0,0,0,0,0,0,0,0,0,0,0,0,0,0,0,0,0,0,0,0,0,0,0,0,0,0,0,0,0,0,0,0,0,0,0,0,0,0,0,0,0,0,0,0,0,0,0,0,0,0,0,0,0,0,0,0,0,0,0,0,0,0,0,0,0,0,0,0,0,0,0,0,0,0,0,0,0,0,0,0,99,99,99,99,99,99,99,99,99,0,0,0,0,0,0,67,0,0,0,0,0,0,67,0,0,0,0,67,0,0,67,0,0,0,0,67,0,0,0,0,0,0,67,0,0,0,0,67,0,0,67,0,0,67,0,0,0,0,67,0,0,0,0,0,0,67,0,0,0,67,0,0,0,4,4,4,4,4,4,4,4,4,4,4,4,4,4,4,4,4,4,4,4,4,4,4,4,4,4,4,4,4,4,0,0,0,0,0,0,0,0,0,0,0,0,0,0,0,0,0,0,0,0,0,0,0,0,0,0,0,0,0,0,0,0,0,0,0,0,0,0,0,0,0,0,0,0,0,0,0,0,4,4,4,4,4,4,4,4,4,4,4,4,4,4,4,4,4,4,4,4,4,4,4,4,
0,0,0,0,0,0,0,0,0,0,0,0,0,0,0,0,0,0,0,0,0,0,0,0,0,0,0,0,0,0,0,0,0,0,0,0,0,0,0,0,4,4,0,0,0,0,0,0,67,0,0,0,0,67,0,0,67,0,0,67,0,0,67,0,0,0,0,0,0,67,0,0,0,0,0,67,0,0,0,67,0,0,67,0,0,0,0,0,0,67,0,0,0,0,0,0,0,0,0,0,0,0,0,0,0,0,0,0,0,0,0,0,0,0,0,0,0,0,0,0,0,0,0,0,0,0,0,0,0,0,0,0,0,0,0,0,0,0,0,0,0,0,0,0,0,0,0,0,0,0,0,0,0,0,0,0,0,0,0,0,0,0,0,0,0,0,0,0,0,0,0,0,0,0,0,0,0,0,0,0,0,0,0,0,0,0,0,0,0,0,0,0,0,0,0,0,0,67,0,0,0,0,0,0,0,67,0,0,0,0,0,0,67,0,0,0,0,0,0,67,0,0,0,0,67,0,0,67,0,0,0,0,67,0,0,0,0,0,0,67,0,0,0,0,67,0,0,67,0,0,67,0,0,0,0,67,0,0,0,0,0,0,67,0,0,0,67,0,0,0,4,4,4,4,4,4,4,4,4,4,4,4,4,4,4,4,4,4,4,4,4,4,4,4,4,4,4,4,4,4,0,0,0,0,0,0,0,0,0,0,0,0,0,0,0,0,0,0,0,0,0,0,0,0,0,0,0,0,0,0,0,0,0,0,0,0,0,0,0,0,0,0,0,0,0,0,0,0,4,4,4,4,4,4,4,4,4,4,4,4,4,4,4,4,4,4,4,4,4,4,4,4,
0,0,0,0,0,0,0,0,0,0,0,0,0,0,0,0,0,0,0,0,0,0,0,0,0,0,0,0,0,0,0,0,0,0,0,0,0,0,0,0,4,4,4,4,4,4,4,4,4,4,4,4,4,4,4,4,4,4,4,4,4,4,4,4,4,4,4,4,4,4,4,4,4,4,4,4,4,4,4,4,4,4,4,4,4,4,4,4,4,4,4,4,4,4,0,0,2,2,0,0,0,0,0,0,0,0,0,0,0,0,2,2,0,0,0,0,0,0,0,0,0,0,0,0,0,0,0,0,0,0,0,0,0,0,0,0,0,0,0,0,0,0,0,0,0,0,0,0,0,0,0,0,0,0,0,0,0,0,0,0,4,4,4,4,4,4,4,4,4,4,4,4,0,0,0,0,0,0,0,0,0,0,0,0,0,0,0,0,0,0,0,0,0,0,0,0,0,67,0,0,0,0,0,0,0,67,0,0,0,0,0,0,67,0,0,0,0,0,0,99,99,99,99,99,99,99,99,99,99,99,4,4,4,4,4,4,4,4,4,4,4,4,4,4,4,4,4,4,4,4,4,4,4,4,4,4,4,4,4,4,4,4,4,4,4,4,4,4,4,4,4,4,4,4,4,4,4,4,4,4,4,4,4,4,4,4,4,4,4,4,4,4,4,4,4,4,4,4,4,4,0,0,0,0,0,0,0,0,0,0,0,0,0,0,0,0,0,0,0,0,0,0,0,0,0,0,0,0,0,0,0,0,0,0,0,0,0,0,0,0,0,0,0,0,0,0,0,0,4,4,4,4,4,4,4,4,4,4,4,4,4,4,4,4,4,4,4,4,4,4,4,4,
0,0,0,0,0,0,0,0,0,0,0,0,0,0,0,0,0,0,0,0,0,0,0,0,0,0,0,0,0,0,0,0,0,0,0,0,0,0,4,4,4,4,4,4,4,4,4,4,4,4,4,4,4,4,4,4,4,4,4,4,4,4,4,4,4,4,4,4,4,4,4,4,4,4,4,4,4,4,4,4,4,4,4,4,4,4,4,4,4,4,4,4,4,4,0,0,0,0,0,0,0,0,0,0,0,0,0,0,0,0,0,0,0,0,0,0,0,0,0,0,0,0,0,0,0,0,0,0,0,0,0,0,0,0,0,0,0,0,0,0,0,0,0,0,0,0,0,0,0,0,0,0,0,0,0,0,0,0,0,0,4,4,4,4,4,4,4,4,4,4,4,4,0,0,0,0,0,0,0,0,0,0,0,0,0,0,0,0,0,0,0,0,0,0,0,0,0,67,0,0,0,0,0,0,0,67,0,0,0,0,0,0,67,0,0,0,0,0,0,67,0,0,0,0,0,0,0,0,0,0,4,4,4,4,4,4,4,4,4,4,4,4,4,4,4,4,4,4,4,4,4,4,4,4,4,4,4,4,4,4,4,4,4,4,4,4,4,4,4,4,4,4,4,4,4,4,4,4,4,4,4,4,4,4,4,4,4,4,4,4,4,4,4,4,4,4,4,4,4,4,0,0,0,0,0,0,0,0,0,0,0,0,0,0,0,0,0,0,0,0,0,0,0,0,0,0,0,0,0,0,0,0,0,0,0,0,0,0,0,0,0,0,0,0,0,0,0,0,4,4,4,4,4,4,4,4,4,4,4,4,4,4,4,4,4,4,4,4,4,4,4,4,
0,0,0,0,0,0,0,0,0,0,0,0,0,0,0,0,0,0,0,0,0,0,0,0,0,0,0,0,0,0,0,0,0,0,0,0,4,4,4,4,4,4,4,4,4,4,4,4,4,4,4,4,4,4,4,4,4,4,4,4,4,4,4,4,4,4,4,4,4,4,0,0,0,0,4,4,0,0,0,0,0,0,0,0,0,0,0,0,0,0,0,0,0,0,0,0,0,0,0,0,0,0,0,0,0,0,0,0,0,0,0,0,0,0,0,0,0,0,0,0,0,0,0,0,0,0,0,0,0,0,0,0,0,0,0,0,0,0,0,0,0,0,0,0,0,0,0,0,0,0,0,0,0,0,0,0,0,0,0,0,4,4,0,0,0,0,0,0,0,0,4,4,2,2,0,0,0,0,0,0,0,0,0,0,0,0,0,0,0,0,0,0,0,0,0,0,0,67,0,0,0,0,0,0,99,99,99,99,99,99,99,99,99,99,99,99,0,0,0,67,0,0,0,0,0,0,0,0,0,0,4,4,0,0,0,0,0,0,0,0,0,0,0,0,0,0,0,0,0,0,0,0,0,0,0,0,0,0,0,0,0,0,0,0,0,0,0,0,0,0,0,0,0,0,0,0,0,0,0,0,0,0,0,0,0,0,0,0,0,0,0,0,0,0,0,0,0,0,4,4,0,0,0,0,0,0,0,0,0,0,0,0,0,0,0,0,0,0,0,0,0,0,0,0,0,0,0,0,0,0,0,0,0,0,0,0,0,0,0,0,0,0,0,0,0,0,0,0,4,4,4,4,4,4,4,4,4,4,4,4,4,4,4,4,4,4,4,4,4,4,4,4,
0,0,0,0,0,0,0,0,0,0,0,0,0,0,0,0,0,0,0,0,0,0,0,0,0,0,0,0,0,0,0,0,0,0,4,4,4,4,4,4,4,4,4,4,4,4,4,4,4,4,4,4,4,4,4,4,4,4,4,4,4,4,4,4,4,4,4,4,4,4,0,0,0,0,4,4,0,0,0,0,0,0,0,0,0,0,0,0,0,0,0,0,0,0,0,0,0,0,0,0,0,0,0,0,0,0,0,0,0,0,0,0,0,0,0,0,0,0,0,0,0,0,0,0,0,0,0,0,0,0,0,0,0,0,0,0,0,0,0,0,0,0,0,0,0,0,0,0,0,0,0,0,0,0,0,0,0,0,0,0,4,4,0,0,0,0,0,0,0,0,4,4,0,0,0,0,0,0,0,0,0,0,0,0,0,0,0,0,0,0,0,0,0,0,0,0,0,67,0,0,0,0,0,0,67,0,0,0,0,0,0,0,0,0,0,67,0,0,0,67,0,0,0,0,0,0,0,0,0,0,4,4,0,0,0,0,0,0,0,0,0,0,0,0,0,0,0,0,0,0,0,0,0,0,0,0,0,0,0,0,0,0,0,0,0,0,0,0,0,0,0,0,0,0,0,0,0,0,0,0,0,0,0,0,0,0,0,0,0,0,0,0,0,0,0,0,0,0,4,4,2,2,2,2,2,2,0,0,0,0,0,0,0,0,0,0,0,0,0,0,0,0,0,0,0,0,0,0,0,0,0,0,0,0,0,0,0,0,0,0,0,0,2,2,2,2,2,2,4,4,4,4,4,4,4,4,4,4,4,4,4,4,4,4,4,4,4,4,4,4,4,4,
0,0,0,0,0,0,0,0,0,0,0,0,0,0,0,0,0,0,0,0,0,0,0,0,0,0,0,0,0,0,0,0,4,4,4,4,4,4,4,4,4,4,4,4,4,4,4,4,4,4,4,4,4,4,4,4,4,4,4,4,4,4,4,4,4,4,4,4,4,4,0,0,0,0,0,0,0,0,0,0,0,0,0,0,0,0,0,0,0,0,0,0,0,0,0,0,0,0,0,0,0,0,0,0,0,0,0,0,0,0,0,0,0,0,2,2,0,0,0,0,0,0,0,0,0,0,0,0,0,0,0,0,0,0,0,0,0,0,0,0,0,0,0,0,0,0,0,0,0,0,0,0,0,0,0,0,0,0,0,0,0,0,0,0,0,0,0,0,0,0,0,0,0,0,0,0,2,2,0,0,0,0,0,0,0,0,0,0,0,0,0,0,0,0,0,0,0,67,0,0,0,0,0,0,67,0,0,0,0,0,0,0,0,0,0,67,0,0,0,67,0,0,0,0,0,0,0,0,0,0,0,0,0,0,0,0,0,0,0,0,0,0,0,0,0,0,0,0,0,0,0,0,0,0,0,0,0,0,0,0,0,0,0,0,0,0,0,0,0,0,0,0,0,0,0,0,0,0,0,0,0,0,0,0,0,0,0,0,0,0,0,0,0,0,0,0,0,0,0,0,0,0,0,0,0,0,0,0,0,0,0,0,0,0,0,0,0,0,0,0,0,0,0,0,0,0,0,0,0,0,0,0,0,0,0,0,0,0,0,0,0,0,0,0,0,0,0,0,0,0,0,0,0,0,0,0,0,0,0,0,0,0,0,0,0,0,0,0,0,0,0,0,
0,0,0,0,0,0,0,0,0,0,0,0,0,0,0,0,0,0,0,0,0,0,0,0,0,0,0,0,0,0,4,4,4,4,4,4,4,4,4,4,4,4,4,4,4,4,4,4,4,4,4,4,4,4,4,4,4,4,4,4,4,4,4,4,4,4,4,4,4,4,0,0,0,0,0,0,0,0,0,0,0,0,0,0,0,0,0,0,0,0,0,0,0,0,0,0,0,0,0,0,0,0,0,0,0,0,0,0,0,0,0,0,0,0,0,0,0,0,0,0,0,0,0,0,0,0,0,0,0,0,0,0,0,0,0,0,0,0,0,0,0,0,0,0,0,0,0,0,0,0,0,0,0,0,0,0,0,0,0,0,0,0,0,0,0,0,0,0,0,0,0,0,0,0,0,0,0,0,0,0,0,0,0,0,0,0,0,0,0,0,0,0,0,0,99,99,99,99,0,0,99,99,99,99,99,0,0,0,0,0,99,99,99,99,99,99,99,99,99,99,99,99,0,0,0,0,0,0,0,0,0,0,0,0,0,0,0,0,0,0,0,0,0,0,0,0,0,0,0,0,0,0,0,0,0,0,0,0,0,0,0,0,0,0,0,0,0,0,0,0,0,0,0,0,0,0,0,0,0,0,0,0,0,0,0,0,0,0,0,0,0,0,0,0,0,0,0,0,0,0,0,0,0,0,0,0,0,0,0,0,0,0,0,0,0,0,0,0,0,0,0,0,0,0,0,0,0,0,0,0,0,0,0,0,0,0,0,0,0,0,0,0,0,0,0,0,0,0,0,0,0,0,0,0,0,0,0,0,0,0,0,0,0,0,0,0,0,0,0,0,0,0,
0,0,0,0,0,0,0,0,0,0,0,0,0,0,0,0,0,0,0,0,0,0,0,0,0,0,0,0,4,4,4,4,4,4,4,4,4,4,4,4,4,4,4,4,4,4,4,4,4,4,4,4,4,4,4,4,4,4,4,4,4,4,4,4,4,4,4,4,4,4,4,4,4,4,4,4,4,4,4,4,4,4,4,4,4,4,4,4,4,4,4,4,4,4,4,4,4,4,4,4,4,4,4,4,4,4,4,4,4,4,4,4,4,4,4,4,0,0,0,0,4,4,4,4,4,4,4,4,4,4,4,4,4,4,4,4,4,4,0,0,0,0,0,0,0,0,0,0,0,0,0,0,0,0,0,0,0,0,0,0,0,0,0,0,0,0,0,0,0,0,0,0,0,0,0,0,0,0,0,0,0,0,0,0,0,0,0,0,0,0,0,0,0,0,67,0,0,67,0,0,67,0,0,0,67,0,0,0,0,0,67,0,0,0,0,67,0,0,0,0,0,67,0,0,0,0,0,0,0,0,0,0,0,0,0,0,0,0,0,0,0,0,0,0,0,0,0,0,0,0,0,0,0,0,0,0,0,0,0,0,0,0,0,0,0,0,0,0,0,0,0,0,0,0,0,0,0,0,0,0,0,0,0,0,0,0,0,0,0,0,0,0,0,0,0,0,0,0,0,0,0,0,0,0,0,0,0,0,0,0,0,0,0,0,0,0,0,0,0,0,0,0,0,0,0,0,0,0,0,0,0,0,0,0,0,0,0,0,0,0,0,0,0,0,0,0,0,0,0,0,0,0,0,0,0,0,0,0,0,0,0,0,0,0,0,0,0,0,0,0,0,0,
0,0,0,0,0,0,0,0,0,0,0,0,0,0,0,0,0,0,0,0,0,0,0,0,0,0,4,4,4,4,4,4,4,4,4,4,4,4,4,4,4,4,4,4,4,4,4,4,4,4,4,4,4,4,4,4,4,4,4,4,4,4,4,4,4,4,4,4,4,4,4,4,4,4,4,4,4,4,4,4,4,4,4,4,4,4,4,4,4,4,4,4,4,4,4,4,4,4,4,4,4,4,4,4,4,4,4,4,4,4,4,4,4,4,4,4,0,0,0,0,4,4,4,4,4,4,4,4,4,4,4,4,4,4,4,4,4,4,4,4,0,0,0,0,0,0,0,0,0,0,0,0,0,0,0,0,0,0,0,0,0,0,0,0,0,0,0,0,0,0,0,0,0,0,0,0,0,0,0,0,0,0,0,0,0,0,0,0,0,0,0,0,0,0,67,0,0,67,0,0,67,0,0,0,67,0,0,0,0,0,67,0,0,0,0,67,0,0,0,0,0,67,0,0,0,0,0,0,0,0,0,0,0,0,0,0,0,0,0,0,0,0,0,0,0,0,0,0,0,0,0,0,0,0,0,0,0,0,0,0,0,0,0,0,0,0,0,0,0,0,0,0,0,0,0,0,0,0,0,0,0,0,0,0,0,0,0,0,0,0,0,0,0,0,0,0,0,0,0,0,0,0,0,0,0,0,0,0,0,0,0,0,0,0,0,0,0,0,0,0,0,0,0,0,0,0,0,0,0,0,0,0,0,0,0,0,0,0,0,0,0,0,0,0,0,0,0,0,0,0,0,0,0,0,0,0,0,0,0,0,0,0,0,0,0,0,0,0,0,0,0,0,
0,0,0,0,0,0,0,0,0,0,0,0,0,0,0,0,0,0,0,0,0,0,0,0,4,4,4,4,4,4,4,4,4,4,4,4,4,4,4,4,4,4,4,4,4,4,4,4,4,4,4,4,4,4,4,4,4,4,4,4,4,4,4,4,4,4,4,4,4,4,4,4,4,4,4,4,4,4,4,4,4,4,4,4,4,4,4,4,4,4,4,4,4,4,4,4,4,4,4,4,4,4,4,4,4,4,4,4,4,4,4,4,4,4,4,4,0,0,0,0,4,4,4,4,4,4,4,4,4,4,4,4,4,4,4,4,4,4,4,4,4,4,4,4,4,4,4,4,4,4,4,4,4,4,4,4,4,4,4,4,4,4,4,4,0,0,0,0,4,4,4,4,4,4,4,4,4,4,4,4,4,4,4,4,4,4,4,4,4,4,4,4,4,4,4,4,4,4,4,4,4,4,4,4,4,4,4,4,4,4,4,4,4,4,4,4,4,4,4,4,4,4,4,4,4,4,4,4,4,4,4,4,4,4,4,4,4,4,4,4,4,4,4,4,4,4,0,0,0,0,4,4,4,4,4,4,4,4,4,4,4,4,4,4,4,4,4,4,0,0,0,0,4,4,4,4,4,4,4,4,4,4,4,4,4,4,4,4,0,0,0,0,4,4,4,4,4,4,4,4,4,4,4,4,4,4,4,4,4,4,4,4,4,4,4,4,4,4,4,4,4,4,4,4,4,4,4,4,4,4,4,4,4,4,4,4,4,4,4,4,4,4,4,4,4,4,4,4,4,4,4,4,4,4,4,4,4,4,4,4,4,4,4,4,4,4,4,4,4,4,4,4,
0,0,0,0,0,0,0,0,0,0,0,0,0,0,0,0,0,0,0,0,0,0,4,4,4,4,4,4,4,4,4,4,4,4,4,4,4,4,4,4,4,4,4,4,4,4,4,4,4,4,4,4,4,4,4,4,4,4,4,4,4,4,4,4,4,4,4,4,4,4,4,4,4,4,4,4,4,4,4,4,4,4,4,4,4,4,4,4,4,4,4,4,4,4,4,4,4,4,4,4,4,4,4,4,4,4,4,4,4,4,4,4,4,4,4,4,0,0,0,0,4,4,4,4,4,4,4,4,4,4,4,4,4,4,4,4,4,4,4,4,4,4,4,4,4,4,4,4,4,4,4,4,4,4,4,4,4,4,4,4,4,4,4,4,0,0,0,0,4,4,4,4,4,4,4,4,4,4,4,4,4,4,4,4,4,4,4,4,4,4,4,4,4,4,4,4,4,4,4,4,4,4,4,4,4,4,4,4,4,4,4,4,4,4,4,4,4,4,4,4,4,4,4,4,4,4,4,4,4,4,4,4,4,4,4,4,4,4,4,4,4,4,4,4,4,4,0,0,0,0,4,4,4,4,4,4,4,4,4,4,4,4,4,4,4,4,4,4,0,0,0,0,4,4,4,4,4,4,4,4,4,4,4,4,4,4,4,4,0,0,0,0,4,4,4,4,4,4,4,4,4,4,4,4,4,4,4,4,4,4,4,4,4,4,4,4,4,4,4,4,4,4,4,4,4,4,4,4,4,4,4,4,4,4,4,4,4,4,4,4,4,4,4,4,4,4,4,4,4,4,4,4,4,4,4,4,4,4,4,4,4,4,4,4,4,4,4,4,4,4,4,4,
0,0,0,0,0,0,0,0,0,0,0,0,0,0,0,0,0,0,0,0,4,4,4,4,4,4,4,4,4,4,4,4,4,4,4,4,4,4,4,4,4,4,4,4,4,4,4,4,4,4,4,4,4,4,4,4,4,4,4,4,4,4,4,4,4,4,4,4,4,4,4,4,4,4,4,4,4,4,4,4,4,4,4,4,4,4,4,4,4,4,4,4,4,4,4,4,4,4,4,4,4,4,4,4,4,4,4,4,4,4,4,4,4,4,4,4,0,0,0,0,4,4,4,4,4,4,4,4,4,4,4,4,4,4,4,4,4,4,4,4,4,4,4,4,4,4,4,4,4,4,4,4,4,4,4,4,4,4,4,4,4,4,4,4,0,0,0,0,4,4,4,4,4,4,4,4,4,4,4,4,4,4,4,4,4,4,4,4,4,4,4,4,4,4,4,4,4,4,4,4,4,4,4,4,4,4,4,4,4,4,4,4,4,4,4,4,4,4,4,4,4,4,4,4,4,4,4,4,4,4,4,4,4,4,4,4,4,4,4,4,4,4,4,4,4,4,0,0,0,0,4,4,4,4,4,4,4,4,4,4,4,4,4,4,4,4,4,4,0,0,0,0,4,4,4,4,4,4,4,4,4,4,4,4,4,4,4,4,0,0,0,0,4,4,4,4,4,4,4,4,4,4,4,4,4,4,4,4,4,4,4,4,4,4,4,4,4,4,4,4,4,4,4,4,4,4,4,4,4,4,4,4,4,4,4,4,4,4,4,4,4,4,4,4,4,4,4,4,4,4,4,4,4,4,4,4,4,4,4,4,4,4,4,4,4,4,4,4,4,4,4,4,
0,0,0,0,0,0,0,0,0,0,0,0,0,0,0,0,0,0,0,4,4,4,4,4,4,4,4,4,4,4,4,4,4,4,4,4,4,4,4,4,4,4,4,4,4,4,4,4,4,4,4,4,4,4,4,4,4,4,4,4,4,4,4,4,4,4,4,4,4,4,4,4,4,4,4,4,4,4,4,4,4,4,4,4,4,4,4,4,4,4,4,4,4,4,4,4,4,4,4,4,4,4,4,4,4,4,4,4,4,4,4,4,4,4,4,4,0,0,0,0,4,4,4,4,4,4,4,4,4,4,4,4,4,4,4,4,4,4,4,4,4,4,4,4,4,4,4,4,4,4,4,4,4,4,4,4,4,4,4,4,4,4,4,4,0,0,0,0,4,4,4,4,4,4,4,4,4,4,4,4,4,4,4,4,4,4,4,4,4,4,4,4,4,4,4,4,4,4,4,4,4,4,4,4,4,4,4,4,4,4,4,4,4,4,4,4,4,4,4,4,4,4,4,4,4,4,4,4,4,4,4,4,4,4,4,4,4,4,4,4,4,4,4,4,4,4,0,0,0,0,4,4,4,4,4,4,4,4,4,4,4,4,4,4,4,4,4,4,0,0,0,0,4,4,4,4,4,4,4,4,4,4,4,4,4,4,4,4,0,0,0,0,4,4,4,4,4,4,4,4,4,4,4,4,4,4,4,4,4,4,4,4,4,4,4,4,4,4,4,4,4,4,4,4,4,4,4,4,4,4,4,4,4,4,4,4,4,4,4,4,4,4,4,4,4,4,4,4,4,4,4,4,4,4,4,4,4,4,4,4,4,4,4,4,4,4,4,4,4,4,4,4,
0,0,0,0,0,0,0,0,0,0,0,0,0,0,0,0,0,0,4,4,4,4,4,4,4,4,4,4,4,4,4,4,4,4,4,4,4,4,4,4,4,4,4,4,4,4,4,4,4,4,4,4,4,4,4,4,4,4,4,4,4,4,4,4,4,4,4,4,4,4,4,4,4,4,4,4,4,4,4,4,4,4,4,4,4,4,4,4,4,4,4,4,4,4,4,4,4,4,4,4,4,4,4,4,4,4,4,4,4,4,4,4,4,4,4,4,0,0,0,0,4,4,4,4,4,4,4,4,4,4,4,4,4,4,4,4,4,4,4,4,4,4,4,4,4,4,4,4,4,4,4,4,4,4,4,4,4,4,4,4,4,4,4,4,0,0,0,0,4,4,4,4,4,4,4,4,4,4,4,4,4,4,4,4,4,4,4,4,4,4,4,4,4,4,0,0,0,0,0,0,0,0,0,0,0,0,0,0,0,0,0,0,4,4,4,4,4,4,4,4,4,4,4,4,4,4,4,4,4,4,4,4,4,4,4,4,4,4,4,4,4,4,4,4,4,4,0,0,0,0,4,4,4,4,4,4,4,4,4,4,4,4,4,4,4,4,4,4,0,0,0,0,4,4,4,4,4,4,4,4,4,4,4,4,4,4,4,4,0,0,0,0,4,4,4,4,4,4,4,4,4,4,4,4,4,4,4,4,4,4,4,4,4,4,4,4,4,4,4,4,4,4,4,4,4,4,4,4,4,4,4,4,4,4,4,4,4,4,4,4,4,4,4,4,4,4,4,4,4,4,4,4,4,4,4,4,4,4,4,4,4,4,4,4,4,4,4,4,4,4,4,4,
0,0,0,0,0,0,0,0,0,0,0,0,0,0,0,0,0,4,4,4,4,4,4,4,4,4,4,4,4,4,4,4,4,4,4,4,4,4,4,4,4,4,4,4,4,4,4,4,4,4,4,4,4,4,4,4,4,4,4,4,4,4,4,4,4,4,4,4,4,4,4,4,4,4,4,4,4,4,4,4,4,4,4,4,4,4,4,4,4,4,4,4,4,4,4,4,4,4,4,4,4,4,4,4,4,4,4,4,4,4,4,4,4,4,4,4,0,0,0,0,4,4,4,4,4,4,4,4,4,4,4,4,4,4,4,4,4,4,4,4,4,4,4,4,4,4,4,4,4,4,4,4,4,4,4,4,4,4,4,4,4,4,4,4,0,0,0,0,4,4,4,4,4,4,4,4,4,4,4,4,4,4,4,4,4,4,4,4,4,4,4,4,4,4,0,0,0,0,0,0,0,0,0,0,0,0,0,0,0,0,0,0,4,4,4,4,4,4,4,4,4,4,4,4,4,4,4,4,4,4,4,4,4,4,4,4,4,4,4,4,4,4,4,4,4,4,0,0,0,0,4,4,4,4,4,4,4,4,4,4,4,4,4,4,4,4,4,4,0,0,0,0,4,4,4,4,4,4,4,4,4,4,4,4,4,4,4,4,0,0,0,0,4,4,4,4,4,4,4,4,4,4,4,4,4,4,4,4,4,4,4,4,4,4,4,4,4,4,4,4,4,4,4,4,4,4,4,4,4,4,4,4,4,4,4,4,4,4,4,4,4,4,4,4,4,4,4,4,4,4,4,4,4,4,4,4,4,4,4,4,4,4,4,4,4,4,4,4,4,4,4,4,
0,0,0,0,0,0,0,0,0,0,0,0,0,0,0,0,4,4,4,4,4,4,4,4,4,4,4,4,4,4,4,4,4,4,4,4,4,4,4,4,4,4,4,4,4,4,4,4,4,4,4,4,4,4,4,4,4,4,4,4,4,4,4,4,4,4,4,4,4,4,4,4,4,4,4,4,4,4,4,4,4,4,4,4,4,4,4,4,4,4,4,4,4,4,4,4,4,4,4,4,4,4,4,4,4,4,4,4,4,4,4,4,4,4,4,4,0,0,0,0,4,4,4,4,4,4,4,4,4,4,4,4,4,4,4,4,4,4,4,4,4,4,4,4,4,4,4,4,4,4,4,4,4,4,4,4,4,4,4,4,4,4,4,4,0,0,0,0,4,4,4,4,4,4,4,4,4,4,4,4,4,4,4,4,4,4,4,4,4,4,4,4,4,4,0,0,0,0,0,0,0,0,0,0,0,0,0,0,0,0,0,0,4,4,4,4,4,4,4,4,4,4,4,4,4,4,4,4,4,4,4,4,4,4,4,4,4,4,4,4,4,4,4,4,4,4,0,0,0,0,4,4,4,4,4,4,4,4,4,4,4,4,4,4,4,4,4,4,0,0,0,0,4,4,4,4,4,4,4,4,4,4,4,4,4,4,4,4,0,0,0,0,4,4,4,4,4,4,4,4,4,4,4,4,4,4,4,4,4,4,4,4,4,4,4,4,4,4,4,4,4,4,4,4,4,4,4,4,4,4,4,4,4,4,4,4,4,4,4,4,4,4,4,4,4,4,4,4,4,4,4,4,4,4,4,4,4,4,4,4,4,4,4,4,4,4,4,4,4,4,4,4,
0,0,0,0,0,0,0,0,0,0,0,0,0,0,0,4,4,4,4,4,4,4,4,4,4,4,4,4,4,4,4,4,4,4,4,4,4,4,4,4,4,4,4,4,4,4,4,4,4,4,4,4,4,4,4,4,4,4,4,4,4,4,4,4,4,4,4,4,4,4,4,4,4,4,4,4,4,4,4,4,4,4,4,4,4,4,4,4,4,4,4,4,4,4,4,4,4,4,4,4,4,4,4,4,4,4,4,4,4,4,4,4,4,4,4,4,0,0,0,0,4,4,4,4,4,4,4,4,4,4,4,4,4,4,4,4,4,4,4,4,4,4,4,4,4,4,4,4,4,4,4,4,4,4,4,4,4,4,4,4,4,4,4,4,0,0,0,0,4,4,4,4,4,4,4,4,4,4,4,4,4,4,4,4,4,4,4,4,4,4,4,4,4,4,0,0,0,0,0,0,0,0,0,0,0,0,0,0,0,0,0,0,4,4,4,4,4,4,4,4,4,4,4,4,4,4,4,4,4,4,4,4,4,4,4,4,4,4,4,4,4,4,4,4,4,4,0,0,0,0,4,4,4,4,4,4,4,4,4,4,4,4,4,4,4,4,4,4,0,0,0,0,4,4,4,4,4,4,4,4,4,4,4,4,4,4,4,4,0,0,0,0,4,4,4,4,4,4,4,4,4,4,4,4,4,4,4,4,4,4,4,4,4,4,4,4,4,4,4,4,4,4,4,4,4,4,4,4,4,4,4,4,4,4,4,4,4,4,4,4,4,4,4,4,4,4,4,4,4,4,4,4,4,4,4,4,4,4,4,4,4,4,4,4,4,4,4,4,4,4,4,4,
0,0,0,0,0,0,0,0,0,0,0,0,0,0,4,4,4,4,4,4,4,4,4,4,4,4,4,4,4,4,4,4,4,4,4,4,4,4,4,4,4,4,4,4,4,4,4,4,4,4,4,4,4,4,4,4,4,4,4,4,4,4,4,4,4,4,4,4,4,4,4,4,4,4,4,4,4,4,4,4,4,4,4,4,4,4,0,0,0,0,0,0,0,0,0,0,0,0,0,0,0,0,0,0,4,4,4,4,4,4,4,4,4,4,4,4,0,0,0,0,4,4,4,4,4,4,4,4,4,4,4,4,4,4,4,4,4,4,4,4,4,4,4,4,4,4,4,4,4,4,4,4,4,4,4,4,4,4,4,4,4,4,4,4,0,0,0,0,4,4,4,4,4,4,4,4,4,4,4,4,0,0,0,0,0,0,0,0,0,0,0,0,0,0,0,0,0,0,0,0,2,2,0,0,2,2,0,0,0,0,0,0,0,0,0,0,0,0,0,0,0,0,0,0,0,0,4,4,4,4,4,4,4,4,4,4,4,4,4,4,4,4,4,4,4,4,0,0,0,0,4,4,4,4,4,4,4,4,4,4,4,4,0,0,0,0,0,0,0,0,0,0,0,0,0,0,0,0,4,4,4,4,4,4,4,4,4,4,0,0,0,0,4,4,4,4,4,4,4,4,4,4,4,4,4,4,4,4,4,4,4,4,4,4,4,4,4,4,0,0,0,0,4,4,4,4,4,4,4,4,4,4,4,4,0,0,0,0,0,0,0,0,0,0,0,0,0,0,4,4,4,4,4,4,4,4,4,4,4,4,4,4,4,4,4,4,4,4,4,4,4,4,
0,0,0,0,0,0,0,0,0,0,0,0,0,4,4,4,4,4,4,4,4,4,4,4,4,4,4,4,4,4,4,4,4,4,4,4,4,4,4,4,4,4,4,4,4,4,4,4,4,4,4,4,4,4,4,4,4,4,4,4,4,4,4,4,4,4,4,4,4,4,4,4,4,4,4,4,4,4,4,4,4,4,4,4,4,4,0,0,0,0,0,0,0,0,0,0,0,0,0,0,0,0,0,0,4,4,4,4,4,4,4,4,4,4,4,4,0,0,0,0,4,4,4,4,4,4,4,4,4,4,4,4,4,4,4,4,4,4,4,4,4,4,4,4,4,4,4,4,4,4,4,4,4,4,4,4,4,4,4,4,4,4,4,4,0,0,0,0,4,4,4,4,4,4,4,4,4,4,4,4,0,0,0,0,0,0,0,0,0,0,0,0,0,0,0,0,0,0,0,0,0,0,0,0,0,0,0,0,0,0,0,0,0,0,0,0,0,0,0,0,0,0,0,0,0,0,4,4,4,4,4,4,4,4,4,4,4,4,4,4,4,4,4,4,4,4,0,0,0,0,4,4,4,4,4,4,4,4,4,4,4,4,0,0,0,0,0,0,0,0,0,0,0,0,0,0,0,0,4,4,4,4,4,4,4,4,4,4,0,0,0,0,4,4,4,4,4,4,4,4,4,4,4,4,4,4,4,4,4,4,4,4,4,4,4,4,4,4,0,0,0,0,4,4,4,4,4,4,4,4,4,4,4,4,0,0,0,0,0,0,0,0,0,0,0,0,0,0,4,4,4,4,4,4,4,4,4,4,4,4,4,4,4,4,4,4,4,4,4,4,4,4,
0,0,0,0,0,0,0,0,0,0,0,0,4,4,4,4,4,4,4,4,4,4,4,4,4,4,4,4,4,4,4,4,4,4,4,4,4,4,4,4,4,4,4,4,4,4,4,4,4,4,4,4,4,4,4,4,4,4,4,4,4,4,4,4,4,4,4,4,4,4,4,4,4,4,4,4,4,4,4,4,4,4,4,4,4,4,0,0,0,0,0,0,0,0,0,0,0,0,0,0,0,0,0,0,4,4,4,4,4,4,4,4,4,4,4,4,0,0,0,0,4,4,4,4,4,4,4,4,4,4,4,4,4,4,4,4,0,0,0,0,0,0,0,0,0,0,0,0,0,0,0,0,4,4,4,4,4,4,4,4,4,4,4,4,0,0,0,0,4,4,4,4,4,4,4,4,4,4,4,4,0,0,4,4,4,4,4,4,4,4,4,4,4,4,2,2,0,0,0,0,0,0,0,0,0,0,0,0,0,0,2,2,4,4,4,4,4,4,4,4,4,4,4,4,0,0,4,4,4,4,4,4,4,4,4,4,4,4,4,4,4,4,4,4,4,4,0,0,0,0,4,4,4,4,4,4,4,4,4,4,4,4,0,0,0,0,0,0,0,0,0,0,0,0,0,0,0,0,4,4,4,4,4,4,4,4,4,4,0,0,0,0,4,4,4,4,4,4,4,4,4,4,4,4,4,4,4,4,4,4,4,4,4,4,4,4,4,4,0,0,0,0,0,0,0,0,0,0,0,0,0,0,0,0,0,0,0,0,0,0,0,0,0,0,0,0,0,0,4,4,4,4,4,4,4,4,4,4,4,4,4,4,4,4,4,4,4,4,4,4,4,4,
0,0,0,0,0,0,0,0,0,0,0,4,4,4,4,4,4,4,4,4,4,4,4,4,4,4,4,4,4,4,4,4,4,4,4,4,4,4,4,4,4,4,4,4,4,4,4,4,4,4,4,4,4,4,4,4,4,4,4,4,4,4,4,4,4,4,4,4,4,4,4,4,4,4,4,4,4,4,4,4,4,4,4,4,4,4,0,0,0,0,0,0,0,0,0,0,0,0,0,0,0,0,0,0,4,4,4,4,4,4,4,4,4,4,4,4,0,0,0,0,4,4,4,4,4,4,4,4,4,4,4,4,4,4,4,4,0,0,0,0,0,0,0,0,0,0,0,0,0,0,0,0,4,4,4,4,4,4,4,4,4,4,4,4,0,0,0,0,4,4,4,4,4,4,4,4,4,4,4,4,0,0,4,4,4,4,4,4,4,4,4,4,4,4,0,0,0,0,0,0,0,0,0,0,0,0,0,0,0,0,0,0,4,4,4,4,4,4,4,4,4,4,4,4,0,0,4,4,4,4,4,4,4,4,4,4,4,4,4,4,4,4,4,4,4,4,0,0,0,0,4,4,4,4,4,4,4,4,4,4,4,4,0,0,0,0,0,0,0,0,0,0,0,0,0,0,0,0,4,4,4,4,4,4,4,4,4,4,0,0,0,0,4,4,4,4,4,4,4,4,4,4,4,4,4,4,4,4,4,4,4,4,4,4,4,4,4,4,0,0,0,0,0,0,0,0,0,0,0,0,0,0,0,0,0,0,0,0,0,0,0,0,0,0,0,0,0,0,4,4,4,4,4,4,4,4,4,4,4,4,4,4,4,4,4,4,4,4,4,4,4,4,
0,0,0,0,0,0,0,0,0,0,4,4,4,4,4,4,4,4,4,4,4,4,4,4,4,4,4,4,4,4,4,4,4,4,4,4,4,4,4,4,4,4,4,4,4,4,4,4,4,4,4,4,4,4,4,4,4,4,4,4,4,4,4,4,4,4,4,4,4,4,4,4,4,4,4,4,4,4,4,4,4,4,4,4,4,4,0,0,0,0,0,0,0,0,0,0,2,2,0,0,0,0,0,0,0,0,0,0,0,0,0,0,0,0,0,0,0,0,0,0,0,0,0,0,0,0,0,0,0,0,0,0,0,0,0,0,0,0,0,0,0,0,0,0,0,0,0,0,0,0,0,0,4,4,4,4,4,4,4,4,4,4,4,4,0,0,0,0,4,4,4,4,4,4,4,4,4,4,4,4,0,0,4,4,4,4,4,4,4,4,4,4,4,4,0,0,0,0,0,0,0,0,2,2,0,0,0,0,0,0,0,0,4,4,4,4,4,4,4,4,4,4,4,4,0,0,0,0,0,0,0,0,0,0,0,0,0,0,0,0,0,0,0,0,0,0,0,0,0,0,0,0,0,0,0,0,0,0,0,0,0,0,0,0,0,0,0,0,0,0,0,0,0,0,2,2,0,0,4,4,4,4,4,4,4,4,4,4,0,0,0,0,4,4,4,4,4,4,4,4,4,4,4,4,4,4,4,4,4,4,4,4,4,4,4,4,4,4,4,4,4,4,4,4,4,4,4,4,4,4,4,4,4,4,2,2,0,0,0,0,2,2,0,0,0,0,2,2,4,4,4,4,4,4,4,4,4,4,4,4,4,4,4,4,4,4,4,4,4,4,4,4,
0,0,0,0,0,0,0,0,0,4,4,4,4,4,4,4,4,4,4,4,4,4,4,4,4,4,4,4,4,4,4,4,4,4,4,4,4,4,4,4,4,4,4,4,4,4,4,4,4,4,4,4,4,4,4,4,4,4,4,4,4,4,4,4,4,4,4,4,4,4,4,4,4,4,4,4,4,4,4,4,4,4,4,4,4,4,0,0,0,0,0,0,0,0,0,0,0,0,0,0,0,0,0,0,0,0,0,0,0,0,0,0,0,0,0,0,0,0,0,0,0,0,0,0,0,0,0,0,0,0,0,0,0,0,0,0,0,0,0,0,0,0,0,0,0,0,0,0,0,0,0,0,4,4,4,4,4,4,4,4,4,4,4,4,0,0,0,0,4,4,4,4,4,4,4,4,4,4,4,4,0,0,4,4,4,4,4,4,4,4,4,4,4,4,0,0,0,0,0,0,0,0,0,0,0,0,0,0,0,0,0,0,4,4,4,4,4,4,4,4,4,4,4,4,0,0,0,0,0,0,0,0,0,0,0,0,0,0,0,0,0,0,0,0,0,0,0,0,0,0,0,0,0,0,0,0,0,0,0,0,0,0,0,0,0,0,0,0,0,0,0,0,0,0,0,0,0,0,4,4,4,4,4,4,4,4,4,4,0,0,0,0,4,4,4,4,4,4,4,4,4,4,4,4,4,4,4,4,4,4,4,4,4,4,4,4,4,4,4,4,4,4,4,4,4,4,4,4,4,4,4,4,4,4,0,0,0,0,0,0,0,0,0,0,0,0,0,0,4,4,4,4,4,4,4,4,4,4,4,4,4,4,4,4,4,4,4,4,4,4,4,4,
0,0,0,0,0,0,0,0,4,4,4,4,4,4,4,4,4,4,4,4,4,4,4,4,4,4,4,4,4,4,4,4,4,4,4,4,4,4,4,4,4,4,4,4,4,4,4,4,4,4,4,4,4,4,4,4,4,4,4,4,4,4,4,4,4,4,4,4,4,4,4,4,4,4,4,4,4,4,4,4,4,4,4,4,4,4,0,0,0,0,2,2,0,0,0,0,0,0,0,0,0,0,2,2,4,4,4,4,4,4,4,4,4,4,4,4,0,0,0,0,4,4,4,4,4,4,4,4,4,4,4,4,4,4,4,4,2,2,0,0,2,2,0,0,0,0,0,0,0,0,0,0,4,4,4,4,4,4,4,4,4,4,4,4,0,0,0,0,4,4,4,4,4,4,4,4,4,4,4,4,0,0,4,4,4,4,4,4,4,4,4,4,4,4,0,0,2,2,0,0,0,0,0,0,0,0,0,0,2,2,0,0,4,4,4,4,4,4,4,4,4,4,4,4,4,4,4,4,4,4,4,4,4,4,4,4,4,4,4,4,4,4,4,4,4,4,0,0,0,0,4,4,4,4,4,4,4,4,4,4,4,4,2,2,0,0,0,0,0,0,0,0,0,0,0,0,0,0,4,4,4,4,4,4,4,4,4,4,0,0,0,0,4,4,4,4,4,4,4,4,4,4,4,4,4,4,4,4,4,4,4,4,4,4,4,4,4,4,4,4,4,4,4,4,4,4,4,4,4,4,4,4,4,4,0,0,0,0,0,0,0,0,0,0,0,0,0,0,4,4,4,4,4,4,4,4,4,4,4,4,4,4,4,4,4,4,4,4,4,4,4,4,
0,0,0,0,0,0,0,4,4,4,4,4,4,4,4,4,4,4,4,4,4,4,4,4,4,4,4,4,4,4,4,4,4,4,4,4,4,4,4,4,4,4,4,4,4,4,4,4,4,4,4,4,4,4,4,4,4,4,4,4,4,4,4,4,4,4,4,4,4,4,4,4,4,4,4,4,4,4,4,4,4,4,4,4,4,4,0,0,0,0,0,0,0,0,0,0,0,0,0,0,0,0,0,0,4,4,4,4,4,4,4,4,4,4,4,4,0,0,0,0,4,4,4,4,4,4,4,4,4,4,4,4,4,4,4,4,0,0,0,0,0,0,0,0,0,0,0,0,0,0,0,0,4,4,4,4,4,4,4,4,4,4,4,4,0,0,0,0,4,4,4,4,4,4,4,4,4,4,4,4,0,0,4,4,4,4,4,4,4,4,4,4,4,4,0,0,0,0,0,0,0,0,0,0,0,0,0,0,0,0,0,0,4,4,4,4,4,4,4,4,4,4,4,4,4,4,4,4,4,4,4,4,4,4,4,4,4,4,4,4,4,4,4,4,4,4,0,0,0,0,4,4,4,4,4,4,4,4,4,4,4,4,0,0,0,0,0,0,0,0,0,0,0,0,0,0,0,0,4,4,4,4,4,4,4,4,4,4,0,0,0,0,4,4,4,4,4,4,4,4,4,4,4,4,4,4,4,4,4,4,4,4,4,4,4,4,4,4,4,4,4,4,4,4,4,4,4,4,4,4,4,4,4,4,0,0,0,0,0,0,0,0,0,0,0,0,0,0,4,4,4,4,4,4,4,4,4,4,4,4,4,4,4,4,4,4,4,4,4,4,4,4,
0,0,0,0,0,0,4,4,4,4,4,4,4,4,4,4,4,4,4,4,4,4,4,4,4,4,4,4,4,4,4,4,4,4,4,4,4,4,4,4,4,4,4,4,4,4,4,4,4,4,4,4,4,4,4,4,4,4,4,4,4,4,4,4,4,4,4,4,4,4,4,4,4,4,4,4,4,4,4,4,4,4,4,4,4,4,0,0,0,0,0,0,0,0,2,2,0,0,0,0,0,0,0,0,4,4,4,4,4,4,4,4,4,4,4,4,0,0,0,0,4,4,4,4,4,4,4,4,4,4,4,4,4,4,4,4,0,0,0,0,0,0,0,0,0,0,0,0,0,0,0,0,4,4,4,4,4,4,4,4,4,4,4,4,0,0,0,0,4,4,4,4,4,4,4,4,4,4,4,4,0,0,4,4,4,4,4,4,4,4,4,4,4,4,0,0,0,0,0,0,2,2,0,0,2,2,0,0,0,0,0,0,4,4,4,4,4,4,4,4,4,4,4,4,4,4,4,4,4,4,4,4,4,4,4,4,4,4,4,4,4,4,4,4,4,4,0,0,0,0,4,4,4,4,4,4,4,4,4,4,4,4,0,0,0,0,0,0,0,0,0,0,2,2,0,0,0,0,4,4,4,4,4,4,4,4,4,4,0,0,0,0,4,4,4,4,4,4,4,4,4,4,4,4,4,4,4,4,4,4,4,4,4,4,4,4,4,4,4,4,4,4,4,4,4,4,4,4,4,4,4,4,4,4,0,0,0,0,2,2,0,0,2,2,0,0,0,0,4,4,4,4,4,4,4,4,4,4,4,4,4,4,4,4,4,4,4,4,4,4,4,4,
0,0,0,0,0,0,4,4,4,4,4,4,4,4,4,4,4,4,4,4,4,4,4,4,4,4,4,4,4,4,4,4,4,4,4,4,4,4,4,4,4,4,4,4,4,4,4,4,4,4,4,4,4,4,4,4,4,4,4,4,4,4,4,4,4,4,4,4,4,4,4,4,4,4,4,4,4,4,4,4,4,4,4,4,4,4,0,0,0,0,0,0,0,0,0,0,0,0,0,0,0,0,0,0,4,4,4,4,4,4,4,4,4,4,4,4,0,0,0,0,4,4,4,4,4,4,4,4,4,4,4,4,4,4,4,4,0,0,0,0,0,0,0,0,0,0,0,0,0,0,0,0,4,4,4,4,4,4,4,4,4,4,4,4,0,0,0,0,4,4,4,4,4,4,4,4,4,4,4,4,0,0,4,4,4,4,4,4,4,4,4,4,4,4,0,0,0,0,0,0,0,0,0,0,0,0,0,0,0,0,0,0,4,4,4,4,4,4,4,4,4,4,4,4,4,4,4,4,4,4,4,4,4,4,4,4,4,4,4,4,4,4,4,4,4,4,0,0,0,0,4,4,4,4,4,4,4,4,4,4,4,4,0,0,0,0,0,0,0,0,0,0,0,0,0,0,0,0,4,4,4,4,4,4,4,4,4,4,0,0,0,0,4,4,4,4,4,4,4,4,4,4,4,4,4,4,4,4,4,4,4,4,4,4,4,4,4,4,4,4,4,4,4,4,4,4,4,4,4,4,4,4,4,4,0,0,0,0,0,0,0,0,0,0,0,0,0,0,4,4,4,4,4,4,4,4,4,4,4,4,4,4,4,4,4,4,4,4,4,4,4,4,
0,0,0,0,0,4,4,4,4,4,4,4,4,4,4,4,4,4,4,4,4,4,4,4,4,4,4,4,4,4,4,4,4,4,4,4,4,4,4,4,4,4,4,4,4,4,4,4,4,4,4,4,4,4,4,4,4,4,4,4,4,4,4,4,4,4,4,4,4,4,4,4,4,4,4,4,4,4,4,4,4,4,4,4,4,4,0,0,0,0,0,0,0,0,0,0,0,0,2,2,0,0,0,0,4,4,4,4,4,4,4,4,4,4,4,4,0,0,0,0,4,4,4,4,4,4,4,4,4,4,4,4,4,4,4,4,0,0,0,0,0,0,0,0,0,0,2,2,0,0,0,0,4,4,4,4,4,4,4,4,4,4,4,4,0,0,0,0,4,4,4,4,4,4,4,4,4,4,4,4,0,0,4,4,4,4,4,4,4,4,4,4,4,4,0,0,0,0,0,0,0,0,0,0,0,0,0,0,0,0,0,0,4,4,4,4,4,4,4,4,4,4,4,4,4,4,4,4,4,4,4,4,4,4,4,4,4,4,4,4,4,4,4,4,4,4,0,0,0,0,4,4,4,4,4,4,4,4,4,4,4,4,0,0,0,0,2,2,0,0,0,0,0,0,0,0,0,0,4,4,4,4,4,4,4,4,4,4,0,0,0,0,4,4,4,4,4,4,4,4,4,4,4,4,0,0,0,0,0,0,0,0,0,0,4,4,4,4,4,4,4,4,4,4,4,4,4,4,4,4,4,4,4,4,2,2,0,0,0,0,0,0,0,0,0,0,2,2,4,4,4,4,4,4,4,4,4,4,4,4,4,4,4,4,4,4,4,4,4,4,4,4,
0,0,0,0,0,4,4,4,4,4,4,4,4,4,4,4,4,4,4,4,4,4,4,4,4,4,4,4,4,4,4,4,4,4,4,4,4,4,4,4,4,4,4,4,4,4,4,4,4,4,4,4,4,4,4,4,4,4,4,4,4,4,4,4,4,4,4,4,4,4,4,4,4,4,4,4,4,4,4,4,4,4,4,4,4,4,0,0,0,0,0,0,0,0,0,0,0,0,0,0,0,0,0,0,4,4,4,4,4,4,4,4,4,4,4,4,0,0,0,0,4,4,4,4,4,4,4,4,4,4,4,4,4,4,4,4,0,0,0,0,0,0,0,0,0,0,0,0,0,0,0,0,4,4,4,4,4,4,4,4,4,4,4,4,0,0,0,0,4,4,4,4,4,4,4,4,4,4,4,4,0,0,4,4,4,4,4,4,4,4,4,4,4,4,0,0,0,0,0,0,0,0,0,0,0,0,0,0,0,0,0,0,4,4,4,4,4,4,4,4,4,4,4,4,4,4,4,4,4,4,4,4,4,4,4,4,4,4,4,4,4,4,4,4,4,4,0,0,0,0,4,4,4,4,4,4,4,4,4,4,4,4,0,0,0,0,0,0,0,0,0,0,0,0,0,0,0,0,4,4,4,4,4,4,4,4,4,4,0,0,0,0,4,4,4,4,4,4,4,4,4,4,4,4,0,0,0,0,0,0,0,0,0,0,4,4,4,4,4,4,4,4,4,4,4,4,4,4,4,4,4,4,4,4,0,0,0,0,0,0,0,0,0,0,0,0,0,0,4,4,4,4,4,4,4,4,4,4,4,4,4,4,4,4,4,4,4,4,4,4,4,4,
0,0,0,0,4,4,4,4,4,4,4,4,4,4,4,4,4,4,4,4,4,4,4,4,4,4,4,4,4,4,4,4,4,4,4,4,4,4,4,4,4,4,4,4,4,4,4,4,4,4,4,4,4,4,4,4,4,4,4,4,4,4,4,4,4,4,4,4,4,4,4,4,4,4,4,4,4,4,4,4,4,4,4,4,4,4,0,0,2,2,0,0,0,0,0,0,0,0,0,0,0,0,2,2,4,4,4,4,4,4,4,4,4,4,4,4,0,0,0,0,4,4,4,4,4,4,4,4,4,4,4,4,4,4,4,4,0,0,0,0,2,2,0,0,0,0,0,0,0,0,0,0,4,4,4,4,4,4,4,4,4,4,4,4,0,0,0,0,4,4,4,4,4,4,4,4,4,4,4,4,0,0,4,4,4,4,4,4,4,4,4,4,4,4,0,0,2,2,0,0,0,0,0,0,0,0,0,0,2,2,0,0,4,4,4,4,4,4,4,4,4,4,4,4,4,4,4,4,4,4,4,4,4,4,4,4,4,4,4,4,4,4,4,4,4,4,0,0,0,0,4,4,4,4,4,4,4,4,4,4,4,4,0,0,0,0,0,0,0,0,2,2,0,0,0,0,0,0,0,0,0,0,0,0,0,0,0,0,0,0,0,0,4,4,4,4,4,4,4,4,4,4,4,4,0,0,0,0,0,0,0,0,0,0,0,0,0,0,0,0,0,0,0,0,0,0,0,0,0,0,0,0,0,0,0,0,0,0,0,0,2,2,0,0,0,0,0,0,4,4,4,4,4,4,4,4,4,4,4,4,4,4,4,4,4,4,4,4,4,4,4,4,
0,0,0,0,4,4,4,4,4,4,4,4,4,4,4,4,4,4,4,4,4,4,4,4,4,4,4,4,4,4,4,4,4,4,4,4,4,4,4,4,4,4,4,4,4,4,4,4,4,4,4,4,4,4,4,4,4,4,4,4,4,4,4,4,4,4,4,4,4,4,4,4,4,4,4,4,4,4,4,4,4,4,4,4,4,4,0,0,0,0,0,0,0,0,0,0,0,0,0,0,0,0,0,0,4,4,4,4,4,4,4,4,4,4,4,4,0,0,0,0,4,4,4,4,4,4,4,4,4,4,4,4,4,4,4,4,0,0,0,0,0,0,0,0,0,0,0,0,0,0,0,0,4,4,4,4,4,4,4,4,4,4,4,4,0,0,0,0,4,4,4,4,4,4,4,4,4,4,4,4,0,0,4,4,4,4,4,4,4,4,4,4,4,4,0,0,0,0,0,0,0,0,0,0,0,0,0,0,0,0,0,0,4,4,4,4,4,4,4,4,4,4,4,4,4,4,4,4,4,4,4,4,4,4,4,4,4,4,4,4,4,4,4,4,4,4,0,0,0,0,4,4,4,4,4,4,4,4,4,4,4,4,0,0,0,0,0,0,0,0,0,0,0,0,0,0,0,0,0,0,0,0,0,0,0,0,0,0,0,0,0,0,4,4,4,4,4,4,4,4,4,4,4,4,0,0,0,0,0,0,0,0,0,0,0,0,0,0,0,0,0,0,0,0,0,0,0,0,0,0,0,0,0,0,0,0,0,0,0,0,0,0,0,0,0,0,0,0,4,4,4,4,4,4,4,4,4,4,4,4,4,4,4,4,4,4,4,4,4,4,4,4,
0,0,0,4,4,4,4,4,4,4,4,4,4,4,4,4,4,4,4,4,4,4,4,4,4,4,4,4,4,4,4,4,4,4,4,4,4,4,4,4,4,4,4,4,4,4,4,4,4,4,4,4,4,4,4,4,4,4,4,4,4,4,4,4,4,4,4,4,4,4,4,4,4,4,4,4,0,0,0,0,4,4,4,4,4,4,0,0,0,0,0,0,0,0,2,2,0,0,0,0,0,0,0,0,4,4,4,4,4,4,4,4,4,4,4,4,0,0,0,0,4,4,4,4,4,4,4,4,4,4,4,4,4,4,4,4,2,2,0,0,0,0,0,0,0,0,0,0,2,2,0,0,4,4,4,4,4,4,4,4,4,4,4,4,0,0,0,0,4,4,4,4,4,4,4,4,4,4,4,4,0,0,4,4,4,4,4,4,4,4,4,4,4,4,0,0,0,0,0,0,0,0,0,0,0,0,0,0,0,0,0,0,4,4,4,4,4,4,4,4,4,4,4,4,4,4,4,4,4,4,4,4,4,4,4,4,4,4,4,4,4,4,4,4,4,4,0,0,0,0,4,4,4,4,4,4,4,4,4,4,4,4,0,0,2,2,0,0,0,0,0,0,0,0,2,2,0,0,4,4,4,4,4,4,4,4,4,4,0,0,0,0,4,4,4,4,4,4,4,4,4,4,4,4,0,0,0,0,0,0,2,2,0,0,4,4,4,4,4,4,4,4,4,4,4,4,4,4,4,4,4,4,4,4,0,0,2,2,0,0,0,0,0,0,2,2,0,0,4,4,4,4,4,4,4,4,4,4,4,4,4,4,4,4,4,4,4,4,4,4,4,4,
0,0,0,4,4,4,4,4,4,4,4,4,4,4,4,4,4,4,4,4,4,4,4,4,4,4,4,4,4,4,4,4,4,4,4,4,4,4,4,4,4,4,4,4,4,4,4,4,4,4,4,4,4,4,4,4,4,4,4,4,4,4,4,4,4,4,4,4,4,4,4,4,4,4,4,4,0,0,0,0,4,4,4,4,4,4,0,0,0,0,0,0,0,0,0,0,0,0,0,0,0,0,0,0,4,4,4,4,4,4,4,4,4,4,4,4,0,0,0,0,4,4,4,4,4,4,4,4,4,4,4,4,4,4,4,4,0,0,0,0,0,0,0,0,0,0,0,0,0,0,0,0,4,4,4,4,4,4,4,4,4,4,4,4,0,0,0,0,4,4,4,4,4,4,4,4,4,4,4,4,0,0,4,4,4,4,4,4,4,4,4,4,4,4,0,0,0,0,0,0,0,0,0,0,0,0,0,0,0,0,0,0,4,4,4,4,4,4,4,4,4,4,4,4,4,4,4,4,4,4,4,4,4,4,4,4,4,4,4,4,4,4,4,4,4,4,0,0,0,0,4,4,4,4,4,4,4,4,4,4,4,4,0,0,0,0,0,0,0,0,0,0,0,0,0,0,0,0,4,4,4,4,4,4,4,4,4,4,0,0,0,0,4,4,4,4,4,4,4,4,4,4,4,4,0,0,0,0,0,0,0,0,0,0,4,4,4,4,4,4,4,4,4,4,4,4,4,4,4,4,4,4,4,4,0,0,0,0,0,0,0,0,0,0,0,0,0,0,4,4,4,4,4,4,4,4,4,4,4,4,4,4,4,4,4,4,4,4,4,4,4,4,
0,0,4,4,4,4,4,4,4,4,4,4,4,4,4,4,4,4,4,4,4,4,4,4,4,4,4,4,4,4,4,4,4,4,4,4,4,4,4,4,4,4,4,4,4,4,4,4,4,4,4,4,4,4,4,4,4,4,4,4,4,4,4,4,4,4,4,4,4,4,4,4,4,4,4,4,0,0,0,0,0,0,0,0,0,0,0,0,0,0,2,2,0,0,0,0,0,0,2,2,0,0,0,0,4,4,4,4,4,4,4,4,4,4,4,4,0,0,0,0,4,4,4,4,4,4,4,4,4,4,4,4,4,4,4,4,0,0,0,0,0,0,0,0,2,2,0,0,0,0,0,0,0,0,0,0,0,0,0,0,0,0,0,0,0,0,0,0,0,0,0,0,0,0,0,0,0,0,0,0,0,0,4,4,4,4,4,4,4,4,4,4,4,4,4,4,4,4,4,4,4,4,4,4,4,4,4,4,4,4,4,4,4,4,4,4,4,4,4,4,4,4,4,4,4,4,4,4,4,4,4,4,4,4,4,4,4,4,4,4,4,4,4,4,4,4,0,0,0,0,4,4,4,4,4,4,4,4,4,4,4,4,4,4,4,4,4,4,4,4,4,4,4,4,4,4,4,4,4,4,4,4,4,4,4,4,4,4,0,0,0,0,4,4,4,4,4,4,4,4,4,4,4,4,0,0,2,2,0,0,0,0,0,0,4,4,4,4,4,4,4,4,4,4,4,4,4,4,4,4,4,4,4,4,4,4,4,4,4,4,4,4,4,4,4,4,4,4,4,4,4,4,4,4,4,4,4,4,4,4,4,4,4,4,4,4,4,4,4,4,4,4,
0,0,4,4,4,4,4,4,4,4,4,4,4,4,4,4,4,4,4,4,4,4,4,4,4,4,4,4,4,4,4,4,4,4,4,4,4,4,4,4,4,4,4,4,4,4,4,4,4,4,4,4,4,4,4,4,4,4,4,4,4,4,4,4,4,4,4,4,4,4,4,4,4,4,4,4,0,0,0,0,0,0,0,0,0,0,0,0,0,0,0,0,0,0,0,0,0,0,0,0,0,0,0,0,4,4,4,4,4,4,4,4,4,4,4,4,0,0,0,0,4,4,4,4,4,4,4,4,4,4,4,4,4,4,4,4,0,0,0,0,0,0,0,0,0,0,0,0,0,0,0,0,0,0,0,0,0,0,0,0,0,0,0,0,0,0,0,0,0,0,0,0,0,0,0,0,0,0,0,0,0,0,4,4,4,4,4,4,4,4,4,4,4,4,4,4,4,4,4,4,4,4,4,4,4,4,4,4,4,4,4,4,4,4,4,4,4,4,4,4,4,4,4,4,4,4,4,4,4,4,4,4,4,4,4,4,4,4,4,4,4,4,4,4,4,4,0,0,0,0,4,4,4,4,4,4,4,4,4,4,4,4,4,4,4,4,4,4,4,4,4,4,4,4,4,4,4,4,4,4,4,4,4,4,4,4,4,4,0,0,0,0,4,4,4,4,4,4,4,4,4,4,4,4,0,0,0,0,0,0,0,0,0,0,4,4,4,4,4,4,4,4,4,4,4,4,4,4,4,4,4,4,4,4,4,4,4,4,4,4,4,4,4,4,4,4,4,4,4,4,4,4,4,4,4,4,4,4,4,4,4,4,4,4,4,4,4,4,4,4,4,4,
0,4,4,4,4,4,4,4,4,4,4,4,4,4,4,4,4,4,4,4,4,4,4,4,4,4,4,4,4,4,4,4,4,4,4,4,4,4,4,4,4,4,4,4,4,4,4,4,4,4,4,4,4,4,4,4,4,4,4,4,4,4,4,4,4,4,4,4,4,4,4,4,4,4,4,4,4,4,4,4,4,4,4,4,4,4,0,0,0,0,0,0,0,0,0,0,0,0,0,0,0,0,0,0,4,4,4,4,4,4,4,4,4,4,4,4,0,0,0,0,4,4,4,4,4,4,4,4,4,4,4,4,4,4,4,4,0,0,2,2,0,0,0,0,0,0,0,0,0,0,2,2,4,4,4,4,4,4,4,4,4,4,4,4,0,0,0,0,4,4,4,4,4,4,4,4,4,4,4,4,4,4,4,4,4,4,4,4,4,4,4,4,4,4,4,4,4,4,4,4,4,4,4,4,4,4,4,4,4,4,4,4,4,4,4,4,4,4,4,4,4,4,4,4,4,4,4,4,4,4,4,4,4,4,4,4,4,4,4,4,4,4,4,4,4,4,0,0,0,0,4,4,4,4,4,4,4,4,4,4,4,4,4,4,4,4,4,4,4,4,4,4,4,4,4,4,4,4,4,4,4,4,4,4,4,4,4,4,0,0,0,0,4,4,4,4,4,4,4,4,4,4,4,4,0,0,0,0,0,0,0,0,2,2,4,4,4,4,4,4,4,4,4,4,4,4,4,4,4,4,4,4,4,4,4,4,4,4,4,4,4,4,4,4,4,4,4,4,4,4,4,4,4,4,4,4,4,4,4,4,4,4,4,4,4,4,4,4,4,4,4,4,
0,4,4,4,4,4,4,4,4,4,4,4,4,4,4,4,4,4,4,4,4,4,4,4,4,4,4,4,4,4,4,4,4,4,4,4,4,4,4,4,4,4,4,4,4,4,4,4,4,4,4,4,4,4,4,4,4,4,4,4,4,4,4,4,4,4,4,4,4,4,4,4,4,4,4,4,4,4,4,4,4,4,4,4,4,4,0,0,0,0,0,0,0,0,0,0,0,0,0,0,0,0,0,0,4,4,4,4,4,4,4,4,4,4,4,4,0,0,0,0,4,4,4,4,4,4,4,4,4,4,4,4,4,4,4,4,0,0,0,0,0,0,0,0,0,0,0,0,0,0,0,0,4,4,4,4,4,4,4,4,4,4,4,4,0,0,0,0,4,4,4,4,4,4,4,4,4,4,4,4,4,4,4,4,4,4,4,4,4,4,4,4,4,4,4,4,4,4,4,4,4,4,4,4,4,4,4,4,4,4,4,4,4,4,4,4,4,4,4,4,4,4,4,4,4,4,4,4,4,4,4,4,4,4,4,4,4,4,4,4,4,4,4,4,4,4,0,0,0,0,4,4,4,4,4,4,4,4,4,4,4,4,4,4,4,4,4,4,4,4,4,4,4,4,4,4,4,4,4,4,4,4,4,4,4,4,4,4,0,0,0,0,4,4,4,4,4,4,4,4,4,4,4,4,0,0,0,0,0,0,0,0,0,0,4,4,4,4,4,4,4,4,4,4,4,4,4,4,4,4,4,4,4,4,4,4,4,4,4,4,4,4,4,4,4,4,4,4,4,4,4,4,4,4,4,4,4,4,4,4,4,4,4,4,4,4,4,4,4,4,4,4,
4,4,4,4,4,4,4,4,4,4,4,4,4,4,4,4,4,4,4,4,4,4,4,4,4,4,4,4,4,4,4,4,4,4,4,4,4,4,4,4,4,4,4,4,4,4,4,4,4,4,4,4,4,4,4,4,4,4,4,4,4,4,4,4,4,4,4,4,4,4,4,4,4,4,4,4,4,4,4,4,4,4,4,4,4,4,4,4,4,4,4,4,4,4,4,4,4,4,4,4,4,4,4,4,4,4,4,4,4,4,4,4,4,4,4,4,0,0,0,0,4,4,4,4,4,4,4,4,4,4,4,4,4,4,4,4,4,4,4,4,4,4,4,4,4,4,4,4,4,4,4,4,4,4,4,4,4,4,4,4,4,4,4,4,0,0,0,0,4,4,4,4,4,4,4,4,4,4,4,4,4,4,4,4,4,4,4,4,4,4,4,4,4,4,4,4,4,4,4,4,4,4,4,4,4,4,4,4,4,4,4,4,4,4,4,4,4,4,4,4,4,4,4,4,4,4,4,4,4,4,4,4,4,4,4,4,4,4,4,4,4,4,4,4,4,4,0,0,0,0,4,4,4,4,4,4,4,4,4,4,4,4,4,4,4,4,4,4,4,4,4,4,4,4,4,4,4,4,4,4,4,4,4,4,4,4,4,4,0,0,0,0,4,4,4,4,4,4,4,4,4,4,4,4,0,0,0,0,2,2,0,0,0,0,4,4,4,4,4,4,4,4,4,4,4,4,4,4,4,4,4,4,4,4,4,4,4,4,4,4,4,4,4,4,4,4,4,4,4,4,4,4,4,4,4,4,4,4,4,4,4,4,4,4,4,4,4,4,4,4,4,4,
4,4,4,4,4,4,4,4,4,4,4,4,4,4,4,4,4,4,4,4,4,4,4,4,4,4,4,4,4,4,4,4,4,4,4,4,4,4,4,4,4,4,4,4,4,4,4,4,4,4,4,4,4,4,4,4,4,4,4,4,4,4,4,4,4,4,4,4,4,4,4,4,4,4,4,4,4,4,4,4,4,4,4,4,4,4,4,4,4,4,4,4,4,4,4,4,4,4,4,4,4,4,4,4,4,4,4,4,4,4,4,4,4,4,4,4,0,0,0,0,4,4,4,4,4,4,4,4,4,4,4,4,4,4,4,4,4,4,4,4,4,4,4,4,4,4,4,4,4,4,4,4,4,4,4,4,4,4,4,4,4,4,4,4,0,0,0,0,4,4,4,4,4,4,4,4,4,4,4,4,4,4,4,4,4,4,4,4,4,4,4,4,4,4,4,4,4,4,4,4,4,4,4,4,4,4,4,4,4,4,4,4,4,4,4,4,4,4,4,4,4,4,4,4,4,4,4,4,4,4,4,4,4,4,4,4,4,4,4,4,4,4,4,4,4,4,0,0,0,0,4,4,4,4,4,4,4,4,4,4,4,4,4,4,4,4,4,4,4,4,4,4,4,4,4,4,4,4,4,4,4,4,4,4,4,4,4,4,0,0,0,0,4,4,4,4,4,4,4,4,4,4,4,4,0,0,0,0,0,0,0,0,0,0,4,4,4,4,4,4,4,4,4,4,4,4,4,4,4,4,4,4,4,4,4,4,4,4,4,4,4,4,4,4,4,4,4,4,4,4,4,4,4,4,4,4,4,4,4,4,4,4,4,4,4,4,4,4,4,4,4,4,
4,4,4,4,4,4,4,4,4,4,4,4,4,4,4,4,4,4,4,4,4,4,4,4,4,4,4,4,4,4,4,4,4,4,4,4,4,4,4,4,4,4,4,4,4,4,4,4,4,4,4,4,4,4,4,4,4,4,4,4,4,4,4,4,4,4,4,4,4,4,4,4,4,4,4,4,4,4,4,4,4,4,4,4,4,4,4,4,4,4,4,4,4,4,4,4,4,4,4,4,4,4,4,4,4,4,4,4,4,4,4,4,4,4,4,4,0,0,0,0,4,4,4,4,4,4,4,4,4,4,4,4,4,4,4,4,4,4,4,4,4,4,4,4,4,4,4,4,4,4,4,4,4,4,4,4,4,4,4,4,4,4,4,4,0,0,0,0,4,4,4,4,4,4,4,4,4,4,4,4,4,4,4,4,4,4,4,4,4,4,4,4,4,4,4,4,4,4,4,4,4,4,4,4,4,4,4,4,4,4,4,4,4,4,4,4,4,4,4,4,4,4,4,4,4,4,4,4,4,4,4,4,4,4,4,4,4,4,4,4,4,4,4,4,4,4,0,0,0,0,4,4,4,4,4,4,4,4,4,4,4,4,4,4,4,4,4,4,4,4,4,4,4,4,4,4,4,4,4,4,4,4,4,4,4,4,4,4,0,0,0,0,4,4,4,4,4,4,4,4,4,4,4,4,2,2,0,0,0,0,0,0,0,0,4,4,4,4,4,4,4,4,4,4,4,4,4,4,4,4,4,4,4,4,0,0,0,0,0,0,0,0,0,0,0,0,0,0,0,0,0,0,4,4,4,4,4,4,4,4,4,4,4,4,4,4,4,4,4,4,4,4,
4,4,4,4,4,4,4,4,4,4,4,4,4,4,4,4,4,4,4,4,4,4,4,4,4,4,4,4,4,4,4,4,4,4,4,4,4,4,4,4,4,4,4,4,4,4,4,4,4,4,4,4,4,4,4,4,4,4,4,4,4,4,4,4,4,4,4,4,4,4,4,4,4,4,4,4,4,4,4,4,4,4,4,4,4,4,4,4,4,4,4,4,4,4,4,4,4,4,4,4,4,4,4,4,4,4,4,4,4,4,4,4,4,4,4,4,0,0,0,0,4,4,4,4,4,4,4,4,4,4,4,4,4,4,4,4,4,4,4,4,4,4,4,4,4,4,4,4,4,4,4,4,4,4,4,4,4,4,4,4,4,4,4,4,0,0,0,0,4,4,4,4,4,4,4,4,4,4,4,4,4,4,4,4,4,4,4,4,4,4,4,4,4,4,4,4,4,4,4,4,4,4,4,4,4,4,4,4,4,4,4,4,4,4,4,4,4,4,4,4,4,4,4,4,4,4,4,4,4,4,4,4,4,4,4,4,4,4,4,4,4,4,4,4,4,4,0,0,0,0,4,4,4,4,4,4,4,4,4,4,4,4,4,4,4,4,4,4,4,4,4,4,4,4,4,4,4,4,4,4,4,4,4,4,4,4,4,4,0,0,0,0,4,4,4,4,4,4,4,4,4,4,4,4,0,0,0,0,0,0,0,0,0,0,4,4,4,4,4,4,4,4,4,4,4,4,4,4,4,4,4,4,4,4,0,0,0,0,0,0,0,0,0,0,0,0,0,0,0,0,0,0,4,4,4,4,4,4,4,4,4,4,4,4,4,4,4,4,4,4,4,4,
0,4,4,4,4,4,4,4,4,4,4,4,4,4,4,4,4,4,4,4,4,4,4,4,4,4,4,4,4,4,4,4,4,4,4,4,4,4,4,4,4,4,4,4,4,4,4,4,4,4,4,4,4,4,4,4,4,4,4,4,4,4,4,4,4,4,4,4,4,4,4,4,4,4,4,4,4,4,4,4,4,4,4,4,4,4,4,4,4,4,4,4,4,4,4,4,4,4,4,4,4,4,4,4,4,4,4,4,4,4,4,4,4,4,4,4,0,0,0,0,4,4,4,4,4,4,4,4,4,4,4,4,4,4,4,4,4,4,4,4,4,4,4,4,4,4,4,4,4,4,4,4,4,4,4,4,4,4,4,4,4,4,4,4,0,0,0,0,4,4,4,4,4,4,4,4,4,4,4,4,4,4,4,4,4,4,4,4,4,4,4,4,4,4,4,4,4,4,4,4,4,4,4,4,4,4,4,4,4,4,4,4,4,4,4,4,4,4,4,4,4,4,4,4,4,4,4,4,4,4,4,4,4,4,4,4,4,4,4,4,4,4,4,4,4,4,0,0,0,0,4,4,4,4,4,4,4,4,4,4,4,4,4,4,4,4,4,4,4,4,4,4,4,4,4,4,4,4,4,4,4,4,4,4,4,4,4,4,0,0,0,0,4,4,4,4,4,4,4,4,4,4,4,4,0,0,0,0,0,0,2,2,0,0,0,0,0,0,0,0,0,0,0,0,0,0,0,0,0,0,0,0,0,0,0,0,0,0,0,0,0,0,0,0,0,0,0,0,0,0,0,0,4,4,4,4,4,4,4,4,4,4,4,4,4,4,4,4,4,4,4,4,
0,4,4,4,4,4,4,4,4,4,4,4,4,4,4,4,4,4,4,4,4,4,4,4,4,4,4,4,4,4,4,4,4,4,4,4,4,4,4,4,4,4,4,4,4,4,4,4,4,4,4,4,4,4,4,4,4,4,4,4,4,4,4,4,4,4,4,4,4,4,4,4,4,4,4,4,4,4,4,4,4,4,4,4,4,4,4,4,4,4,4,4,4,4,4,4,4,4,4,4,4,4,4,4,4,4,4,4,4,4,4,4,4,4,4,4,0,0,0,0,4,4,4,4,4,4,4,4,4,4,4,4,4,4,4,4,4,4,4,4,4,4,4,4,4,4,4,4,4,4,4,4,4,4,4,4,4,4,4,4,4,4,4,4,0,0,0,0,4,4,4,4,4,4,4,4,4,4,4,4,4,4,4,4,4,4,4,4,4,4,4,4,4,4,4,4,4,4,4,4,4,4,4,4,4,4,4,4,4,4,4,4,4,4,4,4,4,4,4,4,4,4,4,4,4,4,4,4,4,4,4,4,4,4,4,4,4,4,4,4,4,4,4,4,4,4,0,0,0,0,4,4,4,4,4,4,4,4,4,4,4,4,4,4,4,4,4,4,4,4,4,4,4,4,4,4,4,4,4,4,4,4,4,4,4,4,4,4,0,0,0,0,4,4,4,4,4,4,4,4,4,4,4,4,0,0,0,0,0,0,0,0,0,0,0,0,0,0,0,0,0,0,0,0,0,0,0,0,0,0,0,0,0,0,0,0,0,0,0,0,0,0,0,0,0,0,0,0,0,0,0,0,4,4,4,4,4,4,4,4,4,4,4,4,4,4,4,4,4,4,4,4,
0,0,4,4,4,4,4,4,4,4,4,4,4,4,4,4,4,4,4,4,4,4,4,4,4,4,4,4,4,4,4,4,4,4,4,4,4,4,4,4,4,4,4,4,4,4,4,4,4,4,4,4,4,4,4,4,4,4,4,4,4,4,4,4,4,4,4,4,4,4,4,4,4,4,4,4,4,4,4,4,4,4,4,4,4,4,4,4,4,4,4,4,4,4,4,4,4,4,4,4,4,4,4,4,4,4,4,4,4,4,4,4,4,4,4,4,0,0,0,0,4,4,4,4,4,4,4,4,4,4,4,4,4,4,4,4,4,4,4,4,4,4,4,4,4,4,4,4,4,4,4,4,4,4,4,4,4,4,4,4,4,4,4,4,0,0,0,0,4,4,4,4,4,4,4,4,4,4,4,4,4,4,4,4,4,4,4,4,4,4,4,4,4,4,0,0,0,0,0,0,0,0,0,0,0,0,0,0,0,0,0,0,0,0,0,0,0,0,0,0,4,4,4,4,4,4,4,4,4,4,4,4,4,4,4,4,4,4,4,4,4,4,4,4,4,4,0,0,0,0,4,4,4,4,4,4,4,4,4,4,4,4,4,4,4,4,4,4,4,4,4,4,4,4,4,4,4,4,4,4,4,4,4,4,4,4,4,4,0,0,0,0,4,4,4,4,4,4,4,4,4,4,4,4,0,0,2,2,0,0,0,0,0,0,4,4,4,4,4,4,4,4,4,4,4,4,4,4,4,4,4,4,4,4,2,2,0,0,2,2,0,0,2,2,0,0,0,0,0,0,0,0,4,4,4,4,4,4,4,4,4,4,4,4,4,4,4,4,4,4,4,4,
0,0,4,4,4,4,4,4,4,4,4,4,4,4,4,4,4,4,4,4,4,4,4,4,4,4,4,4,4,4,4,4,4,4,4,4,4,4,4,4,4,4,4,4,4,4,4,4,4,4,4,4,4,4,4,4,4,4,4,4,4,4,4,4,4,4,4,4,4,4,4,4,4,4,4,4,4,4,4,4,4,4,4,4,4,4,4,4,4,4,4,4,4,4,4,4,4,4,4,4,4,4,4,4,4,4,4,4,4,4,4,4,4,4,4,4,0,0,0,0,4,4,4,4,4,4,4,4,4,4,4,4,4,4,4,4,4,4,4,4,4,4,4,4,4,4,4,4,4,4,4,4,4,4,4,4,4,4,4,4,4,4,4,4,0,0,0,0,4,4,4,4,4,4,4,4,4,4,4,4,4,4,4,4,4,4,4,4,4,4,4,4,4,4,0,0,0,0,0,0,0,0,0,0,0,0,0,0,0,0,0,0,0,0,0,0,0,0,0,0,4,4,4,4,4,4,4,4,4,4,4,4,4,4,4,4,4,4,4,4,4,4,4,4,4,4,0,0,0,0,4,4,4,4,4,4,4,4,4,4,4,4,4,4,4,4,4,4,4,4,4,4,4,4,4,4,4,4,4,4,4,4,4,4,4,4,4,4,0,0,0,0,4,4,4,4,4,4,4,4,4,4,4,4,0,0,0,0,0,0,0,0,0,0,4,4,4,4,4,4,4,4,4,4,4,4,4,4,4,4,4,4,4,4,0,0,0,0,0,0,0,0,0,0,0,0,0,0,0,0,0,0,4,4,4,4,4,4,4,4,4,4,4,4,4,4,4,4,4,4,4,4,
0,0,0,4,4,4,4,4,4,4,4,4,4,4,4,4,4,4,4,4,4,4,4,4,4,4,4,4,4,4,4,4,4,4,4,4,4,4,4,4,4,4,4,4,4,4,4,4,4,4,4,4,4,4,4,4,4,4,4,4,4,4,4,4,4,4,4,4,4,4,4,4,4,4,4,4,4,4,4,4,4,4,4,4,4,4,4,4,4,4,4,4,4,4,4,4,4,4,4,4,4,4,4,4,4,4,4,4,4,4,4,4,4,4,4,4,0,0,0,0,4,4,4,4,4,4,4,4,4,4,4,4,4,4,4,4,4,4,4,4,4,4,4,4,4,4,4,4,4,4,4,4,4,4,4,4,4,4,4,4,4,4,4,4,0,0,0,0,4,4,4,4,4,4,4,4,4,4,4,4,4,4,4,4,4,4,4,4,4,4,4,4,4,4,0,0,0,0,0,0,0,0,0,0,0,0,0,0,0,0,0,0,0,0,0,0,0,0,0,0,4,4,4,4,4,4,4,4,4,4,4,4,4,4,4,4,4,4,4,4,4,4,4,4,4,4,0,0,0,0,4,4,4,4,4,4,4,4,4,4,4,4,4,4,4,4,4,4,4,4,4,4,4,4,4,4,4,4,4,4,4,4,4,4,4,4,4,4,0,0,0,0,4,4,4,4,4,4,4,4,4,4,4,4,4,4,4,4,4,4,4,4,4,4,4,4,4,4,4,4,4,4,4,4,4,4,4,4,4,4,4,4,4,4,0,0,0,0,0,0,0,0,0,0,0,0,0,0,2,2,0,0,4,4,4,4,4,4,4,4,4,4,4,4,4,4,4,4,4,4,4,4,
0,0,0,4,4,4,4,4,4,4,4,4,4,4,4,4,4,4,4,4,4,4,4,4,4,4,4,4,4,4,4,4,4,4,4,4,4,4,4,4,4,4,4,4,4,4,4,4,4,4,4,4,4,4,4,4,4,4,4,4,4,4,4,4,4,4,4,4,4,4,4,4,4,4,4,4,4,4,4,4,4,4,4,4,4,4,4,4,4,4,4,4,4,4,4,4,4,4,4,4,4,4,4,4,4,4,4,4,4,4,4,4,4,4,4,4,0,0,0,0,4,4,4,4,4,4,4,4,4,4,4,4,4,4,4,4,4,4,4,4,4,4,4,4,4,4,4,4,4,4,4,4,4,4,4,4,4,4,4,4,4,4,4,4,0,0,0,0,4,4,4,4,4,4,4,4,4,4,4,4,4,4,4,4,4,4,4,4,4,4,4,4,4,4,0,0,0,0,0,0,0,0,0,0,0,0,0,0,0,0,0,0,0,0,0,0,0,0,0,0,4,4,4,4,4,4,4,4,4,4,4,4,4,4,4,4,4,4,4,4,4,4,4,4,4,4,0,0,0,0,4,4,4,4,4,4,4,4,4,4,4,4,4,4,4,4,4,4,4,4,4,4,4,4,4,4,4,4,4,4,4,4,4,4,4,4,4,4,0,0,0,0,4,4,4,4,4,4,4,4,4,4,4,4,4,4,4,4,4,4,4,4,4,4,4,4,4,4,4,4,4,4,4,4,4,4,4,4,4,4,4,4,4,4,0,0,0,0,0,0,0,0,0,0,0,0,0,0,0,0,0,0,4,4,4,4,4,4,4,4,4,4,4,4,4,4,4,4,4,4,4,4,
0,0,0,0,4,4,4,4,4,4,4,4,4,4,4,4,4,4,4,4,4,4,4,4,4,4,4,4,4,4,4,4,4,4,4,4,4,4,4,4,4,4,4,4,4,4,4,4,4,4,4,4,4,4,4,4,4,4,4,4,4,4,4,4,4,4,4,4,4,4,4,4,4,4,4,4,4,4,4,4,4,4,4,4,4,4,4,4,4,4,4,4,4,4,4,4,4,4,4,4,4,4,4,4,4,4,4,4,4,4,4,4,4,4,4,4,0,0,0,0,4,4,4,4,4,4,4,4,4,4,4,4,4,4,4,4,4,4,4,4,4,4,4,4,4,4,4,4,4,4,4,4,4,4,4,4,4,4,4,4,4,4,4,4,0,0,0,0,4,4,4,4,4,4,4,4,4,4,4,4,4,4,4,4,4,4,4,4,4,4,4,4,4,4,0,0,0,0,0,0,0,0,0,0,0,0,2,2,0,0,0,0,0,0,0,0,0,0,0,0,4,4,4,4,4,4,0,0,0,0,4,4,4,4,4,4,4,4,4,4,4,4,4,4,4,4,0,0,0,0,4,4,4,4,4,4,4,4,4,4,4,4,4,4,4,4,0,0,0,0,0,0,0,0,0,0,0,0,0,0,4,4,4,4,4,4,4,4,0,0,0,0,4,4,4,4,4,4,4,4,4,4,4,4,4,4,4,4,4,4,4,4,4,4,4,4,4,4,4,4,4,4,4,4,4,4,4,4,4,4,4,4,4,4,0,0,0,0,0,0,0,0,0,0,0,0,0,0,0,0,0,0,4,4,4,4,4,4,4,4,4,4,4,4,4,4,4,4,4,4,4,4,
0,0,0,0,4,4,4,4,4,4,4,4,4,4,4,4,4,4,4,4,4,4,4,4,4,4,4,4,4,4,4,4,4,4,4,4,4,4,4,4,4,4,4,4,4,4,4,4,4,4,4,4,4,4,4,4,4,4,4,4,4,4,4,4,4,4,4,4,4,4,4,4,4,4,4,4,4,4,4,4,4,4,4,4,4,4,4,4,4,4,4,4,4,4,4,4,4,4,4,4,4,4,4,4,4,4,4,4,4,4,4,4,4,4,4,4,0,0,0,0,4,4,4,4,4,4,4,4,4,4,4,4,4,4,4,4,4,4,4,4,4,4,4,4,4,4,4,4,4,4,4,4,4,4,4,4,4,4,4,4,4,4,4,4,0,0,0,0,4,4,4,4,4,4,4,4,4,4,4,4,4,4,4,4,4,4,4,4,4,4,4,4,4,4,0,0,0,0,0,0,0,0,0,0,0,0,0,0,0,0,0,0,0,0,0,0,0,0,0,0,4,4,4,4,4,4,0,0,0,0,4,4,4,4,4,4,4,4,4,4,4,4,4,4,4,4,0,0,0,0,4,4,4,4,4,4,4,4,4,4,4,4,4,4,4,4,0,0,0,0,0,0,0,0,0,0,0,0,0,0,4,4,4,4,4,4,4,4,0,0,0,0,4,4,4,4,4,4,4,4,4,4,4,4,4,4,4,4,4,4,4,4,4,4,4,4,4,4,4,4,4,4,4,4,4,4,4,4,4,4,4,4,4,4,0,0,0,0,0,0,0,0,0,0,0,0,0,0,0,0,0,0,4,4,4,4,4,4,4,4,4,4,4,4,4,4,4,4,4,4,4,4,
0,0,0,0,0,4,4,4,4,4,4,4,4,4,4,4,4,4,4,4,4,4,4,4,4,4,4,4,4,4,4,4,4,4,4,4,4,4,4,4,4,4,4,4,4,4,4,4,4,4,4,4,4,4,4,4,4,4,4,4,4,4,4,4,4,4,4,4,4,4,4,4,4,4,4,4,4,4,0,0,0,0,0,0,0,0,0,0,0,0,0,0,0,0,0,0,4,4,4,4,4,4,4,4,4,4,4,4,4,4,4,4,4,4,4,4,0,0,0,0,4,4,4,4,4,4,4,4,4,4,4,4,0,0,0,0,0,0,0,0,0,0,0,0,0,0,0,0,4,4,4,4,4,4,4,4,4,4,4,4,4,4,4,4,0,0,0,0,4,4,4,4,4,4,4,4,4,4,4,4,4,4,4,4,4,4,4,4,4,4,4,4,4,4,0,0,0,0,0,0,2,2,0,0,0,0,0,0,0,0,0,0,2,2,0,0,0,0,0,0,0,0,0,0,0,0,0,0,0,0,0,0,0,0,4,4,4,4,4,4,4,4,4,4,4,4,0,0,0,0,4,4,4,4,4,4,4,4,4,4,4,4,4,4,4,4,0,0,0,0,0,0,0,0,0,0,0,0,0,0,4,4,4,4,4,4,4,4,0,0,0,0,4,4,4,4,4,4,4,4,4,4,4,4,4,4,4,4,4,4,4,4,4,4,4,4,4,4,4,4,4,4,4,4,4,4,4,4,4,4,4,4,4,4,0,0,0,0,2,2,0,0,0,0,2,2,0,0,0,0,0,0,4,4,4,4,4,4,4,4,4,4,4,4,4,4,4,4,4,4,4,4,
0,0,0,0,0,4,4,4,4,4,4,4,4,4,4,4,4,4,4,4,4,4,4,4,4,4,4,4,4,4,4,4,4,4,4,4,4,4,4,4,4,4,4,4,4,4,4,4,4,4,4,4,4,4,4,4,4,4,4,4,4,4,4,4,4,4,4,4,4,4,4,4,4,4,4,4,4,4,0,0,0,0,0,0,0,0,0,0,0,0,0,0,0,0,0,0,4,4,4,4,4,4,4,4,4,4,4,4,4,4,4,4,4,4,4,4,0,0,0,0,4,4,4,4,4,4,4,4,4,4,4,4,0,0,0,0,0,0,0,0,0,0,0,0,0,0,0,0,4,4,4,4,4,4,4,4,4,4,4,4,4,4,4,4,0,0,0,0,4,4,4,4,4,4,4,4,4,4,4,4,4,4,4,4,4,4,4,4,4,4,4,4,4,4,0,0,0,0,0,0,0,0,0,0,0,0,0,0,0,0,0,0,0,0,0,0,0,0,0,0,0,0,0,0,0,0,0,0,0,0,0,0,0,0,4,4,4,4,4,4,4,4,4,4,4,4,0,0,0,0,4,4,4,4,4,4,4,4,4,4,4,4,4,4,4,4,0,0,0,0,0,0,0,0,0,0,0,0,0,0,4,4,4,4,4,4,4,4,0,0,0,0,4,4,4,4,4,4,4,4,4,4,4,4,4,4,4,4,4,4,4,4,4,4,4,4,4,4,4,4,4,4,4,4,4,4,4,4,4,4,4,4,4,4,0,0,0,0,0,0,0,0,0,0,0,0,0,0,0,0,0,0,4,4,4,4,4,4,4,4,4,4,4,4,4,4,4,4,4,4,4,4,
0,0,0,0,0,0,4,4,4,4,4,4,4,4,4,4,4,4,4,4,4,4,4,4,4,4,4,4,4,4,4,4,4,4,4,4,4,4,4,4,4,4,4,4,4,4,4,4,4,4,4,4,4,4,4,4,4,4,4,4,4,4,4,4,4,4,4,4,4,4,4,4,4,4,4,4,4,4,0,0,0,0,0,0,0,0,0,0,0,0,0,0,0,0,0,0,4,4,4,4,4,4,4,4,4,4,4,4,4,4,4,4,4,4,4,4,0,0,0,0,4,4,4,4,4,4,4,4,4,4,4,4,0,0,0,0,0,0,0,0,0,0,0,0,0,0,0,0,4,4,4,4,4,4,4,4,4,4,4,4,4,4,4,4,0,0,0,0,4,4,4,4,4,4,4,4,4,4,4,4,4,4,4,4,4,4,4,4,4,4,4,4,4,4,2,2,0,0,0,0,0,0,0,0,0,0,2,2,0,0,0,0,0,0,0,0,0,0,2,2,4,4,4,4,4,4,4,4,4,4,4,4,0,0,4,4,4,4,4,4,4,4,4,4,4,4,0,0,0,0,4,4,4,4,4,4,4,4,4,4,4,4,4,4,4,4,2,2,0,0,0,0,0,0,0,0,0,0,2,2,4,4,4,4,4,4,4,4,0,0,0,0,4,4,4,4,4,4,4,4,4,4,4,4,4,4,4,4,4,4,4,4,4,4,4,4,4,4,4,4,4,4,4,4,4,4,4,4,4,4,4,4,4,4,2,2,0,0,0,0,0,0,0,0,0,0,0,0,2,2,0,0,4,4,4,4,4,4,4,4,4,4,4,4,4,4,4,4,4,4,4,4,
0,0,0,0,0,0,4,4,4,4,4,4,4,4,4,4,4,4,4,4,4,4,4,4,4,4,4,4,4,4,4,4,4,4,4,4,4,4,4,4,4,4,4,4,4,4,4,4,4,4,4,4,4,4,4,4,4,4,4,4,4,4,4,4,4,4,4,4,4,4,4,4,4,4,4,4,4,4,0,0,0,0,0,0,0,0,0,0,0,0,0,0,0,0,0,0,4,4,4,4,4,4,4,4,4,4,4,4,4,4,4,4,4,4,4,4,0,0,0,0,4,4,4,4,4,4,4,4,4,4,4,4,0,0,0,0,0,0,0,0,0,0,0,0,0,0,0,0,4,4,4,4,4,4,4,4,4,4,4,4,4,4,4,4,0,0,0,0,4,4,4,4,4,4,4,4,4,4,4,4,4,4,4,4,4,4,4,4,4,4,4,4,4,4,0,0,0,0,0,0,0,0,0,0,0,0,0,0,0,0,0,0,0,0,0,0,0,0,0,0,4,4,4,4,4,4,4,4,4,4,4,4,0,0,4,4,4,4,4,4,4,4,4,4,4,4,0,0,0,0,4,4,4,4,4,4,4,4,4,4,4,4,4,4,4,4,0,0,0,0,0,0,0,0,0,0,0,0,0,0,4,4,4,4,4,4,4,4,0,0,0,0,4,4,4,4,4,4,4,4,4,4,4,4,4,4,4,4,4,4,4,4,4,4,4,4,4,4,4,4,4,4,4,4,4,4,4,4,4,4,4,4,4,4,0,0,0,0,0,0,0,0,0,0,0,0,0,0,0,0,0,0,4,4,4,4,4,4,4,4,4,4,4,4,4,4,4,4,4,4,4,4,
0,0,0,0,0,0,0,4,4,4,4,4,4,4,4,4,4,4,4,4,4,4,4,4,4,4,4,4,4,4,4,4,4,4,4,4,4,4,4,4,4,4,4,4,4,4,4,4,4,4,4,4,4,4,4,4,4,4,4,4,4,4,4,4,4,4,4,4,0,0,0,0,4,4,4,4,4,4,0,0,0,0,2,2,0,0,0,0,0,0,2,2,0,0,0,0,4,4,4,4,4,4,4,4,4,4,4,4,4,4,4,4,4,4,4,4,0,0,0,0,4,4,4,4,4,4,4,4,4,4,4,4,0,0,0,0,2,2,0,0,0,0,2,2,0,0,0,0,4,4,4,4,4,4,4,4,4,4,4,4,4,4,4,4,0,0,0,0,4,4,4,4,4,4,4,4,4,4,4,4,4,4,4,4,4,4,4,4,4,4,4,4,4,4,0,0,0,0,0,0,0,0,0,0,0,0,0,0,0,0,0,0,0,0,0,0,0,0,0,0,4,4,4,4,4,4,4,4,4,4,4,4,0,0,4,4,4,4,4,4,4,4,4,4,4,4,0,0,0,0,4,4,4,4,4,4,4,4,4,4,4,4,4,4,4,4,0,0,0,0,2,2,0,0,2,2,0,0,0,0,4,4,4,4,4,4,4,4,0,0,0,0,4,4,4,4,4,4,4,4,4,4,4,4,4,4,4,4,4,4,4,4,4,4,4,4,4,4,4,4,4,4,4,4,4,4,4,4,4,4,4,4,4,4,0,0,0,0,0,0,0,0,2,2,0,0,0,0,0,0,0,0,4,4,4,4,4,4,4,4,4,4,4,4,4,4,4,4,4,4,4,4,
0,0,0,0,0,0,0,0,4,4,4,4,4,4,4,4,4,4,4,4,4,4,4,4,4,4,4,4,4,4,4,4,4,4,4,4,4,4,4,4,4,4,4,4,4,4,4,4,4,4,4,4,4,4,4,4,4,4,4,4,4,4,4,4,4,4,4,4,0,0,0,0,4,4,4,4,4,4,0,0,0,0,0,0,0,0,0,0,0,0,0,0,0,0,0,0,4,4,4,4,4,4,4,4,4,4,4,4,4,4,4,4,4,4,4,4,0,0,0,0,4,4,4,4,4,4,4,4,4,4,4,4,0,0,0,0,0,0,0,0,0,0,0,0,0,0,0,0,4,4,4,4,4,4,4,4,4,4,4,4,4,4,4,4,0,0,0,0,4,4,4,4,4,4,4,4,4,4,4,4,4,4,4,4,4,4,4,4,4,4,4,4,4,4,0,0,0,0,0,0,0,0,0,0,0,0,0,0,0,0,0,0,0,0,0,0,0,0,0,0,4,4,4,4,4,4,4,4,4,4,4,4,0,0,4,4,4,4,4,4,4,4,4,4,4,4,0,0,0,0,4,4,4,4,4,4,4,4,4,4,4,4,4,4,4,4,0,0,0,0,0,0,0,0,0,0,0,0,0,0,4,4,4,4,4,4,4,4,0,0,0,0,4,4,4,4,4,4,4,4,4,4,4,4,4,4,4,4,4,4,4,4,4,4,4,4,4,4,4,4,4,4,4,4,4,4,4,4,4,4,4,4,4,4,0,0,0,0,0,0,0,0,0,0,0,0,0,0,0,0,0,0,4,4,4,4,4,4,4,4,4,4,4,4,4,4,4,4,4,4,4,4,
0,0,0,0,0,0,0,0,0,4,4,4,4,4,4,4,4,4,4,4,4,4,4,4,4,4,4,4,4,4,4,4,4,4,4,4,4,4,4,4,4,4,4,4,4,4,4,4,4,4,4,4,4,4,4,4,4,4,4,4,4,4,4,4,4,4,4,4,0,0,0,0,0,0,0,0,0,0,0,0,0,0,0,0,0,0,0,0,0,0,0,0,0,0,0,0,0,0,0,0,0,0,0,0,0,0,0,0,0,0,0,0,0,0,0,0,0,0,0,0,0,0,0,0,0,0,0,0,0,0,0,0,0,0,0,0,0,0,0,0,0,0,0,0,0,0,0,0,0,0,0,0,0,0,0,0,0,0,0,0,0,0,0,0,0,0,0,0,0,0,0,0,0,0,0,0,0,0,0,0,0,0,4,4,4,4,4,4,4,4,4,4,4,4,0,0,0,0,0,0,0,0,2,2,0,0,0,0,0,0,2,2,0,0,0,0,0,0,0,0,4,4,4,4,4,4,4,4,4,4,4,4,0,0,0,0,0,0,0,0,0,0,0,0,0,0,0,0,0,0,0,0,0,0,0,0,0,0,0,0,0,0,0,0,0,0,0,0,0,0,0,0,0,0,0,0,0,0,0,0,4,4,4,4,4,4,4,4,0,0,0,0,4,4,4,4,4,4,4,4,4,4,4,4,4,4,4,4,4,4,4,4,4,4,4,4,4,4,4,4,4,4,4,4,4,4,4,4,4,4,4,4,4,4,0,0,2,2,0,0,0,0,0,0,0,0,0,0,2,2,0,0,4,4,4,4,4,4,4,4,4,4,4,4,4,4,4,4,4,4,4,4,
0,0,0,0,0,0,0,0,0,0,4,4,4,4,4,4,4,4,4,4,4,4,4,4,4,4,4,4,4,4,4,4,4,4,4,4,4,4,4,4,4,4,4,4,4,4,4,4,4,4,4,4,4,4,4,4,4,4,4,4,4,4,4,4,4,4,4,4,0,0,0,0,0,0,0,0,0,0,0,0,0,0,0,0,0,0,0,0,0,0,0,0,0,0,0,0,0,0,0,0,0,0,0,0,0,0,0,0,0,0,0,0,0,0,0,0,0,0,0,0,0,0,0,0,0,0,0,0,0,0,0,0,0,0,0,0,0,0,0,0,0,0,0,0,0,0,0,0,0,0,0,0,0,0,0,0,0,0,0,0,0,0,0,0,0,0,0,0,0,0,0,0,0,0,0,0,0,0,0,0,0,0,4,4,4,4,4,4,4,4,4,4,4,4,0,0,0,0,0,0,0,0,0,0,0,0,0,0,0,0,0,0,0,0,0,0,0,0,0,0,4,4,4,4,4,4,4,4,4,4,4,4,0,0,0,0,0,0,0,0,0,0,0,0,0,0,0,0,0,0,0,0,0,0,0,0,0,0,0,0,0,0,0,0,0,0,0,0,0,0,0,0,0,0,0,0,0,0,0,0,4,4,4,4,4,4,4,4,0,0,0,0,4,4,4,4,4,4,4,4,4,4,4,4,4,4,4,4,4,4,4,4,4,4,4,4,4,4,4,4,4,4,4,4,4,4,4,4,4,4,4,4,4,4,0,0,0,0,0,0,0,0,0,0,0,0,0,0,0,0,0,0,4,4,4,4,4,4,4,4,4,4,4,4,4,4,4,4,4,4,4,4,
0,0,0,0,0,0,0,0,0,0,0,4,4,4,4,4,4,4,4,4,4,4,4,4,4,4,4,4,4,4,4,4,4,4,4,4,4,4,4,4,4,4,4,4,4,4,4,4,4,4,4,4,4,4,4,4,4,4,4,4,4,4,4,4,4,4,4,4,4,4,4,4,4,4,4,4,4,4,2,2,0,0,0,0,0,0,2,2,0,0,0,0,0,0,2,2,4,4,4,4,4,4,4,4,4,4,4,4,4,4,4,4,4,4,4,4,0,0,0,0,4,4,4,4,4,4,4,4,4,4,4,4,2,2,0,0,0,0,0,0,0,0,0,0,0,0,2,2,4,4,4,4,4,4,4,4,4,4,4,4,4,4,4,4,0,0,0,0,4,4,4,4,4,4,4,4,4,4,4,4,0,0,4,4,4,4,4,4,4,4,4,4,4,4,0,0,2,2,0,0,0,0,0,0,0,0,2,2,0,0,0,0,0,0,0,0,2,2,0,0,4,4,4,4,4,4,4,4,4,4,4,4,4,4,4,4,4,4,4,4,4,4,4,4,4,4,0,0,0,0,4,4,4,4,4,4,4,4,4,4,4,4,4,4,4,4,2,2,0,0,0,0,0,0,0,0,0,0,2,2,4,4,4,4,4,4,4,4,0,0,0,0,4,4,4,4,4,4,4,4,4,4,4,4,4,4,4,4,4,4,4,4,4,4,4,4,4,4,4,4,4,4,4,4,4,4,4,4,4,4,4,4,4,4,0,0,0,0,0,0,2,2,0,0,0,0,0,0,0,0,0,0,4,4,4,4,4,4,4,4,4,4,4,4,4,4,4,4,4,4,4,4,
0,0,0,0,0,0,0,0,0,0,0,0,4,4,4,4,4,4,4,4,4,4,4,4,4,4,4,4,4,4,4,4,4,4,4,4,4,4,4,4,4,4,4,4,4,4,4,4,4,4,4,4,4,4,4,4,4,4,4,4,4,4,4,4,4,4,4,4,4,4,4,4,4,4,4,4,4,4,0,0,0,0,0,0,0,0,0,0,0,0,0,0,0,0,0,0,4,4,4,4,4,4,4,4,4,4,4,4,4,4,4,4,4,4,4,4,0,0,0,0,4,4,4,4,4,4,4,4,4,4,4,4,0,0,0,0,0,0,0,0,0,0,0,0,0,0,0,0,4,4,4,4,4,4,4,4,4,4,4,4,4,4,4,4,0,0,0,0,4,4,4,4,4,4,4,4,4,4,4,4,0,0,4,4,4,4,4,4,4,4,4,4,4,4,0,0,0,0,0,0,0,0,0,0,0,0,0,0,0,0,0,0,0,0,0,0,0,0,0,0,4,4,4,4,4,4,4,4,4,4,4,4,4,4,4,4,4,4,4,4,4,4,4,4,4,4,0,0,0,0,4,4,4,4,4,4,4,4,4,4,4,4,4,4,4,4,0,0,0,0,0,0,0,0,0,0,0,0,0,0,4,4,4,4,4,4,4,4,0,0,0,0,4,4,4,4,4,4,4,4,4,4,4,4,4,4,4,4,4,4,4,4,4,4,4,4,4,4,4,4,4,4,4,4,4,4,4,4,4,4,4,4,4,4,0,0,0,0,0,0,0,0,0,0,0,0,0,0,0,0,0,0,4,4,4,4,4,4,4,4,4,4,4,4,4,4,4,4,4,4,4,4,
0,0,0,0,0,0,0,0,0,0,0,0,0,4,4,4,4,4,4,4,4,4,4,4,4,4,4,4,4,4,4,4,4,4,4,4,4,4,4,4,4,4,4,4,4,4,4,4,4,4,4,4,4,4,4,4,4,4,4,4,4,4,4,4,4,4,4,4,4,4,4,4,4,4,4,4,4,4,0,0,0,0,0,0,0,0,0,0,0,0,0,0,0,0,0,0,4,4,4,4,4,4,4,4,4,4,4,4,4,4,4,4,4,4,4,4,0,0,0,0,4,4,4,4,4,4,4,4,4,4,4,4,0,0,0,0,2,2,0,0,0,0,2,2,0,0,0,0,4,4,4,4,4,4,4,4,4,4,4,4,4,4,4,4,0,0,0,0,4,4,4,4,4,4,4,4,4,4,4,4,0,0,4,4,4,4,4,4,4,4,4,4,4,4,0,0,0,0,0,0,0,0,0,0,0,0,0,0,0,0,0,0,0,0,0,0,0,0,0,0,4,4,4,4,4,4,4,4,4,4,4,4,4,4,4,4,4,4,4,4,4,4,4,4,4,4,0,0,0,0,4,4,4,4,4,4,4,4,4,4,4,4,4,4,4,4,0,0,0,0,0,0,2,2,0,0,0,0,0,0,4,4,4,4,4,4,4,4,0,0,0,0,4,4,4,4,4,4,4,4,4,4,4,4,0,0,0,0,0,0,0,0,0,0,0,0,0,0,4,4,4,4,4,4,4,4,4,4,4,4,4,4,4,4,0,0,0,0,0,0,0,0,0,0,2,2,0,0,0,0,2,2,4,4,4,4,4,4,4,4,4,4,4,4,4,4,4,4,4,4,4,4,
0,0,0,0,0,0,0,0,0,0,0,0,0,0,4,4,4,4,4,4,4,4,4,4,4,4,4,4,4,4,4,4,4,4,4,4,4,4,4,4,4,4,4,4,4,4,4,4,4,4,4,4,4,4,4,4,4,4,4,4,4,4,4,4,4,4,4,4,4,4,4,4,4,4,4,4,4,4,0,0,0,0,0,0,0,0,0,0,0,0,0,0,0,0,0,0,4,4,4,4,4,4,4,4,4,4,4,4,4,4,4,4,4,4,4,4,0,0,0,0,4,4,4,4,4,4,4,4,4,4,4,4,0,0,0,0,0,0,0,0,0,0,0,0,0,0,0,0,4,4,4,4,4,4,4,4,4,4,4,4,4,4,4,4,0,0,0,0,4,4,4,4,4,4,4,4,4,4,4,4,0,0,4,4,4,4,4,4,4,4,4,4,4,4,0,0,0,0,0,0,0,0,0,0,0,0,0,0,0,0,0,0,0,0,0,0,0,0,0,0,4,4,4,4,4,4,4,4,4,4,4,4,4,4,4,4,4,4,4,4,4,4,4,4,4,4,0,0,0,0,4,4,4,4,4,4,4,4,4,4,4,4,4,4,4,4,0,0,0,0,0,0,0,0,0,0,0,0,0,0,4,4,4,4,4,4,4,4,0,0,0,0,4,4,4,4,4,4,4,4,4,4,4,4,0,0,0,0,0,0,0,0,0,0,0,0,0,0,4,4,4,4,4,4,4,4,4,4,4,4,4,4,4,4,0,0,0,0,0,0,0,0,0,0,0,0,0,0,0,0,0,0,4,4,4,4,4,4,4,4,4,4,4,4,4,4,4,4,4,4,4,4,
0,0,0,0,0,0,0,0,0,0,0,0,0,0,0,4,4,4,4,4,4,4,4,4,4,4,4,4,4,4,4,4,4,4,4,4,4,4,4,4,4,4,4,4,4,4,4,4,4,4,4,4,4,4,4,4,4,4,4,4,4,4,4,4,4,4,4,4,4,4,4,4,4,4,4,4,4,4,4,4,4,4,4,4,4,4,4,4,4,4,4,4,4,4,4,4,4,4,4,4,4,4,4,4,4,4,4,4,4,4,4,4,4,4,4,4,0,0,0,0,4,4,4,4,4,4,4,4,4,4,4,4,0,0,0,0,0,0,0,0,0,0,0,0,0,0,0,0,4,4,4,4,4,4,4,4,4,4,4,4,4,4,4,4,0,0,0,0,4,4,4,4,4,4,4,4,4,4,4,4,0,0,4,4,4,4,4,4,4,4,4,4,4,4,0,0,0,0,0,0,2,2,0,0,0,0,0,0,0,0,0,0,2,2,0,0,0,0,0,0,4,4,4,4,4,4,4,4,4,4,4,4,4,4,4,4,4,4,4,4,4,4,4,4,4,4,0,0,0,0,4,4,4,4,4,4,4,4,4,4,4,4,4,4,4,4,0,0,2,2,0,0,0,0,0,0,2,2,0,0,0,0,0,0,0,0,0,0,0,0,0,0,0,0,0,0,0,0,0,0,0,0,0,0,0,0,0,0,0,0,0,0,0,0,0,0,0,0,4,4,4,4,4,4,4,4,4,4,4,4,4,4,4,4,0,0,0,0,2,2,0,0,0,0,0,0,0,0,2,2,0,0,4,4,4,4,4,4,4,4,4,4,4,4,4,4,4,4,4,4,4,4,
0,0,0,0,0,0,0,0,0,0,0,0,0,0,0,0,4,4,4,4,4,4,4,4,4,4,4,4,4,4,4,4,4,4,4,4,4,4,4,4,4,4,4,4,4,4,4,4,4,4,4,4,4,4,4,4,4,4,4,4,4,4,4,4,4,4,4,4,4,4,4,4,4,4,4,4,4,4,4,4,4,4,4,4,4,4,4,4,4,4,4,4,4,4,4,4,4,4,4,4,4,4,4,4,4,4,4,4,4,4,4,4,4,4,4,4,0,0,0,0,4,4,4,4,4,4,4,4,4,4,4,4,0,0,0,0,0,0,0,0,0,0,0,0,0,0,0,0,4,4,4,4,4,4,4,4,4,4,4,4,4,4,4,4,0,0,0,0,4,4,4,4,4,4,4,4,4,4,4,4,0,0,4,4,4,4,4,4,4,4,4,4,4,4,0,0,0,0,0,0,0,0,0,0,0,0,0,0,0,0,0,0,0,0,0,0,0,0,0,0,4,4,4,4,4,4,4,4,4,4,4,4,4,4,4,4,4,4,4,4,4,4,4,4,4,4,0,0,0,0,4,4,4,4,4,4,4,4,4,4,4,4,4,4,4,4,0,0,0,0,0,0,0,0,0,0,0,0,0,0,0,0,0,0,0,0,0,0,0,0,0,0,0,0,0,0,0,0,0,0,0,0,0,0,0,0,0,0,0,0,0,0,0,0,0,0,0,0,4,4,4,4,4,4,4,4,4,4,4,4,4,4,4,4,0,0,0,0,0,0,0,0,0,0,0,0,0,0,0,0,0,0,4,4,4,4,4,4,4,4,4,4,4,4,4,4,4,4,4,4,4,4,
0,0,0,0,0,0,0,0,0,0,0,0,0,0,0,0,0,4,4,4,4,4,4,4,4,4,4,4,4,4,4,4,4,4,4,4,4,4,4,4,4,4,4,4,4,4,4,4,4,4,4,4,4,4,4,4,4,4,4,4,4,4,4,4,4,4,4,4,4,4,4,4,4,4,4,4,4,4,4,4,4,4,4,4,4,4,4,4,4,4,4,4,4,4,4,4,4,4,4,4,4,4,4,4,4,4,4,4,4,4,4,4,4,4,4,4,0,0,0,0,4,4,4,4,4,4,4,4,4,4,4,4,4,4,4,4,4,4,4,4,4,4,4,4,4,4,4,4,4,4,4,4,4,4,4,4,4,4,4,4,4,4,4,4,0,0,0,0,4,4,4,4,4,4,4,4,4,4,4,4,0,0,4,4,4,4,4,4,4,4,4,4,4,4,0,0,0,0,0,0,0,0,0,0,0,0,0,0,0,0,0,0,0,0,0,0,0,0,0,0,4,4,4,4,4,4,4,4,4,4,4,4,4,4,4,4,4,4,4,4,4,4,4,4,4,4,0,0,0,0,4,4,4,4,4,4,4,4,4,4,4,4,4,4,4,4,4,4,4,4,4,4,4,4,4,4,4,4,4,4,4,4,4,4,4,4,4,4,0,0,0,0,4,4,4,4,4,4,4,4,4,4,4,4,2,2,0,0,0,0,0,0,0,0,0,0,2,2,4,4,4,4,4,4,4,4,4,4,4,4,4,4,4,4,2,2,0,0,0,0,0,0,2,2,0,0,0,0,0,0,0,0,4,4,4,4,4,4,4,4,4,4,4,4,4,4,4,4,4,4,4,4,
0,0,0,0,0,0,0,0,0,0,0,0,0,0,0,0,0,0,4,4,4,4,4,4,4,4,4,4,4,4,4,4,4,4,4,4,4,4,4,4,4,4,4,4,4,4,4,4,4,4,4,4,4,4,4,4,4,4,4,4,4,4,4,4,4,4,4,4,4,4,4,4,4,4,4,4,4,4,4,4,4,4,4,4,4,4,4,4,4,4,4,4,4,4,4,4,4,4,4,4,4,4,4,4,4,4,4,4,4,4,4,4,4,4,4,4,0,0,0,0,4,4,4,4,4,4,4,4,4,4,4,4,4,4,4,4,4,4,4,4,4,4,4,4,4,4,4,4,4,4,4,4,4,4,4,4,4,4,4,4,4,4,4,4,0,0,0,0,4,4,4,4,4,4,4,4,4,4,4,4,0,0,4,4,4,4,4,4,4,4,4,4,4,4,0,0,0,0,0,0,0,0,0,0,0,0,0,0,0,0,0,0,0,0,0,0,0,0,0,0,4,4,4,4,4,4,4,4,4,4,4,4,4,4,4,4,4,4,4,4,4,4,4,4,4,4,0,0,0,0,4,4,4,4,4,4,4,4,4,4,4,4,4,4,4,4,4,4,4,4,4,4,4,4,4,4,4,4,4,4,4,4,4,4,4,4,4,4,0,0,0,0,4,4,4,4,4,4,4,4,4,4,4,4,0,0,0,0,0,0,0,0,0,0,0,0,0,0,4,4,4,4,4,4,4,4,4,4,4,4,4,4,4,4,0,0,0,0,0,0,0,0,0,0,0,0,0,0,0,0,0,0,4,4,4,4,4,4,4,4,4,4,4,4,4,4,4,4,4,4,4,4,
0,0,0,0,0,0,0,0,0,0,0,0,0,0,0,0,0,0,0,4,4,4,4,4,4,4,4,4,4,4,4,4,4,4,4,4,4,4,4,4,4,4,4,4,4,4,4,4,4,4,4,4,4,4,4,4,4,4,4,4,4,4,4,4,4,4,4,4,4,4,4,4,4,4,4,4,4,4,4,4,4,4,4,4,4,4,4,4,4,4,4,4,4,4,4,4,4,4,4,4,4,4,4,4,4,4,4,4,4,4,4,4,4,4,4,4,0,0,0,0,4,4,4,4,4,4,4,4,4,4,4,4,4,4,4,4,4,4,4,4,4,4,4,4,4,4,4,4,4,4,4,4,4,4,4,4,4,4,4,4,4,4,4,4,0,0,0,0,4,4,4,4,4,4,4,4,4,4,4,4,0,0,4,4,4,4,4,4,4,4,4,4,4,4,0,0,0,0,2,2,0,0,0,0,0,0,2,2,0,0,0,0,0,0,2,2,0,0,0,0,4,4,4,4,4,4,4,4,4,4,4,4,4,4,4,4,4,4,4,4,4,4,4,4,4,4,0,0,0,0,4,4,4,4,4,4,4,4,4,4,4,4,4,4,4,4,4,4,4,4,4,4,4,4,4,4,4,4,4,4,4,4,4,4,4,4,4,4,0,0,0,0,4,4,4,4,4,4,4,4,4,4,4,4,0,0,0,0,0,0,2,2,0,0,0,0,0,0,0,0,0,0,0,0,0,0,0,0,0,0,0,0,0,0,0,0,0,0,0,0,0,0,0,0,0,0,0,0,0,0,2,2,4,4,4,4,4,4,4,4,4,4,4,4,4,4,4,4,4,4,4,4,
0,0,0,0,0,0,0,0,0,0,0,0,0,0,0,0,0,0,0,0,4,4,4,4,4,4,4,4,4,4,4,4,4,4,4,4,4,4,4,4,4,4,4,4,4,4,4,4,4,4,4,4,4,4,4,4,4,4,4,4,4,4,4,4,4,4,4,4,4,4,4,4,4,4,4,4,4,4,4,4,4,4,4,4,4,4,4,4,4,4,4,4,4,4,4,4,4,4,4,4,4,4,4,4,4,4,4,4,4,4,4,4,4,4,4,4,0,0,0,0,4,4,4,4,4,4,4,4,4,4,4,4,4,4,4,4,4,4,4,4,4,4,4,4,4,4,4,4,4,4,4,4,4,4,4,4,4,4,4,4,4,4,4,4,0,0,0,0,4,4,4,4,4,4,4,4,4,4,4,4,0,0,4,4,4,4,4,4,4,4,4,4,4,4,0,0,0,0,0,0,0,0,0,0,0,0,0,0,0,0,0,0,0,0,0,0,0,0,0,0,4,4,4,4,4,4,4,4,4,4,4,4,4,4,4,4,4,4,4,4,4,4,4,4,4,4,0,0,0,0,4,4,4,4,4,4,4,4,4,4,4,4,4,4,4,4,4,4,4,4,4,4,4,4,4,4,4,4,4,4,4,4,4,4,4,4,4,4,0,0,0,0,4,4,4,4,4,4,4,4,4,4,4,4,0,0,0,0,0,0,0,0,0,0,0,0,0,0,0,0,0,0,0,0,0,0,0,0,0,0,0,0,0,0,0,0,0,0,0,0,0,0,0,0,0,0,0,0,0,0,0,0,4,4,4,4,4,4,4,4,4,4,4,4,4,4,4,4,4,4,4,4,
0,0,0,0,0,0,0,0,0,0,0,0,0,0,0,0,0,0,0,0,0,0,4,4,4,4,4,4,4,4,4,4,4,4,4,4,4,4,4,4,4,4,4,4,4,4,4,4,4,4,4,4,4,4,4,4,4,4,4,4,4,4,4,4,4,4,4,4,4,4,4,4,4,4,4,4,4,4,4,4,4,4,4,4,4,4,4,4,4,4,4,4,4,4,4,4,4,4,4,4,4,4,4,4,4,4,4,4,4,4,4,4,4,4,4,4,0,0,0,0,4,4,4,4,4,4,4,4,4,4,4,4,4,4,4,4,4,4,4,4,4,4,4,4,4,4,4,4,4,4,4,4,4,4,4,4,4,4,4,4,4,4,4,4,0,0,0,0,4,4,4,4,4,4,4,4,4,4,4,4,0,0,4,4,4,4,4,4,4,4,4,4,4,4,2,2,0,0,0,0,0,0,0,0,0,0,0,0,0,0,0,0,0,0,0,0,0,0,2,2,4,4,4,4,4,4,4,4,4,4,4,4,4,4,4,4,4,4,4,4,4,4,4,4,4,4,0,0,0,0,4,4,4,4,4,4,4,4,4,4,4,4,4,4,4,4,4,4,4,4,4,4,4,4,4,4,4,4,4,4,4,4,4,4,4,4,4,4,0,0,0,0,4,4,4,4,4,4,4,4,4,4,4,4,0,0,2,2,0,0,0,0,0,0,2,2,0,0,4,4,4,4,4,4,4,4,4,4,4,4,4,4,4,4,0,0,2,2,0,0,0,0,0,0,0,0,2,2,0,0,0,0,4,4,4,4,4,4,4,4,4,4,4,4,4,4,4,4,4,4,4,4,
0,0,0,0,0,0,0,0,0,0,0,0,0,0,0,0,0,0,0,0,0,0,0,0,4,4,4,4,4,4,4,4,4,4,4,4,4,4,4,4,4,4,4,4,4,4,4,4,4,4,4,4,4,4,4,4,4,4,4,4,4,4,4,4,4,4,4,4,4,4,4,4,4,4,4,4,4,4,4,4,4,4,4,4,4,4,4,4,4,4,4,4,4,4,4,4,4,4,4,4,4,4,4,4,4,4,4,4,4,4,4,4,4,4,4,4,0,0,0,0,4,4,4,4,4,4,4,4,4,4,4,4,4,4,4,4,4,4,4,4,4,4,4,4,4,4,4,4,4,4,4,4,4,4,4,4,4,4,4,4,4,4,4,4,0,0,0,0,4,4,4,4,4,4,4,4,4,4,4,4,0,0,4,4,4,4,4,4,4,4,4,4,4,4,0,0,0,0,0,0,0,0,0,0,0,0,0,0,0,0,0,0,0,0,0,0,0,0,0,0,4,4,4,4,4,4,4,4,4,4,4,4,4,4,4,4,4,4,4,4,4,4,4,4,4,4,0,0,0,0,4,4,4,4,4,4,4,4,4,4,4,4,4,4,4,4,4,4,4,4,4,4,4,4,4,4,4,4,4,4,4,4,4,4,4,4,4,4,0,0,0,0,4,4,4,4,4,4,4,4,4,4,4,4,0,0,0,0,0,0,0,0,0,0,0,0,0,0,4,4,4,4,4,4,4,4,4,4,4,4,4,4,4,4,0,0,0,0,0,0,0,0,0,0,0,0,0,0,0,0,0,0,4,4,4,4,4,4,4,4,4,4,4,4,4,4,4,4,4,4,4,4,
0,0,0,0,0,0,0,0,0,0,0,0,0,0,0,0,0,0,0,0,0,0,0,0,0,0,4,4,4,4,4,4,4,4,4,4,4,4,4,4,4,4,4,4,4,4,4,4,4,4,4,4,4,4,4,4,4,4,4,4,4,4,4,4,4,4,4,4,4,4,4,4,4,4,4,4,4,4,4,4,4,4,4,4,4,4,4,4,4,4,4,4,4,4,4,4,4,4,4,4,4,4,4,4,4,4,4,4,4,4,4,4,4,4,4,4,0,0,0,0,4,4,4,4,4,4,4,4,4,4,4,4,4,4,4,4,4,4,4,4,4,4,4,4,4,4,4,4,4,4,4,4,4,4,4,4,4,4,4,4,4,4,4,4,0,0,0,0,4,4,4,4,4,4,4,4,4,4,4,4,0,0,0,0,0,0,0,0,0,0,0,0,0,0,0,0,0,0,0,0,0,0,2,2,0,0,0,0,0,0,2,2,0,0,0,0,0,0,0,0,4,4,4,4,4,4,4,4,4,4,4,4,4,4,4,4,4,4,4,4,4,4,4,4,4,4,0,0,0,0,4,4,4,4,4,4,4,4,4,4,4,4,4,4,4,4,4,4,4,4,4,4,4,4,4,4,4,4,4,4,4,4,4,4,4,4,4,4,0,0,0,0,4,4,4,4,4,4,4,4,4,4,4,4,4,4,4,4,4,4,4,4,4,4,4,4,4,4,4,4,4,4,4,4,4,4,4,4,4,4,4,4,4,4,4,4,4,4,4,4,4,4,4,4,4,4,4,4,4,4,4,4,4,4,4,4,4,4,4,4,4,4,4,4,4,4,4,4,4,4,4,4,
0,0,0,0,0,0,0,0,0,0,0,0,0,0,0,0,0,0,0,0,0,0,0,0,0,0,0,0,4,4,4,4,4,4,4,4,4,4,4,4,4,4,4,4,4,4,4,4,4,4,4,4,4,4,4,4,4,4,4,4,4,4,4,4,4,4,4,4,4,4,4,4,4,4,4,4,4,4,4,4,4,4,4,4,4,4,4,4,4,4,4,4,4,4,4,4,4,4,4,4,4,4,4,4,4,4,4,4,4,4,4,4,4,4,4,4,0,0,0,0,4,4,4,4,4,4,4,4,4,4,4,4,4,4,4,4,4,4,4,4,4,4,4,4,4,4,4,4,4,4,4,4,4,4,4,4,4,4,4,4,4,4,4,4,0,0,0,0,4,4,4,4,4,4,4,4,4,4,4,4,0,0,0,0,0,0,0,0,0,0,0,0,0,0,0,0,0,0,0,0,0,0,0,0,0,0,0,0,0,0,0,0,0,0,0,0,0,0,0,0,4,4,4,4,4,4,4,4,4,4,4,4,4,4,4,4,4,4,4,4,4,4,4,4,4,4,0,0,0,0,4,4,4,4,4,4,4,4,4,4,4,4,4,4,4,4,4,4,4,4,4,4,4,4,4,4,4,4,4,4,4,4,4,4,4,4,4,4,0,0,0,0,4,4,4,4,4,4,4,4,4,4,4,4,4,4,4,4,4,4,4,4,4,4,4,4,4,4,4,4,4,4,4,4,4,4,4,4,4,4,4,4,4,4,4,4,4,4,4,4,4,4,4,4,4,4,4,4,4,4,4,4,4,4,4,4,4,4,4,4,4,4,4,4,4,4,4,4,4,4,4,4,
4,4,4,4,4,4,4,4,4,4,4,4,4,4,4,4,4,4,0,0,0,0,0,0,0,0,0,0,0,0,4,4,4,4,4,4,4,4,4,4,4,4,4,4,4,4,4,4,4,4,4,4,4,4,4,4,4,4,4,4,4,4,4,4,4,4,4,4,4,4,4,4,4,4,4,4,4,4,4,4,4,4,4,4,4,4,4,4,4,4,4,4,4,4,4,4,4,4,4,4,4,4,4,4,4,4,4,4,4,4,4,4,4,4,4,4,0,0,0,0,4,4,4,4,4,4,4,4,4,4,4,4,4,4,4,4,4,4,4,4,4,4,4,4,4,4,4,4,4,4,4,4,4,4,4,4,4,4,4,4,4,4,4,4,0,0,0,0,4,4,4,4,4,4,4,4,4,4,4,4,4,4,4,4,4,4,4,4,4,4,4,4,4,4,4,4,4,4,4,4,4,4,4,4,4,4,4,4,4,4,4,4,4,4,4,4,4,4,4,4,4,4,4,4,4,4,4,4,4,4,4,4,4,4,4,4,4,4,4,4,4,4,4,4,4,4,0,0,0,0,4,4,4,4,4,4,4,4,4,4,4,4,4,4,4,4,4,4,4,4,4,4,4,4,4,4,4,4,4,4,4,4,4,4,4,4,4,4,0,0,0,0,4,4,4,4,4,4,4,4,4,4,4,4,4,4,4,4,4,4,4,4,4,4,4,4,4,4,4,4,4,4,4,4,4,4,4,4,4,4,4,4,4,4,4,4,4,4,4,4,4,4,4,4,4,4,4,4,4,4,4,4,4,4,4,4,4,4,4,4,4,4,4,4,4,4,4,4,4,4,4,4,
4,4,4,4,4,4,4,4,4,4,4,4,4,4,4,4,4,4,0,0,0,0,0,0,0,0,0,0,0,0,0,0,4,4,4,4,4,4,4,4,4,4,4,4,4,4,4,4,4,4,4,4,4,4,4,4,4,4,4,4,4,4,4,4,4,4,4,4,4,4,4,4,4,4,4,4,4,4,4,4,4,4,4,4,4,4,4,4,4,4,4,4,4,4,4,4,4,4,4,4,4,4,4,4,4,4,4,4,4,4,4,4,4,4,4,4,0,0,0,0,4,4,4,4,4,4,4,4,4,4,4,4,4,4,4,4,4,4,4,4,4,4,4,4,4,4,4,4,4,4,4,4,4,4,4,4,4,4,4,4,4,4,4,4,0,0,0,0,4,4,4,4,4,4,4,4,4,4,4,4,4,4,4,4,4,4,4,4,4,4,4,4,4,4,4,4,4,4,4,4,4,4,4,4,4,4,4,4,4,4,4,4,4,4,4,4,4,4,4,4,4,4,4,4,4,4,4,4,4,4,4,4,4,4,4,4,4,4,4,4,4,4,4,4,4,4,0,0,0,0,4,4,4,4,4,4,4,4,4,4,4,4,4,4,4,4,4,4,4,4,4,4,4,4,4,4,4,4,4,4,4,4,4,4,4,4,4,4,0,0,0,0,4,4,4,4,4,4,4,4,4,4,4,4,4,4,4,4,4,4,4,4,4,4,4,4,4,4,4,4,4,4,4,4,4,4,4,4,4,4,4,4,4,4,4,4,4,4,4,4,4,4,4,4,4,4,4,4,4,4,4,4,4,4,4,4,4,4,4,4,4,4,4,4,4,4,4,4,4,4,4,4,
4,4,4,4,4,4,4,4,4,4,4,4,4,4,4,4,4,4,4,4,0,0,0,0,0,0,0,0,0,0,0,0,0,0,4,4,4,4,4,4,4,4,4,4,4,4,4,4,4,4,0,0,0,0,0,0,0,0,0,0,0,0,0,0,4,4,4,4,4,4,4,4,4,4,4,4,4,4,4,4,4,4,4,4,4,4,4,4,4,4,4,4,4,4,4,4,4,4,4,4,4,4,4,4,4,4,4,4,4,4,4,4,4,4,4,4,0,0,0,0,4,4,4,4,4,4,4,4,4,4,4,4,4,4,4,4,4,4,4,4,4,4,4,4,4,4,4,4,4,4,4,4,4,4,4,4,4,4,4,4,4,4,4,4,0,0,0,0,4,4,4,4,4,4,4,4,4,4,4,4,4,4,4,4,4,4,4,4,4,4,4,4,4,4,4,4,4,4,4,4,4,4,4,4,4,4,4,4,4,4,4,4,4,4,4,4,4,4,4,4,4,4,4,4,4,4,4,4,4,4,4,4,4,4,4,4,4,4,4,4,0,0,0,0,0,0,0,0,0,0,0,0,0,0,0,0,4,4,4,4,4,4,4,4,4,4,4,4,4,4,4,4,4,4,4,4,4,4,4,4,4,4,4,4,4,4,4,4,0,0,0,0,4,4,4,4,4,4,4,4,4,4,4,4,4,4,4,4,4,4,4,4,4,4,4,4,4,4,4,4,4,4,4,4,4,4,4,4,4,4,4,4,4,4,0,0,0,0,0,0,0,0,0,0,0,0,0,0,0,0,0,0,4,4,4,4,4,4,4,4,4,4,4,4,4,4,4,4,4,4,4,4,
4,4,4,4,4,4,4,4,4,4,4,4,4,4,4,4,4,4,4,4,0,0,0,0,0,0,0,0,0,0,0,0,0,0,0,0,4,4,4,4,4,4,4,4,4,4,4,4,4,4,0,0,0,0,0,0,0,0,0,0,0,0,0,0,4,4,4,4,4,4,4,4,4,4,4,4,4,4,4,4,4,4,4,4,4,4,4,4,4,4,4,4,4,4,4,4,4,4,4,4,4,4,4,4,4,4,4,4,4,4,4,4,4,4,4,4,0,0,0,0,4,4,4,4,4,4,4,4,4,4,4,4,4,4,4,4,4,4,4,4,4,4,4,4,4,4,4,4,4,4,4,4,4,4,4,4,4,4,4,4,4,4,4,4,0,0,0,0,4,4,4,4,4,4,4,4,4,4,4,4,4,4,4,4,4,4,4,4,4,4,4,4,4,4,4,4,4,4,4,4,4,4,4,4,4,4,4,4,4,4,4,4,4,4,4,4,4,4,4,4,4,4,4,4,4,4,4,4,4,4,4,4,4,4,4,4,4,4,4,4,0,0,0,0,0,0,0,0,0,0,0,0,0,0,0,0,4,4,4,4,4,4,4,4,4,4,4,4,4,4,4,4,4,4,4,4,4,4,4,4,4,4,4,4,4,4,4,4,0,0,0,0,4,4,4,4,4,4,4,4,4,4,4,4,4,4,4,4,4,4,4,4,4,4,4,4,4,4,4,4,4,4,4,4,4,4,4,4,4,4,4,4,4,4,0,0,0,0,0,0,0,0,0,0,0,0,0,0,0,0,0,0,4,4,4,4,4,4,4,4,4,4,4,4,4,4,4,4,4,4,4,4,
4,4,4,4,4,4,4,4,4,4,4,4,4,4,4,4,4,4,4,4,0,0,0,0,0,0,0,0,0,0,0,0,0,0,0,0,0,0,4,4,4,4,4,4,4,4,4,4,4,4,0,0,0,0,0,0,0,0,0,0,0,0,0,0,4,4,4,4,4,4,4,4,4,4,4,4,4,4,4,4,4,4,4,4,4,4,4,4,4,4,4,4,4,4,4,4,4,4,4,4,4,4,4,4,4,4,4,4,4,4,4,4,4,4,4,4,0,0,0,0,4,4,4,4,4,4,4,4,4,4,4,4,4,4,4,4,4,4,4,4,4,4,4,4,4,4,4,4,4,4,4,4,4,4,4,4,4,4,4,4,0,0,0,0,0,0,0,0,0,0,0,0,4,4,4,4,4,4,4,4,4,4,4,4,4,4,4,4,4,4,4,4,4,4,4,4,4,4,4,4,4,4,4,4,4,4,4,4,4,4,4,4,4,4,4,4,4,4,4,4,4,4,4,4,4,4,4,4,4,4,4,4,4,4,4,4,4,4,4,4,0,0,0,0,0,0,0,0,0,0,0,0,0,0,0,0,4,4,4,4,4,4,4,4,4,4,4,4,4,4,4,4,4,4,4,4,4,4,4,4,4,4,4,4,0,0,0,0,0,0,0,0,0,0,0,0,4,4,4,4,4,4,4,4,4,4,4,4,4,4,4,4,4,4,4,4,4,4,4,4,4,4,4,4,4,4,4,4,4,4,4,4,4,4,0,0,0,0,0,0,0,0,0,0,0,0,0,0,0,0,0,0,4,4,4,4,4,4,4,4,4,4,4,4,4,4,4,4,4,4,4,4,
4,4,4,4,4,4,4,4,4,4,4,4,4,4,4,4,4,4,4,4,0,0,0,0,0,0,0,0,0,0,0,0,0,0,0,0,0,0,0,0,4,4,4,4,4,4,4,4,4,4,0,0,0,0,0,0,0,0,0,0,0,0,0,0,4,4,4,4,4,4,4,4,4,4,4,4,4,4,4,4,4,4,4,4,4,4,4,4,4,4,4,4,4,4,4,4,4,4,4,4,4,4,4,4,4,4,4,4,4,4,4,4,4,4,4,4,0,0,0,0,4,4,4,4,4,4,4,4,4,4,4,4,4,4,4,4,4,4,4,4,4,4,4,4,4,4,4,4,4,4,4,4,4,4,4,4,4,4,4,4,0,0,0,0,0,0,0,0,0,0,0,0,4,4,4,4,4,4,4,4,4,4,4,4,4,4,4,4,4,4,4,4,4,4,4,4,4,4,4,4,4,4,4,4,4,4,4,4,4,4,4,4,4,4,4,4,4,4,4,4,4,4,4,4,4,4,4,4,4,4,4,4,4,4,4,4,4,4,4,4,0,0,0,0,0,0,0,0,0,0,0,0,0,0,0,0,4,4,4,4,4,4,4,4,4,4,4,4,4,4,4,4,4,4,4,4,4,4,4,4,4,4,4,4,0,0,0,0,0,0,0,0,0,0,0,0,4,4,4,4,4,4,4,4,4,4,4,4,4,4,4,4,4,4,4,4,4,4,4,4,4,4,4,4,4,4,4,4,4,4,4,4,4,4,0,0,0,0,0,0,0,0,0,0,0,0,0,0,0,0,0,0,4,4,4,4,4,4,4,4,4,4,4,4,4,4,4,4,4,4,4,4,
4,4,4,4,4,4,4,4,4,4,4,4,4,4,4,4,4,4,0,0,0,0,0,0,0,0,0,0,0,0,0,0,0,0,0,0,0,0,0,0,0,0,4,4,4,4,4,4,4,4,0,0,2,2,0,0,0,0,0,0,2,2,0,0,4,4,4,4,4,4,4,4,4,4,4,4,4,4,4,4,4,4,4,4,4,4,4,4,4,4,4,4,4,4,4,4,4,4,4,4,4,4,4,4,4,4,4,4,4,4,4,4,4,4,4,4,0,0,0,0,4,4,4,4,4,4,4,4,4,4,4,4,4,4,4,4,4,4,4,4,4,4,4,4,4,4,4,4,4,4,4,4,4,4,4,4,4,4,4,4,0,0,0,0,0,0,0,0,0,0,0,0,4,4,4,4,4,4,4,4,4,4,4,4,4,4,4,4,4,4,4,4,4,4,4,4,4,4,4,4,4,4,4,4,4,4,4,4,4,4,4,4,4,4,4,4,4,4,4,4,4,4,4,4,4,4,4,4,4,4,4,4,4,4,4,4,4,4,4,4,2,2,0,0,0,0,0,0,0,0,0,0,0,0,2,2,4,4,4,4,4,4,4,4,4,4,4,4,4,4,4,4,4,4,4,4,4,4,4,4,4,4,4,4,0,0,0,0,0,0,0,0,0,0,0,0,4,4,4,4,4,4,4,4,4,4,4,4,4,4,4,4,4,4,4,4,4,4,4,4,4,4,4,4,4,4,4,4,4,4,4,4,4,4,2,2,0,0,0,0,0,0,2,2,0,0,0,0,0,0,2,2,4,4,4,4,4,4,4,4,4,4,4,4,4,4,4,4,4,4,4,4,
4,4,4,4,4,4,4,4,4,4,4,4,4,4,4,4,4,4,0,0,0,0,0,0,0,0,0,0,0,0,0,0,0,0,0,0,0,0,0,0,0,0,0,0,4,4,4,4,4,4,0,0,0,0,0,0,0,0,0,0,0,0,0,0,4,4,4,4,4,4,4,4,4,4,4,4,4,4,4,4,4,4,4,4,4,4,4,4,4,4,4,4,4,4,4,4,4,4,4,4,4,4,4,4,4,4,4,4,4,4,4,4,4,4,4,4,0,0,0,0,4,4,4,4,4,4,4,4,4,4,4,4,4,4,4,4,4,4,4,4,4,4,4,4,4,4,4,4,4,4,4,4,4,4,4,4,4,4,4,4,0,0,0,0,0,0,0,0,0,0,0,0,4,4,4,4,4,4,4,4,4,4,4,4,4,4,4,4,4,4,4,4,4,4,4,4,4,4,4,4,4,4,4,4,4,4,4,4,4,4,4,4,4,4,4,4,4,4,4,4,4,4,4,4,4,4,4,4,4,4,4,4,4,4,4,4,4,4,4,4,0,0,0,0,0,0,0,0,0,0,0,0,0,0,0,0,4,4,4,4,4,4,4,4,4,4,4,4,4,4,4,4,4,4,4,4,4,4,4,4,4,4,4,4,0,0,0,0,0,0,0,0,0,0,0,0,4,4,4,4,4,4,4,4,4,4,4,4,4,4,4,4,4,4,4,4,4,4,4,4,4,4,4,4,4,4,4,4,4,4,4,4,4,4,0,0,0,0,0,0,0,0,0,0,0,0,0,0,0,0,0,0,4,4,4,4,4,4,4,4,4,4,4,4,4,4,4,4,4,4,4,4,
4,4,4,4,4,4,4,4,4,4,4,4,4,4,4,4,4,4,0,0,0,0,0,0,0,0,0,0,0,0,0,0,0,0,0,0,0,0,0,0,0,0,0,0,0,0,0,0,0,0,0,0,0,0,0,0,0,0,0,0,0,0,0,0,0,0,0,0,0,0,0,0,0,0,0,0,0,0,0,0,0,0,0,0,0,0,0,0,0,0,0,0,0,0,0,0,0,0,0,0,0,0,0,0,0,0,0,0,0,0,0,0,0,0,0,0,0,0,0,0,0,0,0,0,0,0,0,0,0,0,0,0,0,0,0,0,0,0,0,0,0,0,0,0,0,0,0,0,0,0,0,0,0,0,0,0,0,0,0,0,0,0,0,0,0,0,0,0,0,0,0,0,0,0,0,0,0,0,0,0,0,0,0,0,0,0,0,0,0,0,0,0,0,0,0,0,0,0,0,0,0,0,0,0,0,0,0,0,0,0,0,0,0,0,0,0,0,0,0,0,0,0,0,0,0,0,0,0,0,0,0,0,0,0,0,0,0,0,0,0,0,0,0,0,2,2,0,0,0,0,2,2,0,0,0,0,0,0,0,0,0,0,0,0,0,0,0,0,0,0,0,0,0,0,0,0,0,0,0,0,0,0,0,0,0,0,0,0,0,0,0,0,0,0,0,0,0,0,0,0,0,0,0,0,0,0,0,0,0,0,0,0,0,0,0,0,0,0,0,0,0,0,0,0,0,0,0,0,0,0,0,0,0,0,0,0,0,0,2,2,0,0,0,0,0,0,2,2,0,0,0,0,4,4,4,4,4,4,4,4,4,4,4,4,4,4,4,4,4,4,4,4,
4,4,4,4,4,4,4,4,4,4,4,4,4,4,4,4,4,4,0,0,0,0,0,0,0,0,0,0,0,0,0,0,0,0,0,0,0,0,0,0,0,0,0,0,0,0,0,0,0,0,0,0,0,0,0,0,0,0,0,0,0,0,0,0,0,0,0,0,0,0,0,0,0,0,0,0,0,0,0,0,0,0,0,0,0,0,0,0,0,0,0,0,0,0,0,0,0,0,0,0,0,0,0,0,0,0,0,0,0,0,0,0,0,0,0,0,0,0,0,0,0,0,0,0,0,0,0,0,0,0,0,0,0,0,0,0,0,0,0,0,0,0,0,0,0,0,0,0,0,0,0,0,0,0,0,0,0,0,0,0,0,0,0,0,0,0,0,0,0,0,0,0,0,0,0,0,0,0,0,0,0,0,0,0,0,0,0,0,0,0,0,0,0,0,0,0,0,0,0,0,0,0,0,0,0,0,0,0,0,0,0,0,0,0,0,0,0,0,0,0,0,0,0,0,0,0,0,0,0,0,0,0,0,0,0,0,0,0,0,0,0,0,0,0,0,0,0,0,0,0,0,0,0,0,0,0,0,0,0,0,0,0,0,0,0,0,0,0,0,0,0,0,0,0,0,0,0,0,0,0,0,0,0,0,0,0,0,0,0,0,0,0,0,0,0,0,0,0,0,0,0,0,0,0,0,0,0,0,0,0,0,0,0,0,0,0,0,0,0,0,0,0,0,0,0,0,0,0,0,0,0,0,0,0,0,0,0,0,0,0,0,0,0,0,0,0,0,0,0,0,0,0,4,4,4,4,4,4,4,4,4,4,4,4,4,4,4,4,4,4,4,4,
4,4,4,4,4,4,4,4,4,4,4,4,4,4,4,4,4,4,0,0,0,0,0,0,0,0,0,0,0,0,0,0,0,0,0,0,0,0,0,0,0,0,0,0,0,0,0,0,0,0,0,0,0,0,0,0,2,2,0,0,0,0,0,0,0,0,0,0,0,0,0,0,0,0,0,0,0,0,0,0,0,0,0,0,0,0,0,0,0,0,0,0,0,0,0,0,0,0,0,0,0,0,0,0,0,0,0,0,0,0,0,0,0,0,0,0,0,0,0,0,0,0,0,0,0,0,0,0,0,0,0,0,0,0,0,0,0,0,0,0,0,0,0,0,0,0,0,0,0,0,0,0,0,0,0,0,0,0,0,0,0,0,0,0,0,0,0,0,0,0,0,0,0,0,0,0,0,0,0,0,0,0,0,0,0,0,0,0,0,0,0,0,0,0,0,0,0,0,0,0,0,0,0,0,0,0,0,0,0,0,0,0,0,0,0,0,0,0,0,0,0,0,0,0,0,0,0,0,0,0,0,0,0,0,0,0,0,0,0,0,0,0,0,0,0,0,0,0,0,0,0,0,0,0,0,0,0,0,0,0,0,0,0,0,0,0,0,0,0,0,0,0,0,0,0,0,0,0,0,0,0,0,0,0,0,0,0,0,0,0,0,0,0,0,0,0,0,0,0,0,0,0,0,0,0,0,0,0,0,0,0,0,0,0,0,0,0,0,0,0,0,0,0,0,0,0,0,0,0,0,0,0,0,0,0,0,0,0,0,0,0,0,2,2,0,0,0,0,0,0,0,0,4,4,4,4,4,4,4,4,4,4,4,4,4,4,4,4,4,4,4,4,
4,4,4,4,4,4,4,4,4,4,4,4,4,4,4,4,4,4,0,0,0,0,0,0,0,0,0,0,0,0,0,0,0,0,0,0,0,0,0,0,0,0,0,0,0,0,0,0,0,0,0,0,0,0,0,0,0,0,0,0,0,0,0,0,0,0,0,0,0,0,0,0,0,0,0,0,0,0,0,0,0,0,0,0,0,0,0,0,0,0,0,0,0,0,0,0,0,0,0,0,0,0,0,0,0,0,0,0,0,0,0,0,0,0,0,0,0,0,0,0,0,0,0,0,0,0,0,0,0,0,0,0,0,0,0,0,0,0,0,0,0,0,0,0,0,0,0,0,0,0,0,0,0,0,0,0,0,0,0,0,0,0,0,0,0,0,0,0,0,0,0,0,0,0,0,0,0,0,0,0,0,0,0,0,0,0,0,0,0,0,0,0,0,0,0,0,0,0,0,0,0,0,0,0,0,0,0,0,0,0,0,0,0,0,0,0,0,0,0,0,0,0,0,0,0,0,0,0,0,0,0,0,0,0,0,0,0,0,0,0,0,0,0,0,0,0,0,0,0,0,0,0,0,0,0,0,0,0,0,0,0,0,0,0,0,0,0,0,0,0,0,0,0,0,0,0,0,0,0,0,0,0,0,0,0,0,0,0,0,0,0,0,0,0,0,0,0,0,0,0,0,0,0,0,0,0,0,0,0,0,0,0,0,0,0,0,0,0,0,0,0,0,0,0,0,0,0,0,0,0,0,0,0,0,0,0,0,0,0,0,0,0,0,0,0,0,0,0,0,0,0,0,4,4,4,4,4,4,4,4,4,4,4,4,4,4,4,4,4,4,4,4,
4,4,4,4,4,4,4,4,4,4,4,4,4,4,4,4,4,4,4,4,4,4,4,4,4,4,4,4,4,4,4,4,0,0,4,4,4,4,4,4,4,4,4,4,4,4,4,4,4,4,4,4,4,4,4,4,4,4,4,4,4,4,4,4,4,4,4,4,4,4,4,4,4,4,4,4,4,4,4,4,4,4,4,4,4,4,4,4,4,4,4,4,4,4,4,4,4,4,4,4,4,4,4,4,4,4,4,4,4,4,4,4,4,4,4,4,0,0,0,0,4,4,4,4,4,4,4,4,4,4,4,4,4,4,4,4,4,4,4,4,4,4,4,4,4,4,4,4,4,4,4,4,4,4,4,4,4,4,4,4,2,2,2,2,0,0,0,0,2,2,2,2,4,4,4,4,4,4,4,4,4,4,4,4,4,4,4,4,4,4,4,4,4,4,4,4,4,4,4,4,4,4,4,4,4,4,4,4,4,4,4,4,4,4,4,4,4,4,4,4,4,4,4,4,4,4,4,4,4,4,4,4,4,4,4,4,4,4,4,4,4,4,4,4,4,4,4,4,4,4,4,4,4,4,4,4,4,4,4,4,4,4,4,4,4,4,4,4,4,4,4,4,4,4,4,4,4,4,4,4,4,4,4,4,2,2,2,2,0,0,0,0,2,2,2,2,4,4,4,4,4,4,4,4,4,4,4,4,4,4,4,4,4,4,4,4,4,4,4,4,4,4,4,4,4,4,4,4,4,4,4,4,4,4,2,2,0,0,0,0,0,0,0,0,0,0,0,0,0,0,2,2,4,4,4,4,4,4,4,4,4,4,4,4,4,4,4,4,4,4,4,4,
4,4,4,4,4,4,4,4,4,4,4,4,4,4,4,4,4,4,4,4,4,4,4,4,4,4,4,4,4,4,4,4,0,0,4,4,4,4,4,4,4,4,4,4,4,4,4,4,4,4,4,4,4,4,4,4,4,4,4,4,4,4,4,4,4,4,4,4,4,4,4,4,4,4,4,4,4,4,4,4,4,4,4,4,4,4,4,4,4,4,4,4,4,4,4,4,4,4,4,4,4,4,4,4,4,4,4,4,4,4,4,4,4,4,4,4,0,0,0,0,4,4,4,4,4,4,4,4,4,4,4,4,4,4,4,4,4,4,4,4,4,4,4,4,4,4,4,4,4,4,4,4,4,4,4,4,4,4,4,4,0,0,0,0,0,0,0,0,0,0,0,0,4,4,4,4,4,4,4,4,4,4,4,4,4,4,4,4,4,4,4,4,4,4,4,4,4,4,4,4,4,4,4,4,4,4,4,4,4,4,4,4,4,4,4,4,4,4,4,4,4,4,4,4,4,4,4,4,4,4,4,4,4,4,4,4,4,4,4,4,4,4,4,4,4,4,4,4,4,4,4,4,4,4,4,4,4,4,4,4,4,4,4,4,4,4,4,4,4,4,4,4,4,4,4,4,4,4,4,4,4,4,4,4,0,0,0,0,0,0,0,0,0,0,0,0,4,4,4,4,4,4,4,4,4,4,4,4,4,4,4,4,4,4,4,4,4,4,4,4,4,4,4,4,4,4,4,4,4,4,4,4,4,4,0,0,0,0,0,0,0,0,0,0,0,0,0,0,0,0,0,0,4,4,4,4,4,4,4,4,4,4,4,4,4,4,4,4,4,4,4,4,
4,4,4,4,4,4,4,4,4,4,4,4,4,4,4,4,4,4,4,4,4,4,4,4,4,4,4,4,4,4,4,0,0,0,0,4,4,4,4,4,4,4,4,4,4,4,4,4,4,4,4,4,4,4,4,4,4,4,4,4,4,4,4,4,4,4,4,4,4,4,4,4,4,4,4,4,4,4,4,4,4,4,4,4,4,4,4,4,4,4,4,4,4,4,4,4,4,4,4,4,4,4,4,4,4,4,4,4,4,4,4,4,4,4,4,4,0,0,0,0,4,4,4,4,4,4,4,4,4,4,4,4,4,4,4,4,4,4,4,4,4,4,4,4,4,4,4,4,4,4,4,4,4,4,4,4,4,4,4,4,0,0,0,0,0,0,0,0,0,0,0,0,4,4,4,4,4,4,4,4,4,4,4,4,4,4,4,4,4,4,4,4,4,4,4,4,4,4,4,4,4,4,4,4,4,4,4,4,4,4,4,4,4,4,4,4,4,4,4,4,4,4,4,4,4,4,4,4,4,4,4,4,4,4,4,4,4,4,4,4,4,4,4,4,4,4,4,4,4,4,4,4,4,4,4,4,4,4,4,4,4,4,4,4,4,4,4,4,4,4,4,4,4,4,4,4,4,4,4,4,4,4,4,4,0,0,0,0,0,0,0,0,0,0,0,0,4,4,4,4,4,4,4,4,4,4,4,4,4,4,4,4,4,4,4,4,4,4,4,4,4,4,4,4,4,4,4,4,4,4,4,4,4,4,0,0,0,0,0,0,0,0,2,2,0,0,0,0,0,0,0,0,4,4,4,4,4,4,4,4,4,4,4,4,4,4,4,4,4,4,4,4,
4,4,4,4,4,4,4,4,4,4,4,4,4,4,4,4,4,4,4,4,4,4,4,4,4,4,4,4,4,4,4,0,0,0,0,0,4,4,4,4,4,4,4,4,4,4,4,4,4,4,4,4,4,4,4,4,4,4,4,4,4,4,4,4,4,4,4,4,4,4,4,4,4,4,4,4,4,4,4,4,4,4,4,4,4,4,4,4,4,4,4,4,4,4,4,4,4,4,4,4,4,4,4,4,4,4,4,4,4,4,4,4,4,4,4,4,0,0,0,0,4,4,4,4,4,4,4,4,4,4,4,4,4,4,4,4,4,4,4,4,4,4,4,4,4,4,4,4,4,4,4,4,4,4,4,4,4,4,4,4,0,0,0,0,0,0,0,0,0,0,0,0,4,4,4,4,4,4,4,4,4,4,4,4,4,4,4,4,4,4,4,4,4,4,4,4,4,4,4,4,4,4,4,4,4,4,4,4,4,4,4,4,4,4,4,4,4,4,4,4,4,4,4,4,4,4,4,4,4,4,4,4,4,4,4,4,4,4,4,4,4,4,4,4,4,4,4,4,4,4,4,4,4,4,4,4,4,4,4,4,4,4,4,4,4,4,4,4,4,4,4,4,4,4,4,4,4,4,4,4,4,4,4,4,0,0,0,0,0,0,0,0,0,0,0,0,4,4,4,4,4,4,4,4,4,4,4,4,4,4,4,4,4,4,4,4,4,4,4,4,4,4,4,4,4,4,4,4,4,4,4,4,4,4,0,0,0,0,0,0,0,0,0,0,0,0,0,0,0,0,0,0,4,4,4,4,4,4,4,4,4,4,4,4,4,4,4,4,4,4,4,4,
4,4,4,4,4,4,4,4,4,4,4,4,4,4,4,4,4,4,4,4,4,4,4,4,4,4,4,4,4,4,0,0,0,0,0,0,0,0,4,4,4,4,4,4,4,4,4,4,4,4,4,4,4,4,4,4,4,4,4,4,4,4,4,4,4,4,4,4,4,4,4,4,4,4,4,4,4,4,4,4,4,4,4,4,4,4,4,4,4,4,4,4,4,4,4,4,4,4,4,4,4,4,4,4,4,4,4,4,4,4,4,4,4,4,4,4,0,0,0,0,4,4,4,4,4,4,4,4,4,4,4,4,4,4,4,4,4,4,4,4,4,4,4,4,4,4,4,4,4,4,4,4,4,4,4,4,4,4,4,4,4,4,4,4,0,0,0,0,4,4,4,4,4,4,4,4,4,4,4,4,4,4,4,4,4,4,4,4,4,4,4,4,4,4,4,4,4,4,4,4,4,4,4,4,4,4,4,4,4,4,4,4,4,4,4,4,4,4,4,4,4,4,4,4,4,4,4,4,4,4,4,4,4,4,4,4,4,4,4,4,4,4,4,4,4,4,4,4,4,4,4,4,4,4,4,4,4,4,4,4,4,4,4,4,4,4,4,4,4,4,4,4,4,4,4,4,4,4,4,4,4,4,4,4,4,4,4,4,0,0,0,0,4,4,4,4,4,4,4,4,4,4,4,4,4,4,4,4,4,4,4,4,4,4,4,4,4,4,4,4,4,4,4,4,4,4,4,4,4,4,4,4,4,4,0,0,0,0,2,2,0,0,0,0,0,0,2,2,0,0,0,0,4,4,4,4,4,4,4,4,4,4,4,4,4,4,4,4,4,4,4,4,
4,4,4,4,4,4,4,4,4,4,4,4,4,4,4,4,4,4,4,4,4,4,4,4,4,4,4,4,4,0,0,0,0,0,0,0,0,0,0,0,4,4,4,4,4,4,4,4,4,4,4,4,4,4,4,4,4,4,4,4,4,4,4,4,4,4,4,4,4,4,4,4,4,4,4,4,4,4,4,4,4,4,4,4,4,4,4,4,4,4,4,4,4,4,4,4,4,4,4,4,4,4,4,4,4,4,4,4,4,4,4,4,4,4,4,4,0,0,0,0,4,4,4,4,4,4,4,4,4,4,4,4,4,4,4,4,4,4,4,4,4,4,4,4,4,4,4,4,4,4,4,4,4,4,4,4,4,4,4,4,4,4,4,4,0,0,0,0,4,4,4,4,4,4,4,4,4,4,4,4,4,4,4,4,4,4,4,4,4,4,4,4,4,4,4,4,4,4,4,4,4,4,4,4,4,4,4,4,4,4,4,4,4,4,4,4,4,4,4,4,4,4,4,4,4,4,4,4,4,4,4,4,4,4,4,4,4,4,4,4,4,4,4,4,4,4,4,4,4,4,4,4,4,4,4,4,4,4,4,4,4,4,4,4,4,4,4,4,4,4,4,4,4,4,4,4,4,4,4,4,4,4,4,4,4,4,4,4,0,0,0,0,4,4,4,4,4,4,4,4,4,4,4,4,4,4,4,4,4,4,4,4,4,4,4,4,4,4,4,4,4,4,4,4,4,4,4,4,4,4,4,4,4,4,0,0,0,0,0,0,0,0,0,0,0,0,0,0,0,0,0,0,4,4,4,4,4,4,4,4,4,4,4,4,4,4,4,4,4,4,4,4,
4,4,4,4,4,4,4,4,4,4,4,4,4,4,4,4,4,4,4,4,4,4,4,4,4,4,4,4,0,0,0,0,0,0,0,0,0,0,0,0,0,0,4,4,4,4,4,4,4,4,4,4,4,4,4,4,4,4,4,4,4,4,4,4,4,4,4,4,4,4,4,4,4,4,4,4,4,4,4,4,4,4,4,4,4,4,4,4,4,4,4,4,4,4,4,4,4,4,4,4,4,4,4,4,4,4,4,4,4,4,4,4,4,4,4,4,0,0,0,0,4,4,4,4,4,4,4,4,4,4,4,4,4,4,4,4,4,4,4,4,4,4,4,4,4,4,4,4,4,4,4,4,4,4,4,4,4,4,4,4,4,4,4,4,0,0,0,0,4,4,4,4,4,4,4,4,4,4,4,4,4,4,4,4,4,4,4,4,4,4,4,4,4,4,4,4,4,4,4,4,0,0,0,0,0,0,0,0,0,0,0,0,0,0,0,0,0,0,4,4,4,4,4,4,4,4,4,4,4,4,4,4,4,4,4,4,4,4,4,4,4,4,4,4,4,4,0,0,0,0,0,0,0,0,0,0,0,0,0,0,4,4,4,4,4,4,4,4,4,4,4,4,4,4,4,4,4,4,4,4,4,4,4,4,4,4,4,4,0,0,0,0,4,4,4,4,4,4,4,4,4,4,4,4,4,4,4,4,4,4,4,4,4,4,4,4,4,4,4,4,4,4,4,4,4,4,4,4,4,4,4,4,4,4,4,4,4,4,4,4,4,4,4,4,4,4,4,4,4,4,4,4,4,4,4,4,4,4,4,4,4,4,4,4,4,4,4,4,4,4,4,4,
4,4,4,4,4,4,4,4,4,4,4,4,4,4,4,4,4,4,4,4,4,4,4,4,4,4,4,0,0,0,0,0,0,0,0,0,0,0,0,0,0,0,0,0,4,4,4,4,4,4,4,4,4,4,4,4,4,4,4,4,4,4,4,4,4,4,4,4,4,4,4,4,4,4,4,4,4,4,4,4,4,4,4,4,4,4,4,4,4,4,4,4,4,4,4,4,4,4,4,4,4,4,4,4,4,4,4,4,4,4,4,4,4,4,4,4,0,0,0,0,4,4,4,4,4,4,4,4,4,4,4,4,4,4,4,4,4,4,4,4,4,4,4,4,4,4,4,4,4,4,4,4,4,4,4,4,4,4,4,4,4,4,4,4,0,0,0,0,4,4,4,4,4,4,4,4,4,4,4,4,4,4,4,4,4,4,4,4,4,4,4,4,4,4,4,4,4,4,4,4,0,0,0,0,0,0,0,0,0,0,0,0,0,0,0,0,0,0,4,4,4,4,4,4,4,4,4,4,4,4,4,4,4,4,4,4,4,4,4,4,4,4,4,4,4,4,0,0,0,0,0,0,0,0,0,0,0,0,0,0,4,4,4,4,4,4,4,4,4,4,4,4,4,4,4,4,4,4,4,4,4,4,4,4,4,4,4,4,0,0,0,0,4,4,4,4,4,4,4,4,4,4,4,4,4,4,4,4,4,4,4,4,4,4,4,4,4,4,4,4,4,4,4,4,4,4,4,4,4,4,4,4,4,4,4,4,4,4,4,4,4,4,4,4,4,4,4,4,4,4,4,4,4,4,4,4,4,4,4,4,4,4,4,4,4,4,4,4,4,4,4,4,
4,4,4,4,4,4,4,4,4,4,4,4,4,4,4,4,4,4,4,4,4,4,4,4,4,0,0,0,0,0,0,0,0,0,0,0,0,0,0,0,0,0,0,0,0,4,4,4,4,4,4,4,4,4,4,4,4,4,4,4,4,4,4,4,4,4,4,4,4,4,4,4,4,4,4,4,4,4,4,4,4,4,4,4,4,4,4,4,4,4,4,4,4,4,4,4,4,4,4,4,4,4,4,4,4,4,4,4,4,4,4,4,4,4,4,4,0,0,0,0,4,4,4,4,4,4,4,4,4,4,4,4,4,4,4,4,4,4,4,4,4,4,4,4,4,4,4,4,4,4,4,4,4,4,4,4,4,4,4,4,4,4,4,4,0,0,0,0,4,4,4,4,4,4,4,4,4,4,4,4,0,0,0,0,0,0,0,0,0,0,0,0,0,0,0,0,0,0,0,0,0,0,0,0,0,0,0,0,0,0,0,0,0,0,0,0,0,0,4,4,4,4,4,4,4,4,4,4,4,4,4,4,4,4,4,4,4,4,4,4,4,4,4,4,4,4,0,0,0,0,0,0,0,0,0,0,0,0,0,0,4,4,4,4,4,4,4,4,4,4,4,4,4,4,4,4,4,4,4,4,4,4,4,4,4,4,4,4,0,0,0,0,4,4,4,4,4,4,4,4,4,4,4,4,4,4,4,4,4,4,4,4,4,4,4,4,4,4,4,4,4,4,4,4,4,4,4,4,4,4,4,4,4,4,4,4,4,4,4,4,4,4,4,4,4,4,4,4,4,4,4,4,4,4,4,4,4,4,4,4,4,4,4,4,4,4,4,4,4,4,4,4,
4,4,4,4,4,4,4,4,4,4,4,4,4,4,4,4,4,4,4,4,4,4,4,0,0,0,0,0,0,0,0,0,0,0,0,0,0,0,0,0,0,0,0,0,0,0,4,4,4,4,4,4,4,4,4,4,4,4,4,4,4,4,4,4,4,4,4,4,4,4,4,4,4,4,4,4,4,4,4,4,4,4,4,4,4,4,4,4,4,4,4,4,4,4,4,4,4,4,4,4,4,4,4,4,4,4,4,4,4,4,4,4,4,4,4,4,0,0,0,0,4,4,4,4,4,4,4,4,4,4,4,4,4,4,4,4,4,4,4,4,4,4,4,4,4,4,4,4,4,4,4,4,4,4,4,4,4,4,4,4,4,4,4,4,0,0,0,0,4,4,4,4,4,4,4,4,4,4,4,4,0,0,0,0,0,0,0,0,0,0,0,0,0,0,0,0,0,0,0,0,0,0,0,0,0,0,0,0,0,0,0,0,0,0,0,0,0,0,4,4,4,4,4,4,4,4,4,4,4,4,4,4,4,4,4,4,4,4,4,4,4,4,4,4,4,4,0,0,0,0,0,0,0,0,0,0,0,0,0,0,4,4,4,4,4,4,4,4,4,4,4,4,4,4,4,4,4,4,4,4,4,4,4,4,4,4,4,4,0,0,0,0,4,4,4,4,4,4,4,4,4,4,4,4,4,4,4,4,4,4,4,4,4,4,4,4,4,4,4,4,4,4,4,4,4,4,4,4,4,4,4,4,4,4,4,4,4,4,4,4,4,4,4,4,4,4,4,4,4,4,4,4,4,4,4,4,4,4,4,4,4,4,4,4,4,4,4,4,4,4,4,4,
0,0,0,0,0,0,0,0,0,0,0,0,0,0,0,0,0,0,0,0,0,0,0,0,0,0,0,0,0,0,0,0,0,0,0,0,0,0,0,0,0,0,0,0,0,0,0,4,4,4,4,4,4,4,4,4,4,4,4,4,4,4,4,4,4,4,4,4,4,4,4,4,4,4,4,4,4,4,4,4,4,4,4,4,4,4,4,4,4,4,4,4,4,4,4,4,4,4,4,4,4,4,4,4,4,4,4,4,4,4,4,4,4,4,4,4,0,0,0,0,4,4,4,4,4,4,4,4,4,4,4,4,4,4,4,4,4,4,4,4,4,4,4,4,4,4,4,4,4,4,4,4,4,4,4,4,4,4,4,4,4,4,4,4,0,0,0,0,4,4,4,4,4,4,4,4,4,4,4,4,0,0,4,4,4,4,4,4,4,4,4,4,4,4,4,4,4,4,4,4,2,2,0,0,0,0,0,0,2,2,0,0,0,0,0,0,2,2,4,4,4,4,4,4,4,4,4,4,4,4,4,4,4,4,4,4,4,4,4,4,4,4,4,4,4,4,2,2,0,0,0,0,0,0,0,0,0,0,2,2,4,4,4,4,4,4,4,4,4,4,4,4,4,4,4,4,4,4,4,4,4,4,4,4,4,4,4,4,0,0,0,0,4,4,4,4,4,4,4,4,4,4,4,4,4,4,4,4,4,4,4,4,4,4,4,4,4,4,4,4,0,0,0,0,0,0,0,0,0,0,0,0,0,0,4,4,4,4,4,4,4,4,4,4,4,4,4,4,4,4,4,4,4,4,4,4,4,4,4,4,4,4,4,4,4,4,4,4,4,4,4,4,
0,0,0,0,0,0,0,0,0,0,0,0,0,0,0,0,0,0,0,0,0,0,0,0,0,0,0,0,0,0,0,0,0,0,0,0,0,0,0,0,0,0,0,0,0,0,0,0,4,4,4,4,4,4,4,4,4,4,4,4,4,4,4,4,4,4,4,4,4,4,4,4,4,4,4,4,4,4,4,4,4,4,4,4,4,4,4,4,4,4,4,4,4,4,4,4,4,4,4,4,4,4,4,4,4,4,4,4,4,4,4,4,4,4,4,4,0,0,0,0,4,4,4,4,4,4,4,4,4,4,4,4,4,4,4,4,4,4,4,4,4,4,4,4,4,4,4,4,4,4,4,4,4,4,4,4,4,4,4,4,4,4,4,4,0,0,0,0,4,4,4,4,4,4,4,4,4,4,4,4,0,0,4,4,4,4,4,4,4,4,4,4,4,4,4,4,4,4,4,4,0,0,0,0,0,0,0,0,0,0,0,0,0,0,0,0,0,0,4,4,4,4,4,4,4,4,4,4,4,4,4,4,4,4,4,4,4,4,4,4,4,4,4,4,4,4,0,0,0,0,0,0,0,0,0,0,0,0,0,0,4,4,4,4,4,4,4,4,4,4,4,4,4,4,4,4,4,4,4,4,4,4,4,4,4,4,4,4,0,0,0,0,4,4,4,4,4,4,4,4,4,4,4,4,4,4,4,4,4,4,4,4,4,4,4,4,4,4,4,4,0,0,0,0,0,0,0,0,0,0,0,0,0,0,4,4,4,4,4,4,4,4,4,4,4,4,4,4,4,4,4,4,4,4,4,4,4,4,4,4,4,4,4,4,4,4,4,4,4,4,4,4,
0,0,0,0,0,0,0,0,0,0,0,0,0,0,0,0,0,0,0,0,0,0,0,0,0,0,0,0,0,0,0,0,0,0,0,0,0,0,0,0,0,0,0,0,0,0,0,0,0,4,4,4,4,4,4,4,4,4,4,4,4,4,4,4,4,4,4,4,4,4,4,4,4,4,4,4,4,4,4,4,4,4,4,4,4,4,4,4,4,4,4,4,4,4,4,4,4,4,4,4,4,4,4,4,4,4,4,4,4,4,4,4,4,4,4,4,0,0,0,0,4,4,4,4,4,4,4,4,4,4,4,4,4,4,4,4,4,4,4,4,4,4,4,4,4,4,4,4,4,4,4,4,4,4,4,4,4,4,4,4,4,4,4,4,0,0,0,0,4,4,4,4,4,4,4,4,4,4,4,4,0,0,4,4,4,4,4,4,4,4,4,4,4,4,4,4,4,4,4,4,0,0,0,0,2,2,0,0,0,0,0,0,2,2,0,0,0,0,0,0,0,0,0,0,0,0,0,0,0,0,0,0,0,0,0,0,0,0,0,0,0,0,0,0,0,0,0,0,0,0,2,2,0,0,2,2,0,0,0,0,0,0,0,0,0,0,0,0,0,0,0,0,0,0,4,4,4,4,4,4,4,4,4,4,4,4,4,4,0,0,0,0,4,4,4,4,4,4,4,4,4,4,4,4,4,4,4,4,4,4,4,4,4,4,4,4,4,4,4,4,0,0,0,0,0,0,0,0,0,0,0,0,0,0,4,4,4,4,4,4,4,4,4,4,4,4,4,4,4,4,4,4,4,4,4,4,4,4,4,4,4,4,4,4,4,4,4,4,4,4,4,4,
0,0,0,0,0,0,0,0,0,0,0,0,0,0,0,0,0,0,0,0,0,0,0,0,0,0,0,0,0,0,0,0,0,0,0,0,0,0,0,0,0,0,0,0,0,0,0,0,0,4,4,4,4,4,4,4,4,4,4,4,4,4,4,4,4,4,4,4,4,4,4,4,4,4,4,4,4,4,4,4,4,4,4,4,4,4,4,4,4,4,4,4,4,4,4,4,4,4,4,4,4,4,4,4,4,4,4,4,4,4,4,4,4,4,4,4,0,0,0,0,4,4,4,4,4,4,4,4,4,4,4,4,4,4,4,4,4,4,4,4,4,4,4,4,4,4,4,4,4,4,4,4,4,4,4,4,4,4,4,4,4,4,4,4,0,0,0,0,4,4,4,4,4,4,4,4,4,4,4,4,0,0,4,4,4,4,4,4,4,4,4,4,4,4,4,4,4,4,4,4,0,0,0,0,0,0,0,0,0,0,0,0,0,0,0,0,0,0,0,0,0,0,0,0,0,0,0,0,0,0,0,0,0,0,0,0,0,0,0,0,0,0,0,0,0,0,0,0,0,0,0,0,0,0,0,0,0,0,0,0,0,0,0,0,0,0,0,0,0,0,0,0,0,0,4,4,4,4,4,4,4,4,4,4,4,4,4,4,0,0,0,0,4,4,4,4,4,4,4,4,4,4,4,4,4,4,4,4,4,4,4,4,4,4,4,4,4,4,4,4,0,0,0,0,0,0,0,0,0,0,0,0,0,0,4,4,4,4,4,4,4,4,4,4,4,4,4,4,4,4,4,4,4,4,4,4,4,4,4,4,4,4,4,4,4,4,4,4,4,4,4,4,
0,0,0,0,0,0,0,0,0,0,0,0,0,0,0,0,0,0,0,0,0,0,0,0,0,0,0,0,0,0,0,0,0,0,0,0,0,0,0,0,0,0,0,0,0,0,0,0,0,0,4,4,4,4,4,4,4,4,4,4,4,4,4,4,4,4,4,4,4,4,4,4,4,4,4,4,4,4,4,4,4,4,4,4,4,4,4,4,4,4,4,4,4,4,4,4,4,4,4,4,4,4,4,4,4,4,4,4,4,4,4,4,4,4,4,4,0,0,0,0,4,4,4,4,4,4,4,4,4,4,4,4,4,4,4,4,4,4,4,4,4,4,4,4,4,4,4,4,4,4,4,4,4,4,4,4,4,4,4,4,4,4,4,4,0,0,0,0,4,4,4,4,4,4,4,4,4,4,4,4,0,0,4,4,4,4,4,4,4,4,4,4,4,4,4,4,4,4,4,4,0,0,0,0,0,0,0,0,2,2,0,0,0,0,0,0,0,0,4,4,4,4,4,4,4,4,4,4,4,4,0,0,4,4,4,4,4,4,4,4,4,4,4,4,4,4,0,0,0,0,0,0,0,0,0,0,0,0,0,0,4,4,4,4,4,4,4,4,4,4,4,4,0,0,4,4,4,4,4,4,4,4,4,4,4,4,4,4,0,0,0,0,4,4,4,4,4,4,4,4,4,4,4,4,4,4,4,4,4,4,4,4,4,4,4,4,4,4,4,4,2,2,0,0,0,0,0,0,0,0,0,0,2,2,4,4,4,4,4,4,4,4,4,4,4,4,0,0,0,0,0,0,0,0,0,0,0,0,0,0,4,4,4,4,4,4,4,4,4,4,4,4,
0,0,0,0,0,0,0,0,0,0,0,0,0,0,0,0,0,0,0,0,0,0,0,0,0,0,0,0,0,0,0,0,0,0,0,0,0,0,0,0,0,0,0,0,0,0,0,0,0,0,4,4,4,4,4,4,4,4,4,4,4,4,4,4,4,4,4,4,4,4,4,4,4,4,4,4,4,4,4,4,4,4,4,4,4,4,4,4,4,4,4,4,4,4,4,4,4,4,4,4,4,4,4,4,4,4,4,4,4,4,4,4,4,4,4,4,0,0,0,0,4,4,4,4,4,4,4,4,4,4,4,4,4,4,4,4,4,4,4,4,4,4,4,4,4,4,4,4,4,4,4,4,4,4,4,4,4,4,4,4,4,4,4,4,0,0,0,0,4,4,4,4,4,4,4,4,4,4,4,4,0,0,4,4,4,4,4,4,4,4,4,4,4,4,4,4,4,4,4,4,0,0,0,0,0,0,0,0,0,0,0,0,0,0,0,0,0,0,4,4,4,4,4,4,4,4,4,4,4,4,0,0,4,4,4,4,4,4,4,4,4,4,4,4,4,4,0,0,0,0,0,0,0,0,0,0,0,0,0,0,4,4,4,4,4,4,4,4,4,4,4,4,0,0,4,4,4,4,4,4,4,4,4,4,4,4,4,4,0,0,0,0,4,4,4,4,4,4,4,4,4,4,4,4,4,4,4,4,4,4,4,4,4,4,4,4,4,4,4,4,0,0,0,0,0,0,0,0,0,0,0,0,0,0,4,4,4,4,4,4,4,4,4,4,4,4,0,0,0,0,0,0,0,0,0,0,0,0,0,0,4,4,4,4,4,4,4,4,4,4,4,4,
0,0,0,0,0,0,0,0,0,0,0,0,0,0,0,0,0,0,0,0,0,0,0,0,0,0,0,0,0,0,0,0,0,0,0,0,0,0,0,0,0,0,0,0,0,0,0,0,0,0,0,4,4,4,4,4,4,4,4,4,4,4,4,4,4,4,4,4,4,4,4,4,4,4,4,4,4,4,4,4,4,4,4,4,4,4,4,4,4,4,4,4,4,4,4,4,4,4,4,4,4,4,4,4,4,4,4,4,4,4,4,4,4,4,4,4,0,0,0,0,4,4,4,4,4,4,4,4,4,4,4,4,4,4,4,4,4,4,4,4,4,4,4,4,4,4,4,4,4,4,4,4,4,4,4,4,4,4,4,4,4,4,4,4,0,0,0,0,4,4,4,4,4,4,4,4,4,4,4,4,0,0,4,4,4,4,4,4,4,4,4,4,4,4,4,4,4,4,4,4,4,4,4,4,4,4,4,4,4,4,4,4,4,4,4,4,4,4,4,4,4,4,4,4,4,4,4,4,4,4,0,0,4,4,4,4,4,4,4,4,4,4,4,4,4,4,4,4,4,4,4,4,4,4,4,4,4,4,4,4,4,4,4,4,4,4,4,4,4,4,4,4,0,0,4,4,4,4,4,4,4,4,4,4,4,4,4,4,0,0,0,0,4,4,4,4,4,4,4,4,4,4,4,4,0,0,0,0,4,4,4,4,4,4,4,4,4,4,4,4,0,0,0,0,0,0,2,2,0,0,0,0,0,0,0,0,0,0,0,0,0,0,0,0,0,0,0,0,0,0,0,0,0,0,0,0,0,0,0,0,4,4,4,4,4,4,4,4,4,4,4,4,
0,0,0,0,0,0,0,0,0,0,0,0,0,0,0,0,0,0,0,0,0,0,0,0,0,0,0,0,0,0,0,0,0,0,0,0,0,0,0,0,0,0,0,0,0,0,0,0,0,0,0,4,4,4,4,4,4,4,4,4,4,4,4,4,4,4,4,4,4,4,4,4,4,4,4,4,4,4,4,4,4,4,4,4,4,4,4,4,4,4,4,4,4,4,4,4,4,4,4,4,4,4,4,4,4,4,4,4,4,4,4,4,4,4,4,4,0,0,0,0,4,4,4,4,4,4,4,4,4,4,4,4,4,4,4,4,4,4,4,4,4,4,4,4,4,4,4,4,4,4,4,4,4,4,4,4,4,4,4,4,4,4,4,4,0,0,0,0,4,4,4,4,4,4,4,4,4,4,4,4,0,0,4,4,4,4,4,4,4,4,4,4,4,4,4,4,4,4,4,4,4,4,4,4,4,4,4,4,4,4,4,4,4,4,4,4,4,4,4,4,4,4,4,4,4,4,4,4,4,4,0,0,4,4,4,4,4,4,4,4,4,4,4,4,4,4,4,4,4,4,4,4,4,4,4,4,4,4,4,4,4,4,4,4,4,4,4,4,4,4,4,4,0,0,4,4,4,4,4,4,4,4,4,4,4,4,4,4,0,0,0,0,4,4,4,4,4,4,4,4,4,4,4,4,0,0,0,0,4,4,4,4,4,4,4,4,4,4,4,4,0,0,0,0,0,0,0,0,0,0,0,0,0,0,0,0,0,0,0,0,0,0,0,0,0,0,0,0,0,0,0,0,0,0,0,0,0,0,0,0,4,4,4,4,4,4,4,4,4,4,4,4,
0,0,0,0,0,0,0,0,0,0,0,0,0,0,0,0,0,0,0,0,0,0,0,0,0,0,0,0,0,0,0,0,0,0,0,0,0,0,0,0,0,0,0,0,0,0,0,0,0,0,0,0,4,4,4,4,4,4,4,4,4,4,4,4,4,4,4,4,4,4,4,4,4,4,4,4,4,4,4,4,0,0,0,0,0,0,0,0,0,0,0,0,0,0,0,0,0,0,0,0,4,4,4,4,4,4,4,4,4,4,4,4,4,4,4,4,0,0,0,0,4,4,4,4,4,4,4,4,4,4,4,4,4,4,4,4,4,4,4,4,4,4,4,4,4,4,4,4,4,4,4,4,4,4,4,4,4,4,4,4,4,4,4,4,0,0,0,0,4,4,4,4,4,4,4,4,4,4,4,4,0,0,4,4,4,4,4,4,4,4,4,4,4,4,4,4,4,4,4,4,4,4,4,4,4,4,4,4,4,4,4,4,4,4,4,4,4,4,4,4,4,4,4,4,4,4,4,4,4,4,0,0,4,4,4,4,4,4,4,4,4,4,4,4,4,4,4,4,4,4,4,4,4,4,4,4,4,4,4,4,4,4,4,4,4,4,4,4,4,4,4,4,0,0,4,4,4,4,4,4,4,4,4,4,4,4,4,4,0,0,0,0,4,4,4,4,4,4,4,4,4,4,4,4,0,0,0,0,0,0,0,0,0,0,0,0,0,0,0,0,0,0,0,0,0,0,0,0,0,0,0,0,0,0,4,4,4,4,4,4,4,4,4,4,4,4,2,2,0,0,0,0,0,0,0,0,0,0,2,2,4,4,4,4,4,4,4,4,4,4,4,4,
0,0,0,0,0,0,0,0,0,0,0,0,0,0,0,0,0,0,0,0,0,0,0,0,0,0,0,0,0,0,0,0,0,0,0,0,0,0,0,0,0,0,0,0,0,0,0,0,0,0,0,0,4,4,4,4,4,4,4,4,4,4,4,4,4,4,4,4,4,4,4,4,4,4,4,4,4,4,4,4,0,0,0,0,0,0,0,0,0,0,0,0,0,0,0,0,0,0,0,0,4,4,4,4,4,4,4,4,4,4,4,4,4,4,4,4,0,0,0,0,4,4,4,4,4,4,4,4,4,4,4,4,4,4,4,4,4,4,4,4,4,4,4,4,4,4,4,4,4,4,4,4,4,4,4,4,4,4,4,4,4,4,4,4,0,0,0,0,4,4,4,4,4,4,4,4,4,4,4,4,0,0,4,4,4,4,4,4,4,4,4,4,4,4,4,4,4,4,4,4,4,4,4,4,4,4,4,4,4,4,4,4,4,4,4,4,4,4,4,4,4,4,4,4,4,4,4,4,4,4,0,0,4,4,4,4,4,4,4,4,4,4,4,4,4,4,4,4,4,4,4,4,4,4,4,4,4,4,4,4,4,4,4,4,4,4,4,4,4,4,4,4,0,0,4,4,4,4,4,4,4,4,4,4,4,4,4,4,0,0,0,0,4,4,4,4,4,4,4,4,4,4,4,4,0,0,0,0,0,0,0,0,0,0,0,0,0,0,0,0,0,0,0,0,0,0,0,0,0,0,0,0,0,0,4,4,4,4,4,4,4,4,4,4,4,4,0,0,0,0,0,0,0,0,0,0,0,0,0,0,4,4,4,4,4,4,4,4,4,4,4,4,
0,0,0,0,0,0,0,0,0,0,0,0,0,0,0,0,0,0,0,0,0,0,0,0,0,0,0,0,0,0,0,0,0,0,0,0,0,0,0,0,0,0,0,0,0,0,0,0,0,0,0,0,0,4,4,4,4,4,4,4,4,4,4,4,4,4,4,4,4,4,4,4,4,4,4,4,4,4,4,4,0,0,4,4,4,4,4,4,2,2,0,0,0,0,0,0,0,0,0,0,4,4,4,4,4,4,4,4,4,4,4,4,4,4,4,4,0,0,0,0,4,4,4,4,4,4,4,4,4,4,4,4,4,4,4,4,4,4,4,4,4,4,4,4,4,4,4,4,4,4,4,4,4,4,4,4,4,4,4,4,4,4,4,4,0,0,0,0,4,4,4,4,4,4,4,4,4,4,4,4,0,0,4,4,4,4,4,4,4,4,4,4,4,4,4,4,4,4,4,4,4,4,4,4,4,4,4,4,4,4,4,4,4,4,4,4,4,4,4,4,4,4,4,4,4,4,4,4,4,4,0,0,4,4,4,4,4,4,4,4,4,4,4,4,4,4,4,4,4,4,4,4,4,4,4,4,4,4,4,4,4,4,4,4,4,4,4,4,4,4,4,4,0,0,4,4,4,4,4,4,4,4,4,4,4,4,4,4,0,0,0,0,4,4,4,4,4,4,4,4,4,4,4,4,4,4,4,4,4,4,4,4,4,4,4,4,4,4,4,4,4,4,4,4,4,4,4,4,4,4,4,4,4,4,4,4,4,4,4,4,4,4,4,4,4,4,0,0,0,0,0,0,2,2,0,0,0,0,0,0,4,4,4,4,4,4,4,4,4,4,4,4,
0,0,0,0,0,0,0,0,0,0,0,0,0,0,0,0,0,0,0,0,0,0,0,0,0,0,0,0,0,0,0,0,0,0,0,0,0,0,0,0,0,0,0,0,0,0,0,0,0,0,0,0,0,4,4,4,4,4,4,4,4,4,4,4,4,4,4,4,4,4,4,4,4,4,4,4,4,4,4,4,0,0,4,4,4,4,4,4,0,0,0,0,0,0,0,0,0,0,0,0,4,4,4,4,4,4,4,4,4,4,4,4,4,4,4,4,0,0,0,0,4,4,4,4,4,4,4,4,4,4,4,4,4,4,4,4,4,4,4,4,4,4,4,4,4,4,4,4,4,4,4,4,4,4,4,4,4,4,4,4,4,4,4,4,0,0,0,0,4,4,4,4,4,4,4,4,4,4,4,4,0,0,4,4,4,4,4,4,4,4,4,4,4,4,4,4,4,4,4,4,4,4,4,4,4,4,4,4,4,4,4,4,4,4,4,4,4,4,4,4,4,4,4,4,4,4,4,4,4,4,0,0,4,4,4,4,4,4,4,4,4,4,4,4,4,4,4,4,4,4,4,4,4,4,4,4,4,4,4,4,4,4,4,4,4,4,4,4,4,4,4,4,0,0,4,4,4,4,4,4,4,4,4,4,4,4,4,4,0,0,0,0,4,4,4,4,4,4,4,4,4,4,4,4,4,4,4,4,4,4,4,4,4,4,4,4,4,4,4,4,4,4,4,4,4,4,4,4,4,4,4,4,4,4,4,4,4,4,4,4,4,4,4,4,4,4,0,0,0,0,0,0,0,0,0,0,0,0,0,0,4,4,4,4,4,4,4,4,4,4,4,4,
0,0,0,0,0,0,0,0,0,0,0,0,0,0,0,0,0,0,0,0,0,0,0,0,0,0,0,0,0,0,0,0,0,0,0,0,0,0,0,0,0,0,0,0,0,0,0,0,0,0,0,0,0,0,4,4,4,4,4,4,4,4,4,4,4,4,4,4,4,4,4,4,4,4,4,4,4,4,4,4,0,0,4,4,4,4,4,4,0,0,0,0,2,2,0,0,0,0,0,0,4,4,4,4,4,4,4,4,4,4,4,4,4,4,4,4,0,0,0,0,4,4,4,4,4,4,4,4,4,4,4,4,4,4,4,4,4,4,4,4,4,4,4,4,4,4,4,4,4,4,4,4,4,4,4,4,4,4,4,4,4,4,4,4,0,0,0,0,4,4,4,4,4,4,4,4,4,4,4,4,0,0,4,4,4,4,4,4,4,4,4,4,4,4,4,4,4,4,4,4,4,4,0,0,0,0,0,0,0,0,0,0,0,0,0,0,0,0,4,4,4,4,4,4,4,4,4,4,4,4,0,0,4,4,4,4,4,4,4,4,4,4,4,4,4,4,4,4,4,4,4,4,4,4,4,4,4,4,4,4,4,4,4,4,4,4,4,4,4,4,4,4,0,0,4,4,4,4,4,4,4,4,4,4,4,4,4,4,0,0,0,0,4,4,4,4,4,4,4,4,4,4,4,4,4,4,4,4,4,4,4,4,4,4,4,4,4,4,4,4,4,4,4,4,4,4,4,4,4,4,4,4,4,4,4,4,4,4,4,4,4,4,4,4,4,4,0,0,0,0,0,0,0,0,0,0,0,0,0,0,4,4,4,4,4,4,4,4,4,4,4,4,
0,0,0,0,0,0,0,0,0,0,0,0,0,0,0,0,0,0,0,0,0,0,0,0,0,0,0,0,0,0,0,0,0,0,0,0,0,0,0,0,0,0,0,0,0,0,0,0,0,0,0,0,0,0,4,4,4,4,4,4,4,4,4,4,4,4,4,4,4,4,4,4,4,4,4,4,4,4,4,4,0,0,4,4,4,4,4,4,0,0,0,0,0,0,0,0,0,0,0,0,4,4,4,4,4,4,4,4,4,4,4,4,4,4,4,4,0,0,0,0,4,4,4,4,4,4,4,4,4,4,4,4,4,4,4,4,4,4,4,4,4,4,4,4,4,4,4,4,4,4,4,4,4,4,4,4,4,4,4,4,4,4,4,4,0,0,0,0,4,4,4,4,4,4,4,4,4,4,4,4,0,0,4,4,4,4,4,4,4,4,4,4,4,4,4,4,4,4,4,4,4,4,0,0,0,0,0,0,0,0,0,0,0,0,0,0,0,0,4,4,4,4,4,4,4,4,4,4,4,4,0,0,4,4,4,4,4,4,4,4,4,4,4,4,4,4,4,4,4,4,4,4,4,4,4,4,4,4,4,4,4,4,4,4,4,4,4,4,4,4,4,4,0,0,4,4,4,4,4,4,4,4,4,4,4,4,4,4,0,0,0,0,4,4,4,4,4,4,4,4,4,4,4,4,4,4,4,4,4,4,4,4,4,4,4,4,4,4,4,4,4,4,4,4,4,4,4,4,4,4,4,4,4,4,4,4,4,4,4,4,4,4,4,4,4,4,0,0,0,0,0,0,0,0,0,0,0,0,0,0,4,4,4,4,4,4,4,4,4,4,4,4,
0,0,0,0,0,0,0,0,0,0,0,0,0,0,0,0,0,0,0,0,0,0,0,0,0,0,0,0,0,0,0,0,0,0,0,0,0,0,0,0,0,0,0,0,0,0,0,0,0,0,0,0,0,0,0,4,4,4,4,4,4,4,4,4,4,4,4,4,4,4,4,4,4,4,4,4,4,4,4,4,0,0,4,4,4,4,4,4,0,0,0,0,0,0,0,0,2,2,0,0,4,4,4,4,4,4,4,4,4,4,4,4,4,4,4,4,0,0,0,0,4,4,4,4,4,4,4,4,4,4,4,4,4,4,4,4,4,4,4,4,4,4,4,4,4,4,4,4,4,4,4,4,4,4,4,4,4,4,4,4,4,4,4,4,0,0,0,0,4,4,4,4,4,4,4,4,4,4,4,4,0,0,4,4,4,4,4,4,4,4,4,4,4,4,4,4,4,4,4,4,4,4,0,0,0,0,0,0,0,0,0,0,0,0,0,0,0,0,0,0,0,0,0,0,0,0,0,0,0,0,0,0,4,4,4,4,4,4,4,4,4,4,4,4,4,4,4,4,0,0,0,0,0,0,0,0,0,0,0,0,0,0,4,4,4,4,4,4,4,4,4,4,0,0,4,4,4,4,4,4,4,4,4,4,4,4,4,4,0,0,0,0,4,4,4,4,4,4,4,4,4,4,4,4,4,4,4,4,4,4,4,4,4,4,4,4,4,4,4,4,4,4,4,4,4,4,4,4,4,4,4,4,4,4,4,4,4,4,4,4,4,4,4,4,4,4,2,2,0,0,0,0,0,0,0,0,0,0,2,2,4,4,4,4,4,4,4,4,4,4,4,4,
0,0,0,0,0,0,0,0,0,0,0,0,0,0,0,0,0,0,0,0,0,0,0,0,0,0,0,0,0,0,0,0,0,0,0,0,0,0,0,0,0,0,0,0,0,0,0,0,0,0,0,0,0,0,0,4,4,4,4,4,4,4,4,4,4,4,4,4,4,4,4,4,4,4,4,4,4,4,4,4,0,0,4,4,4,4,4,4,0,0,0,0,0,0,0,0,0,0,0,0,4,4,4,4,4,4,4,4,4,4,4,4,4,4,4,4,0,0,0,0,4,4,4,4,4,4,4,4,4,4,4,4,4,4,4,4,4,4,4,4,4,4,4,4,4,4,4,4,4,4,4,4,4,4,4,4,4,4,4,4,4,4,4,4,0,0,0,0,4,4,4,4,4,4,4,4,4,4,4,4,0,0,4,4,4,4,4,4,4,4,4,4,4,4,4,4,4,4,4,4,4,4,0,0,0,0,0,0,0,0,0,0,0,0,0,0,0,0,0,0,0,0,0,0,0,0,0,0,0,0,0,0,4,4,4,4,4,4,4,4,4,4,4,4,4,4,4,4,0,0,0,0,0,0,0,0,0,0,0,0,0,0,4,4,4,4,4,4,4,4,4,4,0,0,4,4,4,4,4,4,4,4,4,4,4,4,4,4,0,0,0,0,4,4,4,4,4,4,4,4,4,4,4,4,4,4,4,4,4,4,4,4,4,4,4,4,4,4,4,4,4,4,4,4,4,4,4,4,4,4,4,4,4,4,4,4,4,4,4,4,4,4,4,4,4,4,0,0,0,0,0,0,0,0,0,0,0,0,0,0,4,4,4,4,4,4,4,4,4,4,4,4,
0,0,0,0,0,0,0,0,0,0,0,0,0,0,0,0,0,0,0,0,0,0,0,0,0,0,0,0,0,0,0,0,0,0,0,0,0,0,0,0,0,0,0,0,0,0,0,0,0,0,0,0,0,0,0,0,4,4,4,4,4,4,4,4,4,4,4,4,4,4,4,4,4,4,4,4,4,4,4,4,0,0,4,4,4,4,4,4,2,2,0,0,0,0,0,0,0,0,0,0,4,4,4,4,4,4,4,4,4,4,4,4,4,4,4,4,0,0,0,0,4,4,4,4,4,4,4,4,4,4,4,4,4,4,4,4,4,4,0,0,0,0,0,0,0,0,0,0,0,0,0,0,4,4,4,4,4,4,4,4,4,4,4,4,0,0,0,0,4,4,4,4,4,4,4,4,4,4,4,4,0,0,4,4,4,4,4,4,4,4,4,4,4,4,4,4,4,4,4,4,4,4,0,0,0,0,0,0,0,0,2,2,0,0,0,0,2,2,4,4,4,4,4,4,4,4,4,4,4,4,4,4,4,4,4,4,4,4,4,4,4,4,4,4,4,4,4,4,0,0,0,0,0,0,0,0,0,0,0,0,0,0,4,4,4,4,4,4,4,4,4,4,0,0,4,4,4,4,4,4,4,4,4,4,4,4,4,4,0,0,0,0,4,4,4,4,4,4,4,4,4,4,4,4,4,4,4,4,4,4,4,4,4,4,4,4,4,4,4,4,4,4,4,4,4,4,4,4,4,4,4,4,4,4,4,4,4,4,4,4,4,4,4,4,4,4,0,0,0,0,0,0,0,0,0,0,0,0,0,0,4,4,4,4,4,4,4,4,4,4,4,4,
0,0,0,0,0,0,0,0,0,0,0,0,0,0,0,0,0,0,0,0,0,0,0,0,0,0,0,0,0,0,0,0,0,0,0,0,0,0,0,0,0,0,0,0,0,0,0,0,0,0,0,0,0,0,0,0,4,4,4,4,4,4,4,4,4,4,4,4,4,4,4,4,4,4,4,4,4,4,4,4,0,0,4,4,4,4,4,4,0,0,0,0,0,0,0,0,0,0,0,0,4,4,4,4,4,4,4,4,4,4,4,4,4,4,4,4,0,0,0,0,4,4,4,4,4,4,4,4,4,4,4,4,4,4,4,4,4,4,0,0,0,0,0,0,0,0,0,0,0,0,0,0,4,4,4,4,4,4,4,4,4,4,4,4,0,0,0,0,4,4,4,4,4,4,4,4,4,4,4,4,0,0,4,4,4,4,4,4,4,4,4,4,4,4,4,4,4,4,4,4,4,4,0,0,0,0,0,0,0,0,0,0,0,0,0,0,0,0,4,4,4,4,4,4,4,4,4,4,4,4,4,4,4,4,4,4,4,4,4,4,4,4,4,4,4,4,4,4,0,0,0,0,0,0,0,0,0,0,0,0,0,0,4,4,4,4,4,4,4,4,4,4,0,0,4,4,4,4,4,4,4,4,4,4,4,4,4,4,0,0,0,0,4,4,4,4,4,4,4,4,4,4,4,4,4,4,4,4,4,4,4,4,4,4,4,4,4,4,4,4,4,4,4,4,4,4,4,4,4,4,4,4,4,4,4,4,4,4,4,4,4,4,4,4,4,4,0,0,0,0,0,0,0,0,0,0,0,0,0,0,4,4,4,4,4,4,4,4,4,4,4,4,
0,0,0,0,0,0,0,0,0,0,0,0,0,0,0,0,0,0,0,0,0,0,0,0,0,0,0,0,0,0,0,0,0,0,0,0,0,0,0,0,0,0,0,0,0,0,0,0,0,0,0,0,0,0,0,0,0,4,4,4,4,4,4,4,4,4,4,4,4,4,4,4,4,4,4,4,4,4,4,4,0,0,4,4,4,4,4,4,0,0,0,0,0,0,0,0,0,0,0,0,4,4,4,4,4,4,4,4,4,4,4,4,4,4,4,4,0,0,0,0,4,4,4,4,4,4,4,4,4,4,4,4,4,4,4,4,4,4,0,0,0,0,0,0,0,0,0,0,0,0,0,0,4,4,4,4,4,4,4,4,4,4,4,4,0,0,0,0,4,4,4,4,4,4,4,4,0,0,0,0,0,0,0,0,0,0,0,0,0,0,4,4,4,4,4,4,4,4,4,4,4,4,0,0,2,2,0,0,0,0,0,0,0,0,0,0,0,0,4,4,4,4,4,4,4,4,4,4,4,4,4,4,4,4,4,4,4,4,4,4,4,4,4,4,4,4,4,4,0,0,0,0,2,2,0,0,0,0,0,0,2,2,4,4,4,4,4,4,4,4,4,4,0,0,4,4,4,4,4,4,4,4,4,4,4,4,4,4,0,0,0,0,4,4,4,4,4,4,4,4,4,4,4,4,0,0,0,0,0,0,0,0,0,0,0,0,0,0,4,4,4,4,4,4,4,4,4,4,4,4,4,4,4,4,4,4,4,4,4,4,4,4,4,4,4,4,0,0,0,0,0,0,2,2,0,0,0,0,0,0,4,4,4,4,4,4,4,4,4,4,4,4,
0,0,0,0,0,0,0,0,0,0,0,0,0,0,0,0,0,0,0,0,0,0,0,0,0,0,0,0,0,0,0,0,0,0,0,0,0,0,0,0,0,0,0,0,0,0,0,0,0,0,0,0,0,0,0,0,0,4,4,4,4,4,4,4,4,4,4,4,4,4,4,4,4,4,4,4,4,4,4,4,0,0,4,4,4,4,4,4,0,0,0,0,0,0,0,0,0,0,0,0,4,4,4,4,4,4,4,4,4,4,4,4,4,4,4,4,0,0,0,0,4,4,4,4,4,4,4,4,4,4,4,4,4,4,4,4,4,4,0,0,0,0,0,0,0,0,0,0,0,0,0,0,4,4,4,4,4,4,4,4,4,4,4,4,0,0,0,0,4,4,4,4,4,4,4,4,0,0,0,0,0,0,0,0,0,0,0,0,0,0,4,4,4,4,4,4,4,4,4,4,4,4,0,0,0,0,0,0,0,0,0,0,0,0,0,0,0,0,4,4,4,4,4,4,4,4,4,4,4,4,4,4,4,4,4,4,4,4,4,4,4,4,4,4,4,4,4,4,0,0,0,0,0,0,0,0,0,0,0,0,0,0,4,4,4,4,4,4,4,4,4,4,0,0,4,4,4,4,4,4,4,4,4,4,4,4,4,4,0,0,0,0,4,4,4,4,4,4,4,4,4,4,4,4,0,0,0,0,0,0,0,0,0,0,0,0,0,0,4,4,4,4,4,4,4,4,4,4,4,4,4,4,4,4,4,4,4,4,4,4,4,4,4,4,4,4,0,0,0,0,0,0,0,0,0,0,0,0,0,0,4,4,4,4,4,4,4,4,4,4,4,4,
0,0,0,0,0,0,0,0,0,0,0,0,0,0,0,0,0,0,0,0,0,0,0,0,0,0,0,0,0,0,0,0,0,0,0,0,0,0,0,0,0,0,0,0,0,0,0,0,0,0,0,0,0,0,0,0,0,0,4,4,4,4,4,4,4,4,4,4,4,4,4,4,4,4,4,4,4,4,4,4,0,0,4,4,4,4,4,4,0,0,0,0,2,2,0,0,0,0,0,0,4,4,4,4,4,4,4,4,4,4,4,4,4,4,4,4,0,0,0,0,4,4,4,4,4,4,4,4,4,4,4,4,4,4,4,4,4,4,0,0,0,0,0,0,2,2,0,0,0,0,0,0,0,0,0,0,0,0,0,0,0,0,0,0,0,0,0,0,0,0,0,0,0,0,0,0,0,0,0,0,0,0,0,0,0,0,0,0,0,0,0,0,0,0,0,0,0,0,0,0,0,0,0,0,0,0,0,0,2,2,0,0,0,0,0,0,0,0,4,4,4,4,4,4,4,4,4,4,4,4,4,4,4,4,4,4,4,4,4,4,4,4,4,4,4,4,4,4,2,2,0,0,0,0,0,0,2,2,0,0,0,0,0,0,0,0,0,0,0,0,0,0,0,0,0,0,0,0,0,0,0,0,0,0,0,0,0,0,0,0,0,0,0,0,0,0,0,0,0,0,0,0,0,0,0,0,0,0,0,0,0,0,0,0,0,0,0,0,0,0,0,0,0,0,0,0,0,0,0,0,0,0,0,0,0,0,0,0,0,0,0,0,0,0,0,0,0,0,0,0,0,0,0,0,0,0,0,0,0,0,4,4,4,4,4,4,4,4,4,4,4,4,
0,0,0,0,0,0,0,0,0,0,0,0,0,0,0,0,0,0,0,0,0,0,0,0,0,0,0,0,0,0,0,0,0,0,0,0,0,0,0,0,0,0,0,0,0,0,0,0,0,0,0,0,0,0,0,0,0,0,4,4,4,4,4,4,4,4,4,4,4,4,4,4,4,4,4,4,4,4,4,4,0,0,4,4,4,4,4,4,0,0,0,0,0,0,0,0,0,0,0,0,4,4,4,4,4,4,4,4,4,4,4,4,4,4,4,4,0,0,0,0,4,4,4,4,4,4,4,4,4,4,4,4,4,4,4,4,4,4,0,0,0,0,0,0,0,0,0,0,0,0,0,0,0,0,0,0,0,0,0,0,0,0,0,0,0,0,0,0,0,0,0,0,0,0,0,0,0,0,0,0,0,0,0,0,0,0,0,0,0,0,0,0,0,0,0,0,0,0,0,0,0,0,0,0,0,0,0,0,0,0,0,0,0,0,0,0,0,0,4,4,4,4,4,4,4,4,4,4,4,4,4,4,4,4,4,4,4,4,4,4,4,4,4,4,4,4,4,4,0,0,0,0,0,0,0,0,0,0,0,0,0,0,0,0,0,0,0,0,0,0,0,0,0,0,0,0,0,0,0,0,0,0,0,0,0,0,0,0,0,0,0,0,0,0,0,0,0,0,0,0,0,0,0,0,0,0,0,0,0,0,0,0,0,0,0,0,0,0,0,0,0,0,0,0,0,0,0,0,0,0,0,0,0,0,0,0,0,0,0,0,0,0,0,0,0,0,0,0,0,0,0,0,0,0,0,0,0,0,0,0,4,4,4,4,4,4,4,4,4,4,4,4,
0,0,0,0,0,0,0,0,0,0,0,0,0,0,0,0,0,0,0,0,0,0,0,0,0,0,0,0,0,0,0,0,0,0,0,0,0,0,0,0,0,0,0,0,0,0,0,0,0,0,0,0,0,0,0,0,0,0,0,4,4,4,4,4,4,4,4,4,4,4,4,4,4,4,4,4,4,4,4,4,0,0,0,0,0,0,4,4,0,0,0,0,0,0,0,0,2,2,0,0,4,4,4,4,4,4,4,4,4,4,4,4,4,4,4,4,0,0,0,0,4,4,4,4,4,4,4,4,4,4,4,4,4,4,4,4,4,4,2,2,0,0,0,0,0,0,0,0,0,0,2,2,4,4,4,4,4,4,4,4,4,4,4,4,0,0,0,0,4,4,4,4,4,4,4,4,2,2,0,0,0,0,0,0,0,0,0,0,2,2,4,4,4,4,4,4,4,4,4,4,4,4,2,2,0,0,0,0,0,0,0,0,0,0,2,2,0,0,4,4,4,4,4,4,4,4,4,4,4,4,4,4,4,4,4,4,4,4,4,4,4,4,4,4,4,4,4,4,0,0,0,0,0,0,0,0,0,0,0,0,2,2,4,4,4,4,4,4,4,4,4,4,4,4,4,4,4,4,4,4,4,4,4,4,4,4,4,4,0,0,0,0,4,4,4,4,4,4,4,4,4,4,4,4,2,2,0,0,0,0,0,0,0,0,0,0,2,2,4,4,4,4,4,4,4,4,4,4,4,4,4,4,4,4,4,4,4,4,4,4,4,4,4,4,4,4,2,2,0,0,0,0,0,0,0,0,0,0,2,2,4,4,4,4,4,4,4,4,4,4,4,4,
0,0,0,0,0,0,0,0,0,0,0,0,0,0,0,0,0,0,0,0,0,0,0,0,0,0,0,0,0,0,0,0,0,0,0,0,0,0,0,0,0,0,0,0,0,0,0,0,0,0,0,0,0,0,0,0,0,0,0,0,4,4,4,4,4,4,4,4,4,4,4,4,4,4,4,4,4,4,4,4,0,0,0,0,0,0,4,4,0,0,0,0,0,0,0,0,0,0,0,0,4,4,4,4,4,4,4,4,4,4,4,4,4,4,4,4,0,0,0,0,4,4,4,4,4,4,4,4,4,4,4,4,4,4,4,4,4,4,0,0,0,0,0,0,0,0,0,0,0,0,0,0,4,4,4,4,4,4,4,4,4,4,4,4,0,0,0,0,4,4,4,4,4,4,4,4,0,0,0,0,0,0,0,0,0,0,0,0,0,0,4,4,4,4,4,4,4,4,4,4,4,4,0,0,0,0,0,0,0,0,0,0,0,0,0,0,0,0,4,4,4,4,4,4,4,4,4,4,4,4,4,4,4,4,4,4,4,4,4,4,4,4,4,4,4,4,4,4,0,0,0,0,0,0,0,0,0,0,0,0,0,0,4,4,4,4,4,4,4,4,4,4,4,4,4,4,4,4,4,4,4,4,4,4,4,4,4,4,0,0,0,0,4,4,4,4,4,4,4,4,4,4,4,4,0,0,0,0,0,0,0,0,0,0,0,0,0,0,4,4,4,4,4,4,4,4,4,4,4,4,4,4,4,4,4,4,4,4,4,4,4,4,4,4,4,4,0,0,0,0,0,0,0,0,0,0,0,0,0,0,4,4,4,4,4,4,4,4,4,4,4,4,
0,0,0,0,0,0,0,0,0,0,0,0,0,0,0,0,0,0,0,0,0,0,0,0,0,0,0,0,0,0,0,0,0,0,0,0,0,0,0,0,0,0,0,0,0,0,0,0,0,0,0,0,0,0,0,0,0,0,0,0,0,4,4,4,4,4,4,4,4,4,4,4,4,4,4,4,4,4,4,4,0,0,0,0,0,0,0,0,0,0,0,0,0,0,0,0,0,0,0,0,0,0,0,0,0,0,0,0,0,0,0,0,0,0,0,0,0,0,0,0,0,0,0,0,0,0,0,0,0,0,0,0,0,0,0,0,0,0,0,0,0,0,0,0,0,0,0,0,0,0,0,0,4,4,4,4,4,4,4,4,4,4,4,4,0,0,0,0,4,4,4,4,4,4,4,4,0,0,0,0,0,0,2,2,0,0,0,0,0,0,4,4,4,4,4,4,4,4,4,4,4,4,0,0,0,0,0,0,0,0,0,0,0,0,0,0,0,0,4,4,4,4,4,4,4,4,4,4,4,4,4,4,4,4,4,4,4,4,4,4,4,4,4,4,4,4,4,4,0,0,2,2,0,0,0,0,2,2,0,0,0,0,4,4,4,4,4,4,4,4,4,4,4,4,4,4,4,4,4,4,4,4,4,4,4,4,4,4,0,0,0,0,4,4,4,4,4,4,4,4,4,4,4,4,0,0,0,0,0,0,2,2,0,0,0,0,0,0,4,4,4,4,4,4,4,4,4,4,4,4,4,4,4,4,4,4,4,4,4,4,4,4,4,4,4,4,0,0,0,0,0,0,0,0,0,0,0,0,0,0,4,4,4,4,4,4,4,4,4,4,4,4,
0,0,0,0,0,0,0,0,0,0,0,0,0,0,0,0,0,0,0,0,0,0,0,0,0,0,0,0,0,0,0,0,0,0,0,0,0,0,0,0,0,0,0,0,0,0,0,0,0,0,0,0,0,0,0,0,0,0,0,0,0,0,4,4,4,4,4,4,4,4,4,4,4,4,4,4,4,4,4,4,0,0,0,0,0,0,0,0,0,0,0,0,0,0,0,0,0,0,0,0,0,0,0,0,0,0,0,0,0,0,0,0,0,0,0,0,0,0,0,0,0,0,0,0,0,0,0,0,0,0,0,0,0,0,0,0,0,0,0,0,0,0,0,0,0,0,0,0,0,0,0,0,4,4,4,4,4,4,4,4,4,4,4,4,0,0,0,0,4,4,4,4,4,4,4,4,0,0,0,0,0,0,0,0,0,0,0,0,0,0,4,4,4,4,4,4,4,4,4,4,4,4,0,0,0,0,0,0,0,0,0,0,0,0,0,0,0,0,4,4,4,4,4,4,4,4,4,4,4,4,4,4,4,4,4,4,4,4,4,4,4,4,4,4,4,4,4,4,0,0,0,0,0,0,0,0,0,0,0,0,0,0,4,4,4,4,4,4,4,4,4,4,4,4,4,4,4,4,4,4,4,4,4,4,4,4,4,4,0,0,0,0,4,4,4,4,4,4,4,4,4,4,4,4,0,0,0,0,0,0,0,0,0,0,0,0,0,0,4,4,4,4,4,4,4,4,4,4,4,4,4,4,4,4,4,4,4,4,4,4,4,4,4,4,4,4,0,0,0,0,0,0,0,0,0,0,0,0,0,0,4,4,4,4,4,4,4,4,4,4,4,4,
0,0,0,0,0,0,0,0,0,0,0,0,0,0,0,0,0,0,0,0,0,0,0,0,0,0,0,0,0,0,0,0,0,0,0,0,0,0,0,0,0,0,0,0,0,0,0,0,0,0,0,0,0,0,0,0,0,0,0,0,0,0,0,4,4,4,4,4,4,4,4,4,4,4,4,4,4,4,4,4,4,4,4,4,4,4,4,4,4,4,4,4,4,4,4,4,4,4,4,4,4,4,4,4,4,4,4,4,4,4,4,4,4,4,4,4,4,4,4,4,4,4,4,4,4,4,4,4,4,4,4,4,4,4,4,4,4,4,4,4,4,4,4,4,4,4,4,4,4,4,4,4,4,4,4,4,4,4,4,4,4,4,4,4,0,0,0,0,4,4,4,4,4,4,4,4,0,0,2,2,0,0,0,0,0,0,2,2,0,0,4,4,4,4,4,4,4,4,4,4,4,4,0,0,0,0,2,2,0,0,2,2,0,0,0,0,0,0,0,0,0,0,0,0,0,0,0,0,0,0,0,0,0,0,0,0,0,0,0,0,0,0,0,0,0,0,0,0,0,0,0,0,0,0,0,0,0,0,0,0,0,0,4,4,4,4,4,4,4,4,4,4,4,4,4,4,4,4,4,4,4,4,4,4,4,4,4,4,0,0,0,0,4,4,4,4,4,4,4,4,4,4,4,4,0,0,0,0,0,0,0,0,0,0,0,0,0,0,4,4,4,4,4,4,4,4,4,4,4,4,4,4,4,4,4,4,4,4,4,4,4,4,4,4,4,4,0,0,0,0,0,0,2,2,0,0,0,0,0,0,4,4,4,4,4,4,4,4,4,4,4,4,
0,0,0,0,0,0,0,0,0,0,0,0,0,0,0,0,0,0,0,0,0,0,0,0,0,0,0,0,0,0,0,0,0,0,0,0,0,0,0,0,0,0,0,0,0,0,0,0,0,0,0,0,0,0,0,0,0,0,0,0,0,0,0,0,4,4,4,4,4,4,4,4,4,4,4,4,4,4,4,4,4,4,4,4,4,4,4,4,4,4,4,4,4,4,4,4,4,4,4,4,4,4,4,4,4,4,4,4,4,4,4,4,4,4,4,4,4,4,4,4,4,4,4,4,4,4,4,4,4,4,4,4,4,4,4,4,4,4,4,4,4,4,4,4,4,4,4,4,4,4,4,4,4,4,4,4,4,4,4,4,4,4,4,4,0,0,0,0,4,4,4,4,4,4,4,4,0,0,0,0,0,0,0,0,0,0,0,0,0,0,4,4,4,4,4,4,4,4,4,4,4,4,0,0,0,0,0,0,0,0,0,0,0,0,0,0,0,0,0,0,0,0,0,0,0,0,0,0,0,0,0,0,0,0,0,0,0,0,0,0,0,0,0,0,0,0,0,0,0,0,0,0,0,0,0,0,0,0,0,0,0,0,4,4,4,4,4,4,4,4,4,4,4,4,4,4,4,4,4,4,4,4,4,4,4,4,4,4,0,0,0,0,4,4,4,4,4,4,4,4,4,4,4,4,0,0,0,0,0,0,0,0,0,0,0,0,0,0,4,4,4,4,4,4,4,4,4,4,4,4,4,4,4,4,4,4,4,4,4,4,4,4,4,4,4,4,0,0,0,0,0,0,0,0,0,0,0,0,0,0,4,4,4,4,4,4,4,4,4,4,4,4,
0,0,0,0,0,0,0,0,0,0,0,0,0,0,0,0,0,0,0,0,0,0,0,0,0,0,0,0,0,0,0,0,0,0,0,0,0,0,0,0,0,0,0,0,0,0,0,0,0,0,0,0,0,0,0,0,0,0,0,0,0,0,0,0,0,4,4,4,4,4,4,4,4,4,4,4,4,4,4,4,4,4,4,4,4,4,4,4,4,4,4,4,4,4,4,4,4,4,4,4,4,4,4,4,4,4,4,4,4,4,4,4,4,4,4,4,4,4,4,4,4,4,4,4,4,4,4,4,4,4,4,4,4,4,4,4,4,4,4,4,4,4,4,4,4,4,4,4,4,4,4,4,4,4,4,4,4,4,4,4,4,4,4,4,0,0,0,0,4,4,4,4,4,4,4,4,4,4,4,4,4,4,4,4,4,4,4,4,4,4,4,4,4,4,4,4,4,4,4,4,4,4,0,0,0,0,0,0,0,0,0,0,0,0,0,0,0,0,4,4,4,4,4,4,4,4,4,4,4,4,4,4,4,4,4,4,4,4,4,4,4,4,4,4,4,4,4,4,4,4,4,4,4,4,4,4,4,4,4,4,4,4,4,4,4,4,4,4,4,4,4,4,4,4,4,4,4,4,4,4,4,4,4,4,4,4,4,4,0,0,0,0,4,4,4,4,4,4,4,4,4,4,4,4,4,4,4,4,4,4,4,4,4,4,4,4,4,4,4,4,4,4,4,4,4,4,4,4,4,4,4,4,4,4,4,4,4,4,4,4,4,4,4,4,4,4,0,0,0,0,0,0,0,0,0,0,0,0,0,0,4,4,4,4,4,4,4,4,4,4,4,4,
0,0,0,0,0,0,0,0,0,0,0,0,0,0,0,0,0,0,0,0,0,0,0,0,0,0,0,0,0,0,0,0,0,0,0,0,0,0,0,0,0,0,0,0,0,0,0,0,0,0,0,0,0,0,0,0,0,0,0,0,0,0,0,0,0,0,4,4,4,4,4,4,4,4,4,4,4,4,4,4,4,4,4,4,4,4,4,4,4,4,4,4,4,4,4,4,4,4,4,4,4,4,4,4,4,4,4,4,4,4,4,4,4,4,4,4,4,4,4,4,4,4,4,4,4,4,4,4,4,4,4,4,4,4,4,4,4,4,4,4,4,4,4,4,4,4,4,4,4,4,4,4,4,4,4,4,4,4,4,4,4,4,4,4,0,0,0,0,4,4,4,4,4,4,4,4,4,4,4,4,4,4,4,4,4,4,4,4,4,4,4,4,4,4,4,4,4,4,4,4,4,4,0,0,0,0,0,0,0,0,0,0,0,0,0,0,0,0,4,4,4,4,4,4,4,4,4,4,4,4,4,4,4,4,4,4,4,4,4,4,4,4,4,4,4,4,4,4,4,4,4,4,4,4,4,4,4,4,4,4,4,4,4,4,4,4,4,4,4,4,4,4,4,4,4,4,4,4,4,4,4,4,4,4,4,4,4,4,0,0,0,0,4,4,4,4,4,4,4,4,4,4,4,4,4,4,4,4,4,4,4,4,4,4,4,4,4,4,4,4,4,4,4,4,4,4,4,4,4,4,4,4,4,4,4,4,4,4,4,4,4,4,4,4,4,4,0,0,0,0,0,0,0,0,0,0,0,0,0,0,4,4,4,4,4,4,4,4,4,4,4,4,
0,0,0,0,0,0,0,0,0,0,0,0,0,0,0,0,0,0,0,0,0,0,0,0,0,0,0,0,0,0,0,0,0,0,0,0,0,0,0,0,0,0,0,0,0,0,0,0,0,0,0,0,0,0,0,0,0,0,0,0,0,0,0,0,0,0,0,0,4,4,4,4,4,4,4,4,4,4,4,4,4,4,4,4,4,4,4,4,4,4,4,4,4,4,4,4,4,4,4,4,4,4,4,4,4,4,4,4,4,4,4,4,4,4,4,4,4,4,4,4,4,4,4,4,4,4,4,4,4,4,4,4,4,4,4,4,4,4,4,4,4,4,4,4,4,4,4,4,4,4,4,4,4,4,4,4,4,4,4,4,4,4,4,4,0,0,0,0,4,4,4,4,4,4,4,4,4,4,4,4,4,4,4,4,4,4,4,4,4,4,4,4,4,4,4,4,4,4,4,4,4,4,4,4,4,4,4,4,4,4,4,4,4,4,4,4,4,4,4,4,4,4,4,4,4,4,4,4,4,4,4,4,4,4,4,4,4,4,4,4,4,4,4,4,4,4,4,4,4,4,4,4,4,4,4,4,4,4,4,4,4,4,4,4,4,4,4,4,4,4,4,4,4,4,4,4,4,4,4,4,4,4,4,4,4,4,4,4,0,0,0,0,4,4,4,4,4,4,4,4,4,4,4,4,4,4,4,4,4,4,4,4,4,4,4,4,4,4,4,4,4,4,4,4,4,4,4,4,4,4,4,4,4,4,4,4,4,4,4,4,4,4,4,4,4,4,4,4,4,4,4,4,4,4,4,4,4,4,4,4,4,4,4,4,4,4,4,4,4,4,4,4,
0,0,0,0,0,0,0,0,0,0,0,0,0,0,0,0,0,0,0,0,0,0,0,0,0,0,0,0,0,0,0,0,0,0,0,0,0,0,0,0,0,0,0,0,0,0,0,0,0,0,0,0,0,0,0,0,0,0,0,0,0,0,0,0,0,0,0,0,0,0,4,4,4,4,4,4,4,4,4,4,4,4,4,4,4,4,4,4,4,4,4,4,4,4,4,4,4,4,4,4,4,4,4,4,4,4,4,4,4,4,4,4,4,4,4,4,4,4,4,4,4,4,4,4,4,4,4,4,4,4,4,4,4,4,4,4,4,4,4,4,4,4,4,4,4,4,4,4,4,4,4,4,4,4,4,4,4,4,4,4,4,4,4,4,0,0,0,0,4,4,4,4,4,4,4,4,4,4,4,4,4,4,4,4,4,4,4,4,4,4,4,4,4,4,4,4,4,4,4,4,4,4,4,4,4,4,4,4,4,4,4,4,4,4,4,4,4,4,4,4,4,4,4,4,4,4,4,4,4,4,4,4,4,4,4,4,4,4,4,4,4,4,4,4,4,4,4,4,4,4,4,4,4,4,4,4,4,4,4,4,4,4,4,4,4,4,4,4,4,4,4,4,4,4,4,4,4,4,4,4,4,4,4,4,4,4,4,4,0,0,0,0,4,4,4,4,4,4,4,4,4,4,4,4,4,4,4,4,4,4,4,4,4,4,4,4,4,4,4,4,4,4,4,4,4,4,4,4,4,4,4,4,4,4,4,4,4,4,4,4,4,4,4,4,4,4,4,4,4,4,4,4,4,4,4,4,4,4,4,4,4,4,4,4,4,4,4,4,4,4,4,4,
0,0,0,0,0,0,0,0,0,0,0,0,0,0,0,0,0,0,0,0,0,0,0,0,0,0,0,0,0,0,0,0,0,0,0,0,0,0,0,0,0,0,0,0,0,0,0,0,0,0,0,0,0,0,0,0,0,0,0,0,0,0,0,0,0,0,0,0,0,0,0,0,4,4,4,4,4,4,4,4,4,4,4,4,4,4,4,4,4,4,4,4,4,4,4,4,4,4,4,4,4,4,4,4,4,4,4,4,4,4,4,4,4,4,4,4,4,4,4,4,4,4,4,4,4,4,4,4,4,4,4,4,4,4,4,4,4,4,4,4,4,4,4,4,4,4,4,4,4,4,4,4,4,4,4,4,4,4,4,4,4,4,4,4,0,0,0,0,4,4,4,4,4,4,4,4,4,4,4,4,4,4,4,4,4,4,4,4,4,4,4,4,4,4,4,4,4,4,4,4,4,4,4,4,4,4,4,4,4,4,4,4,4,4,4,4,4,4,4,4,4,4,4,4,4,4,4,4,4,4,4,4,4,4,4,4,4,4,4,4,4,4,4,4,4,4,4,4,4,4,4,4,4,4,4,4,4,4,4,4,4,4,4,4,4,4,4,4,4,4,4,4,4,4,4,4,4,4,4,4,4,4,4,4,4,4,4,4,0,0,0,0,4,4,4,4,4,4,4,4,4,4,4,4,4,4,4,4,4,4,4,4,4,4,4,4,4,4,4,4,4,4,4,4,4,4,4,4,4,4,4,4,4,4,4,4,4,4,4,4,4,4,4,4,4,4,4,4,4,4,4,4,4,4,4,4,4,4,4,4,4,4,4,4,4,4,4,4,4,4,4,4,
0,0,0,0,0,0,0,0,0,0,0,0,0,0,0,0,0,0,0,0,0,0,0,0,0,0,0,0,0,0,0,0,0,0,0,0,0,0,0,0,0,0,0,0,0,0,0,0,0,0,0,0,0,0,0,0,0,0,0,0,0,0,0,0,0,0,0,0,0,0,0,0,0,0,4,4,4,4,4,4,4,4,4,4,4,4,4,4,4,4,4,4,4,4,4,4,4,4,4,4,4,4,4,4,4,4,4,4,4,4,4,4,4,4,4,4,4,4,4,4,4,4,4,4,4,4,4,4,4,4,4,4,4,4,4,4,4,4,4,4,4,4,4,4,4,4,4,4,4,4,4,4,4,4,4,4,4,4,4,4,4,4,4,4,0,0,0,0,4,4,4,4,4,4,4,4,4,4,4,4,4,4,4,4,4,4,4,4,4,4,4,4,4,4,4,4,4,4,4,4,4,4,4,4,4,4,4,4,4,4,4,4,4,4,4,4,4,4,4,4,4,4,4,4,4,4,4,4,4,4,4,4,4,4,4,4,4,4,4,4,4,4,4,4,4,4,4,4,4,4,4,4,4,4,4,4,4,4,4,4,4,4,4,4,4,4,4,4,4,4,4,4,4,4,4,4,4,4,4,4,4,4,4,4,4,4,4,4,0,0,0,0,4,4,4,4,4,4,4,4,4,4,4,4,4,4,4,4,4,4,4,4,4,4,4,4,4,4,4,4,4,4,4,4,4,4,4,4,4,4,4,4,4,4,4,4,4,4,4,4,4,4,4,4,4,4,4,4,4,4,4,4,4,4,4,4,4,4,4,4,4,4,4,4,4,4,4,4,4,4,4,4,
0,0,0,0,0,0,0,0,0,0,0,0,0,0,0,0,0,0,0,0,0,0,0,0,0,0,0,0,0,0,0,0,0,0,0,0,0,0,0,0,0,0,0,0,0,0,0,0,0,0,0,0,0,0,0,0,0,0,0,0,0,0,0,0,0,0,0,0,0,0,0,0,0,0,0,0,0,0,0,0,0,0,0,0,0,0,0,0,0,0,0,0,0,0,0,0,0,0,0,0,0,0,0,0,0,0,0,0,0,0,0,0,0,0,0,0,0,0,0,0,0,0,0,0,0,0,0,0,0,0,0,0,0,0,0,0,0,0,0,0,0,0,0,0,0,0,0,0,0,0,0,0,0,0,0,0,0,0,0,0,0,0,0,0,0,0,0,0,0,0,0,0,0,0,0,0,0,0,0,0,0,0,0,0,0,0,0,0,0,0,0,0,0,0,0,0,0,0,0,0,0,0,0,0,0,0,0,0,0,0,0,0,0,0,0,0,0,0,0,0,0,0,0,0,0,0,0,0,0,0,0,0,0,0,0,0,0,0,0,0,0,0,0,0,0,0,0,0,0,0,0,0,0,0,0,0,0,0,0,0,0,0,0,0,0,0,0,0,0,0,0,0,0,0,0,0,0,0,0,0,0,0,0,0,0,0,0,0,0,0,0,0,0,0,0,0,0,0,0,0,0,0,0,0,0,0,0,0,0,0,0,0,0,0,0,0,0,0,0,0,0,0,0,0,0,0,0,0,0,0,0,0,0,0,0,0,0,0,0,0,0,0,0,0,0,0,0,0,0,0,0,0,0,0,0,0,0,0,0,0,0,0,0,0,0,0,0,0,0,0,0,0,
0,0,0,0,0,0,0,0,0,0,0,0,0,0,0,0,0,0,0,0,0,0,0,0,0,0,0,0,0,0,0,0,0,0,0,0,0,0,0,0,0,0,0,0,0,0,0,0,0,0,0,0,0,0,0,0,0,0,0,0,0,0,0,0,0,0,0,0,0,0,0,0,0,0,0,0,0,0,0,0,0,0,0,0,0,0,0,0,0,0,0,0,0,0,0,0,0,0,0,0,0,0,0,0,0,0,0,0,0,0,0,0,0,0,0,0,0,0,0,0,0,0,0,0,0,0,0,0,0,0,0,0,0,0,0,0,0,0,0,0,0,0,0,0,0,0,0,0,0,0,0,0,0,0,0,0,0,0,0,0,0,0,0,0,0,0,0,0,0,0,0,0,0,0,0,0,0,0,0,0,0,0,0,0,0,0,0,0,0,0,0,0,0,0,0,0,0,0,0,0,0,0,0,0,0,0,0,0,0,0,0,0,0,0,0,0,0,0,0,0,0,0,0,0,0,0,0,0,0,0,0,0,0,0,0,0,0,0,0,0,0,0,0,0,0,0,0,0,0,0,0,0,0,0,0,0,0,0,0,0,0,0,0,0,0,0,0,0,0,0,0,0,0,0,0,0,0,0,0,0,0,0,0,0,0,0,0,0,0,0,0,0,0,0,0,0,0,0,0,0,0,0,0,0,0,0,0,0,0,0,0,0,0,0,0,0,0,0,0,0,0,0,0,0,0,0,0,0,0,0,0,0,0,0,0,0,0,0,0,0,0,0,0,0,0,0,0,0,0,0,0,0,0,0,0,0,0,0,0,0,0,0,0,0,0,0,0,0,0,0,0,0,
0,0,0,0,0,0,0,0,0,0,0,0,0,0,0,0,0,0,0,0,0,0,0,0,0,0,0,0,0,0,0,0,0,0,0,0,0,0,0,0,0,0,0,0,0,0,0,0,0,0,0,0,0,0,0,0,0,0,0,0,0,0,0,0,0,0,0,0,0,0,0,0,0,0,0,0,0,0,0,0,0,0,0,0,0,0,0,0,0,0,0,0,0,0,0,0,0,0,0,0,0,0,0,0,0,0,0,0,0,0,0,0,0,0,0,0,0,0,0,0,0,0,0,0,0,0,0,0,0,0,0,0,0,0,0,0,0,0,0,0,0,0,0,0,0,0,0,0,0,0,0,0,0,0,0,0,0,0,0,0,0,0,0,0,0,0,0,0,0,0,0,0,0,0,0,0,0,0,0,0,0,0,0,0,0,0,0,0,0,0,0,0,0,0,0,0,0,0,0,0,0,0,0,0,0,0,0,0,0,0,0,0,0,0,0,0,0,0,0,0,0,0,0,0,0,0,0,0,0,0,0,0,0,0,0,0,0,0,0,0,0,0,0,0,0,0,0,0,0,0,0,0,0,0,0,0,0,0,0,0,0,0,0,0,0,0,0,0,0,0,0,0,0,0,0,0,0,0,0,0,0,0,0,0,0,0,0,0,0,0,0,0,0,0,0,0,0,0,0,0,0,0,0,0,0,0,0,0,0,0,0,0,0,0,0,0,0,0,0,0,0,0,0,0,0,0,0,0,0,0,0,0,0,0,0,0,0,0,0,0,0,0,0,0,0,0,0,0,0,0,0,0,0,0,0,0,0,0,0,0,0,0,0,0,0,0,0,0,0,0,0,0,
0,0,0,0,0,0,0,0,0,0,0,0,0,0,0,0,0,0,0,0,0,0,0,0,0,0,0,0,0,0,0,0,0,0,0,0,0,0,0,0,0,0,0,0,0,0,0,0,0,0,0,0,0,0,0,0,0,0,0,0,0,0,0,0,0,0,0,0,0,0,0,0,0,0,0,0,0,0,0,0,0,0,0,0,0,0,0,0,0,0,0,0,0,0,0,0,0,0,0,0,0,0,0,0,0,0,0,0,0,0,0,0,0,0,0,0,0,0,0,0,0,0,0,0,0,0,0,0,0,0,0,0,0,0,0,0,0,0,0,0,0,0,0,0,0,0,0,0,0,0,0,0,0,0,0,0,0,0,0,0,0,0,0,0,0,0,0,0,0,0,0,0,0,0,0,0,0,0,0,0,0,0,0,0,0,0,0,0,0,0,0,0,0,0,0,0,0,0,0,0,0,0,0,0,0,0,0,0,0,0,0,0,0,0,0,0,0,0,0,0,0,0,0,0,0,0,0,0,0,0,0,0,0,0,0,0,0,0,0,0,0,0,0,0,0,0,0,0,0,0,0,0,0,0,0,0,0,0,0,0,0,0,0,0,0,0,0,0,0,0,0,0,0,0,0,0,0,0,0,0,0,0,0,0,0,0,0,0,0,0,0,0,0,0,0,0,0,0,0,0,0,0,0,0,0,0,0,0,0,0,0,0,0,0,0,0,0,0,0,0,0,0,0,0,0,0,0,0,0,0,0,0,0,0,0,0,0,0,0,0,0,0,0,0,0,0,0,0,0,0,0,0,0,0,0,0,0,0,0,0,0,0,0,0,0,0,0,0,0,0,0,0,
0,0,0,0,0,0,0,0,0,0,0,0,0,0,0,0,0,0,0,0,0,0,0,0,0,0,0,0,0,0,0,0,0,0,0,0,0,0,0,0,0,0,0,0,0,0,0,0,0,0,0,0,0,0,0,0,0,0,0,0,0,0,0,0,0,0,0,0,0,0,0,0,0,0,0,0,0,0,0,0,0,0,0,0,0,0,0,0,0,0,0,0,0,0,0,0,0,0,0,0,0,0,0,0,0,0,0,0,0,0,0,0,0,0,0,0,0,0,0,0,0,0,0,0,0,0,0,0,0,0,0,0,0,0,0,0,0,0,0,0,0,0,0,0,0,0,0,0,0,0,0,0,0,0,0,0,0,0,0,0,0,0,0,0,0,0,0,0,0,0,0,0,0,0,0,0,0,0,0,0,0,0,0,0,0,0,0,0,0,0,0,0,0,0,0,0,0,0,0,0,0,0,0,0,0,0,0,0,0,0,0,0,0,0,0,0,0,0,0,0,0,0,0,0,0,0,0,0,0,0,0,0,0,0,0,0,0,0,0,0,0,0,0,0,0,0,0,0,0,0,0,0,0,0,0,0,0,0,0,0,0,0,0,0,0,0,0,0,0,0,0,0,0,0,0,0,0,0,0,0,0,0,0,0,0,0,0,0,0,0,0,0,0,0,0,0,0,0,0,0,0,0,0,0,0,0,0,0,0,0,0,0,0,0,0,0,0,0,0,0,0,0,0,0,0,0,0,0,0,0,0,0,0,0,0,0,0,0,0,0,0,0,0,0,0,0,0,0,0,0,0,0,0,0,0,0,0,0,0,0,0,0,0,0,0,0,0,0,0,0,0,0,
0,0,0,0,0,0,0,0,0,0,0,0,0,0,0,0,0,0,0,0,0,0,0,0,0,0,0,0,0,0,0,0,0,0,0,0,0,0,0,0,0,0,0,0,0,0,0,0,0,0,0,0,0,0,0,0,0,0,0,0,0,0,0,0,0,0,0,0,0,0,0,0,0,0,0,0,0,0,0,0,0,0,0,0,0,0,0,0,0,0,0,0,0,0,0,0,0,0,0,0,0,0,0,0,0,0,0,0,0,0,0,0,0,0,0,0,0,0,0,0,0,0,0,0,0,0,0,0,0,0,0,0,0,0,0,0,0,0,0,0,0,0,0,0,0,0,0,0,0,0,0,0,0,0,0,0,0,0,0,4,0,0,0,0,0,0,0,0,0,0,0,0,4,0,0,0,0,0,0,0,0,0,0,0,0,0,0,0,0,0,0,0,0,0,0,0,0,0,0,0,0,0,0,0,0,0,0,0,0,0,0,0,0,0,0,0,0,0,0,0,0,0,0,0,0,0,0,0,0,0,0,0,0,0,0,0,0,0,0,0,0,0,0,0,0,0,0,0,0,0,0,0,0,0,0,0,0,0,0,0,0,0,0,0,0,0,0,0,0,0,0,0,0,0,0,0,0,0,0,0,0,0,0,4,0,0,0,0,0,0,0,0,0,0,0,0,4,0,0,0,0,0,0,0,0,0,0,0,0,0,0,0,0,0,0,0,0,0,0,0,0,0,0,0,0,0,0,0,0,0,0,0,0,0,0,0,0,0,0,0,0,0,0,0,0,0,0,0,0,0,0,0,0,0,0,0,0,0,0,0,0,0,0,0,0,0,0,0,0,0,0,0,
0,0,0,0,0,0,0,0,0,0,0,0,0,0,0,0,0,0,0,0,0,0,0,0,0,0,0,0,0,0,0,0,0,0,0,0,0,0,0,0,0,0,0,0,0,0,0,0,0,0,0,0,0,0,0,0,0,0,0,0,0,0,0,0,0,0,0,0,0,0,0,0,0,0,0,0,0,0,0,0,0,0,0,0,0,0,0,0,0,0,0,0,0,0,0,0,0,0,0,0,0,0,0,0,0,0,0,0,0,0,0,0,0,0,0,0,0,0,0,0,0,0,0,0,0,0,0,0,0,0,0,0,0,0,0,0,0,0,0,0,0,0,0,0,0,0,0,0,0,0,0,0,0,0,0,0,0,0,0,4,4,4,4,4,4,4,4,4,4,4,4,4,4,0,0,0,0,0,0,0,0,0,0,0,0,0,0,0,0,0,0,0,0,0,0,0,0,0,0,0,0,0,0,0,0,0,0,0,0,0,0,0,0,0,0,0,0,0,0,0,0,0,0,0,0,0,0,0,0,0,0,0,0,0,0,0,0,0,0,0,0,0,0,0,0,0,0,0,0,0,0,0,0,0,0,0,0,0,0,0,0,0,0,0,0,0,0,0,0,0,0,0,0,0,0,0,0,0,0,0,0,0,0,4,4,4,4,4,4,4,4,4,4,4,4,4,4,0,0,0,0,0,0,0,0,0,0,0,0,0,0,0,0,0,0,0,0,0,0,0,0,0,0,0,0,0,0,0,0,0,0,0,0,0,0,0,0,0,0,0,0,0,0,0,0,0,0,0,0,0,0,0,0,0,0,0,0,0,0,0,0,0,0,0,0,0,0,0,0,0,0,0,
0,0,0,0,0,0,0,0,0,0,0,0,0,0,0,0,0,0,0,0,0,0,0,0,0,0,0,0,0,0,0,0,0,0,0,0,0,0,0,0,0,0,0,0,0,0,0,0,0,0,0,0,0,0,0,0,0,0,0,0,0,0,0,0,0,0,0,0,0,0,0,0,0,0,0,0,0,0,0,0,0,0,0,0,0,0,0,0,0,0,0,0,0,0,0,0,0,0,0,0,0,0,0,0,0,0,0,0,0,0,0,0,0,0,0,0,0,0,0,0,0,0,0,0,0,0,0,0,0,0,0,0,0,0,0,0,0,0,0,0,0,0,0,0,0,0,0,0,0,0,0,0,0,0,0,0,0,0,0,0,0,0,0,0,0,0,0,0,0,0,0,0,0,0,0,0,0,0,0,0,0,0,0,0,0,0,0,0,0,0,0,0,0,0,0,0,0,0,0,0,0,0,0,0,0,0,0,0,0,0,0,0,0,0,0,0,0,0,0,0,0,0,0,0,0,0,0,0,0,0,0,0,0,0,0,0,0,0,0,0,0,0,0,0,0,0,0,0,0,0,0,0,0,0,0,0,0,0,0,0,0,0,0,0,0,0,0,0,0,0,0,0,0,0,0,0,0,0,0,0,0,0,0,0,0,0,0,0,0,0,0,0,0,0,0,0,0,0,0,0,0,0,0,0,0,0,0,0,0,0,0,0,0,0,0,0,0,0,0,0,0,0,0,0,0,0,0,0,0,0,0,0,0,0,0,0,0,0,0,0,0,0,0,0,0,0,0,0,0,0,0,0,0,0,0,0,0,0,0,0,0,0,0,0,0,0,0,0,0,0,0,0
</data>
 </layer>
 <layer id="4" name="LevelOut" width="372" height="152">
  <data encoding="csv">
0,0,0,0,0,0,0,0,0,0,0,0,0,0,0,0,0,0,0,0,0,0,0,0,0,0,0,0,0,0,0,0,0,0,0,0,0,0,0,0,47,47,0,0,0,0,0,0,0,0,0,0,0,0,0,0,0,0,0,0,0,0,0,0,0,0,0,0,0,0,0,0,0,0,0,0,0,0,0,0,0,0,0,0,0,0,0,0,0,0,0,0,0,0,0,0,0,0,0,0,0,0,0,0,0,0,0,0,0,0,0,0,0,0,0,0,0,0,0,0,0,0,0,0,0,0,0,0,0,0,0,0,0,0,0,0,0,0,0,0,0,0,0,0,0,0,0,0,0,0,0,0,0,0,0,0,0,0,0,0,0,0,0,0,0,0,0,0,0,0,0,0,0,0,0,0,0,0,0,0,0,0,0,0,0,0,0,0,0,0,0,0,0,0,0,0,0,0,0,0,0,0,0,0,0,0,0,0,0,0,0,0,0,0,0,0,0,0,0,0,0,0,0,0,0,0,0,0,0,0,0,0,0,0,0,0,0,0,0,0,0,0,0,0,0,0,0,0,0,0,0,0,0,0,0,0,0,0,0,0,0,0,0,0,0,0,0,0,0,0,47,48,48,47,48,47,47,47,48,47,47,48,47,48,47,48,48,48,48,48,47,48,47,48,48,47,48,47,48,48,0,0,0,0,0,0,0,0,0,0,0,0,0,0,0,0,0,0,0,0,0,0,0,0,0,0,0,0,0,0,0,0,0,0,0,0,0,0,0,0,0,0,0,0,0,0,0,0,47,48,47,48,47,47,48,48,48,47,47,48,47,48,47,48,48,47,48,48,47,47,48,47,
0,0,0,0,0,0,0,0,0,0,0,0,0,0,0,0,0,0,0,0,0,0,0,0,0,0,0,0,0,0,0,0,0,0,0,0,0,0,0,0,47,47,0,0,0,0,0,0,0,0,0,0,0,0,0,0,0,0,0,0,0,0,0,0,0,0,0,0,0,0,0,0,0,0,0,0,0,0,0,0,0,0,0,0,0,0,0,0,0,0,0,0,0,0,0,0,0,0,0,0,0,0,0,0,0,0,0,0,0,0,0,0,0,0,0,0,0,0,0,0,0,0,0,0,0,0,0,0,0,0,0,0,0,0,0,0,0,0,0,0,0,0,0,0,0,0,0,0,0,0,0,0,0,0,0,0,0,0,0,0,0,0,0,0,0,0,0,0,0,0,0,0,0,0,0,0,0,0,0,0,0,0,0,0,0,0,0,0,0,0,0,0,0,0,0,0,0,0,0,0,0,0,0,0,0,0,0,0,0,0,0,0,0,0,0,0,0,0,0,0,0,0,0,0,0,0,0,0,0,0,0,0,0,0,0,0,0,0,0,0,0,0,0,0,0,0,0,0,0,0,0,0,0,0,0,0,0,0,0,0,0,0,0,0,0,0,0,0,0,0,48,47,48,47,48,47,48,48,48,47,47,47,48,48,48,48,48,47,48,47,48,48,47,48,48,47,47,48,47,47,0,0,0,0,0,0,0,0,0,0,0,0,0,0,0,0,0,0,0,0,0,0,0,0,0,0,0,0,0,0,0,0,0,0,0,0,0,0,0,0,0,0,0,0,0,0,0,0,47,47,48,48,47,47,48,47,47,48,47,47,48,48,48,48,48,47,48,48,48,48,47,48,
0,0,0,0,0,0,0,0,0,0,0,0,0,0,0,0,0,0,0,0,0,0,0,0,0,0,0,0,0,0,0,0,0,0,0,0,0,0,0,0,48,48,0,0,0,0,0,0,0,0,0,0,0,0,0,0,0,0,0,0,0,0,0,0,0,0,0,0,0,0,0,0,0,0,0,0,0,0,0,0,0,0,0,0,0,0,0,0,0,0,0,0,0,0,0,0,0,0,0,0,0,0,0,0,0,0,0,0,0,0,0,0,0,0,0,0,0,0,0,0,0,0,0,0,0,0,0,0,0,0,0,0,0,0,0,0,0,0,0,0,0,0,0,0,0,0,0,0,0,0,0,0,0,0,0,0,0,0,0,0,0,0,0,0,0,0,0,0,0,0,0,0,0,0,0,0,0,0,0,0,0,0,0,0,0,0,0,0,0,0,0,0,0,0,0,0,0,0,0,0,0,0,0,0,0,0,0,0,0,0,0,0,0,0,0,0,0,0,0,0,0,0,0,0,0,0,0,0,0,0,0,0,0,0,0,0,0,0,0,0,0,0,0,0,0,0,0,0,0,0,0,0,0,0,0,0,0,0,0,0,0,0,0,0,0,0,0,0,0,0,48,48,47,48,48,48,48,48,48,47,47,48,47,47,48,48,48,47,48,48,47,47,47,47,48,48,48,48,48,47,0,0,0,0,0,0,0,0,0,0,0,0,0,0,0,0,0,0,0,0,0,0,0,0,0,0,0,0,0,0,0,0,0,0,0,0,0,0,0,0,0,0,0,0,0,0,0,0,48,48,47,48,48,48,48,47,48,47,48,47,48,47,48,47,48,48,48,48,48,47,47,47,
0,0,0,0,0,0,0,0,0,0,0,0,0,0,0,0,0,0,0,0,0,0,0,0,0,0,0,0,0,0,0,0,0,0,0,0,0,0,0,0,48,48,0,0,0,0,0,0,0,0,0,0,0,0,0,0,0,0,0,0,0,0,0,0,0,0,0,0,0,0,0,0,0,0,0,0,0,0,0,0,0,0,0,0,0,0,0,0,0,0,0,0,0,0,0,0,0,0,0,0,0,0,0,0,0,0,0,0,0,0,0,0,0,0,0,0,0,0,0,0,0,0,0,0,0,0,0,0,0,0,0,0,0,0,0,0,0,0,0,0,0,0,0,0,0,0,0,0,0,0,0,0,0,0,0,0,0,0,0,0,0,0,0,0,0,0,0,0,0,0,0,0,0,0,0,0,0,0,0,0,0,0,0,0,0,0,0,0,0,0,0,0,0,0,0,0,0,0,0,0,0,0,0,0,0,0,0,0,0,0,0,0,0,0,0,0,0,0,0,0,0,0,0,0,0,0,0,0,0,0,0,0,0,0,0,0,0,0,0,0,0,0,0,0,0,0,0,0,0,0,0,0,0,0,0,0,0,0,0,0,0,0,0,0,0,0,0,0,0,0,48,48,47,47,48,48,47,47,48,48,48,48,47,47,48,48,48,48,47,47,47,47,47,47,48,47,48,47,48,47,0,0,0,0,0,0,0,0,0,0,0,0,0,0,0,0,0,0,0,0,0,0,0,0,0,0,0,0,0,0,0,0,0,0,0,0,0,0,0,0,0,0,0,0,0,0,0,0,48,47,47,47,48,48,47,48,47,48,48,47,48,47,48,48,48,47,48,48,48,47,48,48,
0,0,0,0,0,0,0,0,0,0,0,0,0,0,0,0,0,0,0,0,0,0,0,0,0,0,0,0,0,0,0,0,0,0,0,0,0,0,0,0,47,48,0,0,0,0,0,0,0,0,0,0,0,0,0,0,0,0,0,0,0,0,0,0,0,0,0,0,0,0,0,0,0,0,0,0,0,0,0,0,0,0,0,0,0,0,0,0,0,0,0,0,0,0,0,0,0,0,0,0,0,0,0,0,0,0,0,0,0,0,0,0,0,0,0,0,0,0,0,0,0,0,0,0,0,0,0,0,0,0,0,0,0,0,0,0,0,0,0,0,0,0,0,0,0,0,0,0,0,0,0,0,0,0,0,0,0,0,0,0,0,0,0,0,0,0,0,0,0,0,0,0,0,0,0,0,0,0,0,0,0,0,0,0,0,0,0,0,0,0,0,0,0,0,0,0,0,0,0,0,0,0,0,0,0,0,0,0,0,0,0,0,0,0,0,0,0,0,0,0,0,0,0,0,0,0,0,0,0,0,0,0,0,0,0,0,0,0,0,0,0,0,0,0,0,0,0,0,0,0,0,0,0,0,0,0,0,0,0,0,0,0,0,0,0,0,0,0,0,0,47,48,47,48,48,48,48,47,48,48,48,48,48,47,47,48,48,48,48,48,47,47,47,47,48,48,47,48,48,47,0,0,0,0,0,0,0,0,0,0,0,0,0,0,0,0,0,0,0,0,0,0,0,0,0,0,0,0,0,0,0,0,0,0,0,0,0,0,0,0,0,0,0,0,0,0,0,0,47,47,47,48,47,48,47,47,48,48,47,48,47,48,48,48,48,48,47,47,48,47,48,47,
0,0,0,0,0,0,0,0,0,0,0,0,0,0,0,0,0,0,0,0,0,0,0,0,0,0,0,0,0,0,0,0,0,0,0,0,0,0,0,0,48,47,0,0,0,0,0,0,0,0,0,0,0,0,0,0,0,0,0,0,0,0,0,0,0,0,0,0,0,0,0,0,0,0,0,0,0,0,0,0,0,0,0,0,0,0,0,0,0,0,0,0,0,0,0,0,0,0,0,0,0,0,0,0,0,0,0,0,0,0,0,0,0,0,0,0,0,0,0,0,0,0,0,0,0,0,0,0,0,0,0,0,0,0,0,0,0,0,0,0,0,0,0,0,0,0,0,0,0,0,0,0,0,0,0,0,0,0,0,0,0,0,0,0,0,0,0,0,0,0,0,0,0,0,0,0,0,0,0,0,0,0,0,0,0,0,0,0,0,0,0,0,0,0,0,0,0,0,0,0,0,0,0,0,0,0,0,0,0,0,0,0,0,0,0,0,0,0,0,0,0,0,0,0,0,0,0,0,0,0,0,0,0,0,0,0,0,0,0,0,0,0,0,0,0,0,0,0,0,0,0,0,0,0,0,0,0,0,0,0,0,0,0,0,0,0,0,0,0,0,48,47,47,48,47,47,48,47,47,47,47,48,48,48,47,47,47,47,47,47,47,48,48,48,47,47,48,47,48,48,0,0,0,0,0,0,0,0,0,0,0,0,0,0,0,0,0,0,0,0,0,0,0,0,0,0,0,0,0,0,0,0,0,0,0,0,0,0,0,0,0,0,0,0,0,0,0,0,48,47,48,48,48,47,48,48,47,47,48,48,47,48,48,47,47,47,47,47,48,47,47,48,
0,0,0,0,0,0,0,0,0,0,0,0,0,0,0,0,0,0,0,0,0,0,0,0,0,0,0,0,0,0,0,0,0,0,0,0,0,0,0,0,48,48,0,0,0,0,0,0,0,0,0,0,0,0,0,0,0,0,0,0,0,0,0,0,0,0,0,0,0,0,0,0,0,0,0,0,0,0,0,0,0,0,0,0,0,0,0,0,0,0,0,0,0,0,0,0,0,0,0,0,0,0,0,0,0,0,0,0,0,0,0,0,0,0,0,0,0,0,0,0,0,0,0,0,0,0,0,0,0,0,0,0,0,0,0,0,0,0,0,0,0,0,0,0,0,0,0,0,0,0,0,0,0,0,0,0,0,0,0,0,0,0,0,0,0,0,0,0,0,0,0,0,0,0,0,0,0,0,0,0,0,0,0,0,0,0,0,0,0,0,0,0,0,0,0,0,0,0,0,0,0,0,0,0,0,0,0,0,0,0,0,0,0,0,0,0,0,0,0,0,0,0,0,0,0,0,0,0,0,0,0,0,0,0,0,0,0,0,0,0,0,0,0,0,0,0,0,0,0,0,0,0,0,0,0,0,0,0,0,0,0,0,0,0,0,0,0,0,0,0,47,48,47,47,47,47,48,47,48,48,47,47,48,47,48,47,48,47,47,48,48,48,47,47,47,47,48,47,47,48,0,0,0,0,0,0,0,0,0,0,0,0,0,0,0,0,0,0,0,0,0,0,0,0,0,0,0,0,0,0,0,0,0,0,0,0,0,0,0,0,0,0,0,0,0,0,0,0,48,48,47,48,47,48,48,48,48,47,48,48,47,47,48,48,47,48,48,47,47,48,48,48,
0,0,0,0,0,0,0,0,0,0,0,0,0,0,0,0,0,0,0,0,0,0,0,0,0,0,0,0,0,0,0,0,0,0,0,0,0,0,0,0,48,48,0,0,0,0,0,0,0,0,0,0,0,0,0,0,0,0,0,0,0,0,0,0,0,0,0,0,0,0,0,0,0,0,0,0,0,0,0,0,0,0,0,0,0,0,0,0,0,0,0,0,0,0,0,0,0,0,0,0,0,0,0,0,0,0,0,0,0,0,0,0,0,0,0,0,0,0,0,0,0,0,0,0,0,0,0,0,0,0,0,0,0,0,0,0,0,0,0,0,0,0,0,0,0,0,0,0,0,0,0,0,0,0,0,0,0,0,0,0,0,0,0,0,0,0,0,0,0,0,0,0,0,0,0,0,0,0,0,0,0,0,0,0,0,0,0,0,0,0,0,0,0,0,0,0,0,0,0,0,0,0,0,0,0,0,0,0,0,0,0,0,0,0,0,0,0,0,0,0,0,0,0,0,0,0,0,0,0,0,0,0,0,0,0,0,0,0,0,0,0,0,0,0,0,0,0,0,0,0,0,0,0,0,0,0,0,0,0,0,0,0,0,0,0,0,0,0,0,0,48,48,48,47,48,47,48,47,48,48,47,47,47,48,47,48,48,48,48,48,47,47,48,47,47,48,48,48,47,48,0,0,0,0,0,0,0,0,0,0,0,0,0,0,0,0,0,0,0,0,0,0,0,0,0,0,0,0,0,0,0,0,0,0,0,0,0,0,0,0,0,0,0,0,0,0,0,0,48,48,47,48,47,48,48,48,47,47,48,47,47,47,47,47,47,47,47,47,48,48,47,47,
0,0,0,0,0,0,0,0,0,0,0,0,0,0,0,0,0,0,0,0,0,0,0,0,0,0,0,0,0,0,0,0,0,0,0,0,0,0,0,0,47,48,0,0,0,0,0,0,0,0,0,0,0,0,0,0,0,0,0,0,0,0,0,0,0,0,0,0,0,0,0,0,0,0,0,0,0,0,0,0,0,0,0,0,0,0,0,0,0,0,0,0,0,0,0,0,0,0,0,0,0,0,0,0,0,0,0,0,0,0,0,0,0,0,0,0,0,0,0,0,0,0,0,0,0,0,0,0,0,0,0,0,0,0,0,0,0,0,0,0,0,0,0,0,0,0,0,0,0,0,0,0,0,0,0,0,0,0,0,0,0,0,0,0,0,0,0,0,0,0,0,0,0,0,0,0,0,0,0,0,0,0,0,0,0,0,0,0,0,0,0,0,0,0,0,0,0,0,0,0,0,0,0,0,0,0,0,0,0,0,0,0,0,0,0,0,0,0,0,0,0,0,0,0,0,0,0,0,0,0,0,0,0,0,0,0,0,0,0,0,0,0,0,0,0,0,0,0,0,0,0,0,0,0,0,0,0,0,0,0,0,0,0,0,0,165,134,134,134,134,48,48,48,48,47,47,47,48,47,48,47,47,48,48,47,48,47,47,47,47,48,47,48,48,48,47,48,48,47,48,0,0,0,0,0,0,0,0,0,0,0,0,0,0,0,0,0,0,0,0,0,0,0,0,0,0,0,0,0,0,0,0,0,0,0,0,0,0,0,0,0,0,0,0,0,0,0,0,47,48,48,48,47,48,48,48,47,48,48,48,48,47,47,48,48,47,47,47,47,48,48,48,
0,0,0,0,0,0,0,0,0,0,0,0,0,0,0,0,0,0,0,0,0,0,0,0,0,0,0,0,0,0,0,0,0,0,0,0,0,0,0,0,48,48,0,0,0,0,0,0,0,0,0,0,0,0,0,0,0,0,0,0,0,0,0,0,0,0,0,0,0,0,0,0,0,0,0,0,0,0,165,134,134,134,134,134,134,167,0,0,0,0,0,0,0,0,0,0,0,0,0,0,0,0,0,0,0,0,0,0,0,0,0,0,0,0,0,0,0,0,0,0,0,0,0,0,0,0,0,0,0,0,0,0,0,0,0,0,0,0,0,0,0,0,0,0,0,0,0,0,0,0,0,0,0,0,0,0,0,0,0,0,0,0,0,0,0,0,0,0,0,0,0,0,0,0,0,0,0,0,0,0,0,0,0,0,0,0,0,0,0,0,0,0,0,0,0,0,0,0,0,0,0,0,0,0,0,0,0,0,0,0,0,0,0,0,0,0,0,0,0,0,0,0,0,0,0,0,0,0,0,0,0,0,0,0,0,0,0,0,0,0,0,0,0,0,0,0,0,0,0,0,0,0,0,0,0,0,0,0,0,0,0,0,0,0,0,0,0,0,0,0,48,48,48,48,48,47,47,47,48,47,47,48,48,47,48,47,47,47,48,48,48,48,47,48,48,48,47,47,47,48,0,0,0,0,0,0,0,0,0,0,0,0,0,0,0,0,0,0,0,0,0,0,0,0,0,0,0,0,0,0,0,0,0,0,0,0,0,0,0,0,0,0,0,0,0,0,0,0,48,47,48,48,48,47,47,47,48,48,47,48,48,48,48,47,47,47,47,48,48,47,47,48,
0,0,0,0,0,0,0,0,0,0,0,0,0,0,0,0,0,0,0,0,0,0,0,0,0,0,0,0,0,0,0,0,0,0,0,0,0,0,0,0,47,47,0,0,0,0,0,0,0,0,0,0,165,134,134,134,134,134,134,134,134,134,134,167,0,0,0,0,0,0,0,0,0,0,0,0,0,0,0,0,0,0,0,0,0,0,0,0,0,0,0,0,0,0,0,0,0,0,0,0,0,0,0,0,0,0,0,0,0,0,0,0,0,0,0,0,0,0,0,0,0,0,0,0,0,0,0,0,0,0,0,0,0,0,0,0,0,0,0,0,0,0,0,0,0,0,0,0,0,0,0,0,0,0,0,0,0,0,0,0,0,0,0,0,0,0,0,0,0,0,0,0,0,0,0,0,0,0,0,0,0,0,0,0,0,0,0,0,0,0,0,0,0,0,0,0,0,0,0,0,0,0,0,0,0,0,0,0,0,0,0,0,0,0,0,0,0,0,0,0,0,0,0,0,0,0,0,0,0,0,0,0,0,0,0,0,0,0,0,0,0,0,0,0,165,134,134,134,134,134,167,0,0,0,0,0,0,0,0,0,0,0,0,0,0,0,0,0,0,0,48,48,47,48,48,47,47,47,47,48,47,48,47,48,47,47,47,47,48,47,48,47,47,47,48,47,48,47,48,47,0,0,0,0,0,0,0,0,0,0,0,0,0,0,0,0,0,0,0,0,0,0,0,0,0,0,0,0,0,0,0,0,0,0,0,0,0,0,0,0,0,0,0,0,0,0,0,0,47,48,47,48,48,47,48,48,48,47,47,47,47,47,48,48,47,48,47,48,48,47,47,47,
0,0,0,0,0,0,0,0,0,0,0,0,0,0,0,0,0,0,0,0,0,0,0,0,0,0,0,0,0,0,0,0,0,0,0,0,0,0,0,0,47,47,0,0,0,0,0,0,0,0,0,0,0,0,0,0,0,0,0,0,0,0,0,0,0,0,0,0,0,0,0,0,0,0,0,0,0,0,0,0,0,0,0,0,0,0,0,0,0,0,0,0,0,0,0,0,0,0,0,0,0,0,0,0,0,0,0,0,0,0,0,0,0,0,0,0,0,0,0,0,0,0,0,0,0,0,0,0,0,0,0,0,0,0,0,0,0,0,0,0,0,0,0,0,0,0,0,0,0,0,0,0,0,0,0,0,0,0,0,0,0,0,0,0,0,0,0,0,0,0,0,0,0,0,0,0,0,0,0,0,0,0,0,0,0,0,0,0,0,0,0,0,0,0,0,0,0,0,0,0,0,0,0,0,0,0,0,0,0,0,0,0,0,0,0,0,0,0,0,0,0,0,0,0,0,0,0,0,0,0,0,0,0,0,0,0,0,0,0,0,0,0,0,0,0,0,0,0,0,0,0,0,0,0,0,0,0,0,0,0,165,134,134,134,134,134,134,167,0,0,48,48,48,48,47,47,47,48,48,48,47,48,47,47,48,47,47,47,48,47,48,48,48,47,48,48,47,47,47,47,0,0,0,0,0,0,0,0,0,0,0,0,0,0,0,0,0,0,0,0,0,0,0,0,0,0,0,0,0,0,0,0,0,0,0,0,0,0,0,0,0,0,0,0,0,0,0,0,47,47,47,48,47,47,48,48,48,47,48,47,47,47,48,47,48,48,47,47,47,47,48,48,
0,0,0,0,0,0,0,0,0,0,0,0,0,0,0,0,0,0,0,0,0,0,0,0,0,0,0,0,0,0,0,0,0,0,0,0,0,0,0,0,48,47,0,0,0,0,0,0,0,0,0,0,0,0,0,0,0,0,0,0,0,0,0,0,0,0,0,0,0,0,0,0,0,0,165,134,134,134,134,167,0,0,0,0,0,0,0,0,0,0,0,0,0,0,0,0,0,0,0,0,0,0,0,0,0,0,0,0,0,0,0,0,0,0,0,0,0,0,0,0,0,0,0,0,0,0,0,0,0,0,0,0,0,0,0,0,0,0,0,0,0,0,0,0,0,0,0,0,0,0,0,0,0,0,0,0,0,0,0,0,0,0,0,0,0,0,0,0,0,0,0,0,0,0,0,0,0,0,0,0,0,0,0,0,0,0,0,0,0,0,0,0,0,0,0,0,0,0,0,0,0,0,0,0,0,165,134,134,134,134,134,134,134,167,0,0,0,0,0,0,0,0,0,0,0,0,0,0,0,0,0,0,165,134,134,134,134,134,134,167,0,0,0,0,0,0,0,0,0,0,0,0,0,0,0,0,0,0,0,0,0,0,0,0,0,0,0,0,0,0,48,48,47,48,47,48,48,47,48,47,48,47,48,47,47,47,47,47,48,47,47,48,48,48,48,47,47,47,47,47,0,0,0,0,0,0,0,0,0,0,0,0,0,0,0,0,0,0,0,0,0,0,0,0,0,0,0,0,0,0,0,0,0,0,0,0,0,0,0,0,0,0,0,0,0,0,0,0,47,48,47,47,47,47,47,47,48,47,48,48,48,47,47,48,48,47,47,47,48,48,48,48,
0,0,0,0,0,0,0,0,0,0,0,0,0,0,0,0,0,0,0,0,0,0,0,0,0,0,0,0,0,0,0,0,0,0,0,0,0,0,0,0,48,48,0,0,0,0,0,0,0,0,0,0,0,0,0,0,0,0,0,0,0,0,0,0,0,0,0,0,0,0,0,0,0,0,0,0,0,0,0,0,0,0,0,0,0,0,0,0,0,0,0,0,0,0,0,0,0,0,0,0,0,0,0,0,0,0,0,0,0,0,0,0,0,0,0,0,0,0,0,0,0,0,0,0,0,0,0,0,0,0,0,0,0,0,0,0,0,0,0,0,0,0,0,0,0,0,0,0,0,0,0,0,0,0,0,0,0,0,0,0,0,0,0,0,0,0,0,0,0,0,0,0,0,0,0,0,0,0,0,0,0,0,0,0,0,0,0,0,0,0,0,0,0,0,0,0,0,0,0,0,0,0,0,0,0,0,0,0,0,0,0,0,0,0,0,0,0,0,0,0,0,0,0,0,0,0,0,0,0,0,0,0,0,0,0,0,0,0,0,0,0,0,0,0,0,0,0,0,0,0,165,134,134,134,134,167,0,0,0,0,0,0,0,0,0,0,0,0,0,0,48,48,47,47,48,47,47,47,47,48,48,47,47,48,47,48,48,47,48,47,48,48,48,47,47,48,47,47,47,47,0,0,0,0,0,0,0,0,0,0,0,0,0,0,0,0,0,0,0,0,0,0,0,0,0,0,0,0,0,0,0,0,0,0,0,0,0,0,0,0,0,0,0,0,0,0,0,0,47,48,48,47,47,48,47,47,48,48,47,48,47,48,48,48,48,47,48,47,48,48,48,48,
0,0,0,0,0,0,0,0,0,0,0,0,0,0,0,0,0,0,0,0,0,0,0,0,0,0,0,0,0,0,0,0,0,0,0,0,0,0,0,0,47,47,0,0,0,0,0,0,165,134,134,134,134,167,0,0,0,0,0,0,0,0,165,134,134,134,134,134,134,167,0,0,0,0,0,0,0,0,0,0,0,0,165,134,134,134,134,134,134,167,0,0,0,0,0,0,0,0,0,0,0,0,0,0,0,0,101,103,0,0,0,0,0,0,0,0,0,0,0,0,0,0,0,0,0,0,0,0,0,0,0,0,0,0,0,0,0,0,0,0,0,0,0,0,0,0,0,0,0,0,0,0,0,0,0,0,0,0,0,0,0,0,0,0,0,0,0,0,0,0,0,0,0,0,0,0,0,0,0,0,0,0,0,0,0,0,0,0,0,0,0,0,0,0,0,0,0,0,0,0,0,0,0,0,0,0,0,0,0,0,0,0,165,134,134,134,134,134,134,167,0,0,0,0,0,0,0,0,0,0,0,0,0,0,0,0,0,0,0,165,134,134,134,134,167,0,0,0,0,0,0,0,0,0,0,165,134,134,134,134,134,134,167,0,0,0,0,0,0,0,47,47,47,47,47,48,47,48,47,47,48,47,48,47,47,48,47,48,48,47,48,47,47,47,48,47,48,47,47,47,0,0,0,0,0,0,0,0,0,0,0,0,0,0,0,0,0,0,0,0,0,0,0,0,0,0,0,0,0,0,0,0,0,0,0,0,0,0,0,0,0,0,0,0,0,0,0,0,47,48,47,47,47,47,48,48,47,47,47,47,47,47,48,48,47,48,48,48,48,48,47,47,
0,0,0,0,0,0,0,0,0,0,0,0,0,0,0,0,0,0,0,0,0,0,0,0,0,0,0,0,0,0,0,0,0,0,0,0,0,0,0,0,48,47,0,0,0,0,0,0,0,0,0,0,0,0,0,0,165,134,134,167,0,0,0,0,0,0,0,0,0,165,134,134,134,134,134,167,0,0,0,0,0,0,0,0,0,0,0,0,0,0,0,0,0,0,0,0,0,0,0,0,0,0,0,0,0,0,0,0,0,0,0,0,0,0,0,0,0,0,0,0,0,0,0,0,0,0,0,0,0,0,0,0,0,0,0,0,0,0,0,0,0,0,0,0,0,0,0,0,0,0,0,0,0,0,0,0,0,0,0,0,0,0,0,0,0,0,0,0,0,0,0,0,0,0,0,0,0,0,0,0,0,0,0,0,0,0,0,0,0,0,0,0,0,0,0,0,0,0,0,0,0,0,0,0,0,0,0,0,0,0,0,0,0,0,0,0,0,0,0,0,0,0,0,0,165,134,134,167,0,0,0,0,0,0,0,0,0,0,0,0,0,0,0,0,165,134,134,167,0,0,0,0,0,0,0,0,0,0,0,0,0,0,0,0,0,0,165,134,134,134,48,48,48,48,47,47,47,47,48,47,48,47,47,48,47,48,48,47,48,48,47,48,48,47,47,47,48,48,47,47,0,0,0,0,0,0,0,0,0,0,0,0,0,0,0,0,0,0,0,0,0,0,0,0,0,0,0,0,0,0,0,0,0,0,0,0,0,0,0,0,0,0,0,0,0,0,0,0,47,47,47,47,47,47,48,48,48,48,47,47,48,47,47,47,47,47,47,47,48,48,48,48,
0,0,0,0,0,0,0,0,0,0,0,0,0,0,0,0,0,0,0,0,0,0,0,0,0,0,0,0,0,0,0,0,0,0,0,0,0,0,0,0,47,48,0,0,0,0,0,0,0,0,0,0,0,0,0,0,0,0,0,0,0,0,0,0,0,0,0,0,0,0,0,0,0,0,0,0,0,0,0,0,0,0,0,0,0,0,0,0,0,0,0,0,0,0,0,0,0,0,0,0,0,0,101,103,0,0,0,0,0,0,0,0,0,0,0,0,0,0,0,0,0,0,0,0,0,0,0,0,0,0,0,0,0,0,0,0,0,0,0,0,0,0,0,0,0,0,0,0,0,0,0,0,0,0,0,0,0,0,0,0,0,0,0,0,0,0,0,0,0,0,0,0,0,0,0,0,0,0,0,0,0,0,0,0,0,0,0,0,0,0,0,0,0,0,0,0,0,165,134,134,134,134,134,134,134,167,0,0,0,0,0,0,0,0,0,0,0,0,0,0,0,0,0,0,0,0,0,0,0,0,0,0,0,0,0,0,0,0,0,0,0,0,0,0,0,0,0,0,0,0,0,0,0,0,0,0,0,0,0,0,0,0,0,0,0,0,0,0,0,0,47,47,48,48,48,48,48,47,47,48,47,47,47,48,47,48,48,48,47,48,47,48,47,48,47,48,48,48,48,48,0,0,0,0,0,0,0,0,0,0,0,0,0,0,0,0,0,0,0,0,0,0,0,0,0,0,0,0,0,0,0,0,0,0,0,0,0,0,0,0,0,0,0,0,0,0,0,0,48,47,47,47,48,47,47,47,47,47,48,47,48,47,48,48,47,47,47,47,48,48,48,48,
0,0,0,0,0,0,0,0,0,0,0,0,0,0,0,0,0,0,0,0,0,0,0,0,0,0,0,0,0,0,0,0,0,0,0,0,0,0,0,0,47,48,0,0,0,0,0,0,0,0,0,0,0,0,0,0,0,0,0,0,0,0,0,0,0,0,0,0,0,0,0,0,0,0,0,0,0,0,0,0,0,0,0,0,0,0,0,0,0,0,0,0,0,0,0,0,0,0,0,0,0,0,0,0,0,0,0,0,0,0,0,0,0,0,0,0,0,0,0,0,0,0,0,0,0,0,0,0,0,0,0,0,0,0,0,0,0,0,0,0,0,0,0,0,0,0,0,0,0,0,0,0,0,0,0,0,0,0,0,0,0,0,0,0,0,0,0,0,0,0,0,0,0,0,0,0,0,0,0,0,0,0,0,0,0,0,0,0,0,0,0,0,0,0,0,0,0,0,0,0,0,0,0,0,0,0,0,0,0,0,0,0,0,0,0,0,0,0,0,0,0,0,0,0,0,0,0,0,0,0,0,0,0,0,0,0,0,0,0,0,0,0,0,0,0,0,0,0,0,0,0,0,0,0,0,0,0,0,0,0,0,0,0,0,0,0,0,0,0,0,48,47,48,47,47,47,47,48,48,47,47,47,48,47,47,47,48,47,48,48,47,48,48,48,48,48,48,48,47,47,0,0,0,0,0,0,0,0,0,0,0,0,0,0,0,0,0,0,0,0,0,0,0,0,0,0,0,0,0,0,0,0,0,0,0,0,0,0,0,0,0,0,0,0,0,0,0,0,47,47,48,47,48,48,47,47,47,47,47,47,48,47,48,48,47,47,47,47,48,48,48,47,
0,0,0,0,0,0,0,0,0,0,0,0,0,0,0,0,0,0,0,0,0,0,0,0,0,0,0,0,0,0,0,0,0,0,0,0,0,0,0,0,47,48,47,48,48,48,48,48,47,48,47,47,47,47,47,47,48,47,47,48,48,47,47,47,48,47,48,47,47,47,47,48,48,48,47,48,48,48,48,47,48,48,48,48,47,47,47,48,47,47,47,48,48,48,0,0,101,103,0,0,0,0,0,0,0,0,0,0,0,0,101,103,0,0,0,0,0,0,0,0,0,0,0,0,0,0,0,0,0,0,0,0,0,0,0,0,0,0,0,0,0,0,0,0,0,0,0,0,0,0,0,0,0,0,0,0,0,0,0,0,47,48,47,48,47,47,48,47,47,47,48,48,0,0,0,0,0,0,0,0,0,0,0,0,0,0,0,0,0,0,0,0,0,0,0,0,0,0,0,0,0,0,0,0,0,0,0,0,0,0,0,0,0,0,0,0,0,0,0,165,134,134,134,134,134,134,134,134,134,134,48,48,48,48,47,47,48,47,48,47,48,48,48,47,47,47,47,47,47,47,47,48,47,47,47,48,47,48,47,48,48,48,47,48,47,47,48,47,47,47,47,48,48,48,48,47,48,48,48,48,48,48,48,47,48,47,47,48,48,47,47,47,47,48,48,47,47,47,48,48,0,0,0,0,0,0,0,0,0,0,0,0,0,0,0,0,0,0,0,0,0,0,0,0,0,0,0,0,0,0,0,0,0,0,0,0,0,0,0,0,0,0,0,0,0,0,0,0,48,47,48,47,48,47,48,48,47,48,47,47,48,47,47,47,47,47,47,48,47,47,47,47,
0,0,0,0,0,0,0,0,0,0,0,0,0,0,0,0,0,0,0,0,0,0,0,0,0,0,0,0,0,0,0,0,0,0,0,0,0,0,47,47,48,48,48,47,47,48,48,48,47,48,47,48,47,47,48,47,48,47,48,47,48,48,47,48,48,48,48,47,47,47,48,48,48,47,48,47,48,48,48,47,47,47,48,48,48,47,48,47,47,48,47,47,48,48,0,0,0,0,0,0,0,0,0,0,0,0,0,0,0,0,0,0,0,0,0,0,0,0,0,0,0,0,0,0,0,0,0,0,0,0,0,0,0,0,0,0,0,0,0,0,0,0,0,0,0,0,0,0,0,0,0,0,0,0,0,0,0,0,0,0,48,47,48,47,48,48,47,48,47,48,47,47,0,0,0,0,0,0,0,0,0,0,0,0,0,0,0,0,0,0,0,0,0,0,0,0,0,0,0,0,0,0,0,0,0,0,0,0,0,0,0,0,0,0,0,0,0,0,0,0,0,0,0,0,0,0,0,0,0,0,48,47,47,48,48,47,48,48,48,48,48,48,48,48,47,48,47,47,47,48,47,47,47,48,47,47,48,47,48,47,48,48,47,48,47,48,47,48,47,47,47,48,48,47,48,47,48,48,48,47,48,48,48,48,47,48,48,47,48,47,48,47,48,48,48,47,47,48,48,47,0,0,0,0,0,0,0,0,0,0,0,0,0,0,0,0,0,0,0,0,0,0,0,0,0,0,0,0,0,0,0,0,0,0,0,0,0,0,0,0,0,0,0,0,0,0,0,0,47,47,48,47,48,47,48,48,48,47,47,48,48,48,47,47,48,48,48,48,47,48,47,48,
0,0,0,0,0,0,0,0,0,0,0,0,0,0,0,0,0,0,0,0,0,0,0,0,0,0,0,0,0,0,0,0,0,0,0,0,47,47,48,48,47,47,48,47,48,47,48,47,47,47,48,47,47,47,48,48,48,47,48,47,48,47,47,48,47,47,48,48,48,47,0,0,0,0,47,47,0,0,0,0,0,0,0,0,0,0,0,0,0,0,0,0,0,0,0,0,0,0,0,0,0,0,0,0,0,0,0,0,0,0,0,0,0,0,0,0,0,0,0,0,0,0,0,0,0,0,0,0,0,0,0,0,0,0,0,0,0,0,0,0,0,0,0,0,0,0,0,0,0,0,0,0,0,0,0,0,0,0,0,0,47,48,0,0,0,0,0,0,0,0,48,48,101,103,0,0,0,0,0,0,0,0,0,0,0,0,0,0,0,0,0,0,0,0,0,0,0,0,0,0,0,0,0,0,165,134,134,134,134,134,134,134,134,134,134,167,0,0,0,0,0,0,0,0,0,0,0,0,0,0,47,48,0,0,0,0,0,0,0,0,0,0,0,0,0,0,0,0,0,0,0,0,0,0,0,0,0,0,0,0,0,0,0,0,0,0,0,0,0,0,0,0,0,0,0,0,0,0,0,0,0,0,0,0,0,0,0,0,0,0,0,0,0,0,0,0,0,0,47,48,0,0,0,0,0,0,0,0,0,0,0,0,0,0,0,0,0,0,0,0,0,0,0,0,0,0,0,0,0,0,0,0,0,0,0,0,0,0,0,0,0,0,0,0,0,0,0,0,47,47,47,48,48,47,47,48,48,48,48,48,48,48,47,48,47,48,48,48,47,47,47,48,
0,0,0,0,0,0,0,0,0,0,0,0,0,0,0,0,0,0,0,0,0,0,0,0,0,0,0,0,0,0,0,0,0,0,47,47,48,48,48,47,47,48,47,47,48,48,48,48,48,48,48,48,47,47,47,48,48,48,47,47,48,47,47,48,47,47,47,47,47,47,0,0,0,0,48,48,0,0,0,0,0,0,0,0,0,0,0,0,0,0,0,0,0,0,0,0,0,0,0,0,0,0,0,0,0,0,0,0,0,0,0,0,0,0,0,0,0,0,0,0,0,0,0,0,0,0,0,0,0,0,0,0,0,0,0,0,0,0,0,0,0,0,0,0,0,0,0,0,0,0,0,0,0,0,0,0,0,0,0,0,48,47,0,0,0,0,0,0,0,0,47,48,0,0,0,0,0,0,0,0,0,0,0,0,0,0,0,0,0,0,0,0,0,0,0,0,0,0,0,0,0,0,0,0,0,0,0,0,0,0,0,0,0,0,0,0,0,0,0,0,0,0,0,0,0,0,0,0,0,0,47,48,0,0,0,0,0,0,0,0,0,0,0,0,0,0,0,0,0,0,0,0,0,0,0,0,0,0,0,0,0,0,0,0,0,0,0,0,0,0,0,0,0,0,0,0,0,0,0,0,0,0,0,0,0,0,0,0,0,0,0,0,0,0,0,0,0,0,47,47,101,102,102,102,102,103,0,0,0,0,0,0,0,0,0,0,0,0,0,0,0,0,0,0,0,0,0,0,0,0,0,0,0,0,0,0,0,0,0,0,0,0,101,102,102,102,102,103,48,48,47,48,47,48,47,48,48,48,48,48,48,47,47,47,48,48,47,48,48,48,47,48,
0,0,0,0,0,0,0,0,0,0,0,0,0,0,0,0,0,0,0,0,0,0,0,0,0,0,0,0,0,0,0,0,48,48,47,47,48,48,47,48,48,47,48,48,48,48,47,48,47,48,47,47,48,47,47,48,47,47,48,47,47,47,47,48,48,47,47,47,48,48,0,0,0,0,0,0,0,0,0,0,0,0,0,0,0,0,0,0,0,0,0,0,0,0,0,0,0,0,0,0,0,0,0,0,0,0,0,0,0,0,0,0,0,0,101,103,0,0,0,0,0,0,0,0,0,0,0,0,0,0,0,0,0,0,0,0,0,0,0,0,0,0,0,0,0,0,0,0,0,0,0,0,0,0,0,0,0,0,0,0,0,0,0,0,0,0,0,0,0,0,0,0,0,0,0,0,101,103,0,0,0,0,0,0,0,0,0,0,0,0,0,0,0,0,0,0,0,0,0,0,0,0,0,0,0,0,0,0,0,0,0,0,0,0,0,0,0,0,0,0,0,0,0,0,0,0,0,0,0,0,0,0,0,0,0,0,0,0,0,0,0,0,0,0,0,0,0,0,0,0,0,0,0,0,0,0,0,0,0,0,0,0,0,0,0,0,0,0,0,0,0,0,0,0,0,0,0,0,0,0,0,0,0,0,0,0,0,0,0,0,0,0,0,0,0,0,0,0,0,0,0,0,0,0,0,0,0,0,0,0,0,0,0,0,0,0,0,0,0,0,0,0,0,0,0,0,0,0,0,0,0,0,0,0,0,0,0,0,0,0,0,0,0,0,0,0,0,0,0,0,0,0,0,0,0,0,0,0,0,0,0,0,0,0,0,0,0,0,0,0,0,0,
0,0,0,0,0,0,0,0,0,0,0,0,0,0,0,0,0,0,0,0,0,0,0,0,0,0,0,0,0,0,48,47,48,47,48,47,47,48,48,47,47,47,47,47,48,48,47,48,48,48,47,47,48,47,47,48,47,48,47,48,48,47,47,47,48,47,47,47,48,48,0,0,0,0,0,0,0,0,0,0,0,0,0,0,0,0,0,0,0,0,0,0,0,0,0,0,0,0,0,0,0,0,0,0,0,0,0,0,0,0,0,0,0,0,0,0,0,0,0,0,0,0,0,0,0,0,0,0,0,0,0,0,0,0,0,0,0,0,0,0,0,0,0,0,0,0,0,0,0,0,0,0,0,0,0,0,0,0,0,0,0,0,0,0,0,0,0,0,0,0,0,0,0,0,0,0,0,0,0,0,0,0,0,0,0,0,0,0,0,0,0,0,0,0,165,134,134,167,0,0,165,134,134,134,167,0,0,0,0,0,165,134,134,134,134,166,134,134,134,134,134,167,0,0,0,0,0,0,0,0,0,0,0,0,0,0,0,0,0,0,0,0,0,0,0,0,0,0,0,0,0,0,0,0,0,0,0,0,0,0,0,0,0,0,0,0,0,0,0,0,0,0,0,0,0,0,0,0,0,0,0,0,0,0,0,0,0,0,0,0,0,0,0,0,0,0,0,0,0,0,0,0,0,0,0,0,0,0,0,0,0,0,0,0,0,0,0,0,0,0,0,0,0,0,0,0,0,0,0,0,0,0,0,0,0,0,0,0,0,0,0,0,0,0,0,0,0,0,0,0,0,0,0,0,0,0,0,0,0,0,0,0,0,0,0,0,0,0,0,0,0,0,
0,0,0,0,0,0,0,0,0,0,0,0,0,0,0,0,0,0,0,0,0,0,0,0,0,0,0,0,48,48,48,47,48,48,48,48,48,48,48,48,47,47,47,47,47,48,48,47,48,48,48,47,47,47,48,48,48,48,47,47,47,48,47,48,47,47,47,48,47,47,47,48,47,48,48,47,47,47,47,48,47,47,48,47,48,47,48,47,47,48,47,47,47,48,47,48,47,47,47,47,48,48,48,47,48,47,47,48,47,47,48,48,48,47,48,48,0,0,0,0,47,48,48,48,47,48,48,48,48,47,48,47,47,47,48,48,48,47,0,0,0,0,0,0,0,0,0,0,0,0,0,0,0,0,0,0,0,0,0,0,0,0,0,0,0,0,0,0,0,0,0,0,0,0,0,0,0,0,0,0,0,0,0,0,0,0,0,0,0,0,0,0,0,0,0,0,0,0,0,0,0,0,0,0,0,0,0,0,0,0,0,0,0,0,0,0,0,0,0,0,0,0,0,0,0,0,0,0,0,0,0,0,0,0,0,0,0,0,0,0,0,0,0,0,0,0,0,0,0,0,0,0,0,0,0,0,0,0,0,0,0,0,0,0,0,0,0,0,0,0,0,0,0,0,0,0,0,0,0,0,0,0,0,0,0,0,0,0,0,0,0,0,0,0,0,0,0,0,0,0,0,0,0,0,0,0,0,0,0,0,0,0,0,0,0,0,0,0,0,0,0,0,0,0,0,0,0,0,0,0,0,0,0,0,0,0,0,0,0,0,0,0,0,0,0,0,0,0,0,0,0,0,0,0,0,0,0,0,0,0,0,0,0,0,0,0,0,0,0,0,0,0,
0,0,0,0,0,0,0,0,0,0,0,0,0,0,0,0,0,0,0,0,0,0,0,0,0,0,48,47,47,47,47,48,48,48,47,48,48,48,47,48,48,48,48,48,47,48,48,48,47,47,48,47,47,47,47,47,47,48,47,47,47,47,48,47,47,48,48,47,47,48,47,48,47,48,47,48,47,47,47,47,47,48,48,48,48,47,47,47,47,47,47,48,47,47,48,48,47,48,48,47,47,47,48,48,47,48,47,47,48,47,48,47,47,47,48,47,0,0,0,0,47,47,47,47,47,47,48,47,48,48,47,47,47,48,47,47,47,48,48,48,0,0,0,0,0,0,0,0,0,0,0,0,0,0,0,0,0,0,0,0,0,0,0,0,0,0,0,0,0,0,0,0,0,0,0,0,0,0,0,0,0,0,0,0,0,0,0,0,0,0,0,0,0,0,0,0,0,0,0,0,0,0,0,0,0,0,0,0,0,0,0,0,0,0,0,0,0,0,0,0,0,0,0,0,0,0,0,0,0,0,0,0,0,0,0,0,0,0,0,0,0,0,0,0,0,0,0,0,0,0,0,0,0,0,0,0,0,0,0,0,0,0,0,0,0,0,0,0,0,0,0,0,0,0,0,0,0,0,0,0,0,0,0,0,0,0,0,0,0,0,0,0,0,0,0,0,0,0,0,0,0,0,0,0,0,0,0,0,0,0,0,0,0,0,0,0,0,0,0,0,0,0,0,0,0,0,0,0,0,0,0,0,0,0,0,0,0,0,0,0,0,0,0,0,0,0,0,0,0,0,0,0,0,0,0,0,0,0,0,0,0,0,0,0,0,0,0,0,0,0,0,0,
0,0,0,0,0,0,0,0,0,0,0,0,0,0,0,0,0,0,0,0,0,0,0,0,48,48,47,48,47,48,47,48,47,47,48,48,47,47,47,47,48,47,48,47,47,48,47,47,48,48,48,47,48,48,48,47,47,47,47,48,47,48,47,48,48,48,47,47,47,48,48,48,48,47,47,47,47,48,47,47,48,48,48,47,48,48,47,48,47,47,47,47,48,48,48,47,48,47,48,48,47,48,47,48,47,48,47,47,47,48,48,48,48,47,48,48,0,0,0,0,48,48,47,48,47,48,47,48,47,48,47,47,47,47,48,48,48,47,48,47,48,48,47,48,47,47,48,47,47,47,47,47,48,47,48,48,47,48,48,47,47,47,47,48,0,0,0,0,47,48,48,48,48,48,47,48,47,47,48,48,48,48,48,47,48,47,47,48,48,48,48,47,47,47,48,47,48,48,48,47,48,47,48,48,47,47,47,48,48,47,47,48,47,47,47,48,47,48,48,48,47,48,48,48,47,48,47,48,48,48,47,48,47,48,48,47,47,48,48,48,47,47,47,47,47,48,0,0,0,0,48,47,47,48,48,48,47,48,47,48,48,48,47,48,47,47,48,48,0,0,0,0,48,48,48,47,48,48,47,47,48,48,48,48,47,47,47,48,0,0,0,0,47,48,47,47,48,48,48,47,47,48,47,48,48,47,48,47,47,48,48,48,47,48,48,48,48,47,48,48,47,47,47,48,48,48,47,48,47,47,47,48,48,48,48,47,48,48,47,47,48,47,48,48,47,48,47,48,47,47,48,47,47,48,48,47,48,47,48,47,47,48,48,48,47,47,48,47,48,47,48,48,
0,0,0,0,0,0,0,0,0,0,0,0,0,0,0,0,0,0,0,0,0,0,47,47,47,48,47,47,48,47,47,47,47,47,48,48,48,48,47,48,48,48,48,48,48,48,48,48,48,48,47,47,48,47,48,47,47,48,48,47,47,48,47,48,48,47,48,48,48,47,48,48,48,47,47,47,47,47,48,48,47,47,47,47,47,48,47,48,47,47,47,47,47,48,47,48,47,47,47,47,48,47,48,47,48,47,48,48,48,48,48,47,47,47,48,47,0,0,0,0,47,47,47,48,48,48,47,47,47,48,47,48,48,47,47,47,47,48,48,47,48,47,47,47,47,47,48,48,47,48,47,47,47,48,48,48,48,48,48,48,47,47,47,48,0,0,0,0,47,48,48,48,47,47,48,47,47,47,47,47,48,48,48,47,47,47,48,47,47,48,48,48,47,47,48,47,48,48,47,47,47,48,48,48,47,48,48,47,47,47,48,47,48,48,48,48,48,47,48,47,47,48,47,48,48,47,48,47,47,47,48,47,48,47,47,48,47,47,47,48,48,48,47,48,48,47,0,0,0,0,48,47,47,48,48,47,47,47,48,47,48,47,47,47,47,48,47,48,0,0,0,0,48,47,47,47,48,47,47,47,48,48,48,48,48,48,48,47,0,0,0,0,48,48,47,47,48,47,47,47,48,47,47,48,48,47,47,48,47,48,47,47,48,47,47,48,48,48,48,47,47,47,48,48,47,47,48,47,48,47,48,48,47,47,48,48,47,48,47,47,47,47,48,47,48,48,48,48,47,47,47,48,47,47,48,47,48,48,48,47,47,47,47,48,48,47,48,48,48,47,48,48,
0,0,0,0,0,0,0,0,0,0,0,0,0,0,0,0,0,0,0,0,47,47,47,48,47,48,47,48,47,48,48,47,47,48,48,47,48,48,47,47,48,48,48,48,47,48,47,48,48,47,48,47,48,47,48,48,48,48,48,47,47,47,47,47,48,48,48,47,47,48,48,48,48,48,47,48,47,48,48,47,48,47,47,47,47,47,48,47,47,47,48,47,48,48,48,48,48,47,47,47,47,48,47,48,48,47,48,47,48,48,47,47,48,48,47,48,0,0,0,0,48,47,48,48,47,47,47,48,48,48,47,48,48,47,47,47,47,48,47,48,47,47,47,48,47,47,47,48,47,48,47,47,48,48,48,48,48,47,47,48,47,47,48,47,0,0,0,0,47,47,47,48,47,47,47,47,48,47,48,47,48,48,48,47,47,48,48,48,48,48,48,47,48,48,48,47,47,48,47,48,47,48,48,47,48,47,48,48,48,48,47,48,48,48,47,47,47,48,48,48,47,47,48,47,47,47,48,47,48,48,48,48,48,47,47,48,47,48,48,47,47,47,48,47,47,47,0,0,0,0,47,48,48,47,48,48,48,47,48,48,48,48,47,48,47,48,47,47,0,0,0,0,47,48,48,48,47,48,48,48,47,48,48,47,48,47,48,47,0,0,0,0,48,48,48,47,47,48,48,47,47,47,47,48,47,48,47,47,48,47,48,48,47,47,48,47,47,48,48,48,47,48,47,48,47,48,48,47,47,47,48,47,48,47,48,47,47,47,48,47,48,48,48,48,48,47,48,48,47,48,47,48,47,47,47,47,47,48,48,47,48,48,48,47,47,48,47,48,48,48,47,47,
0,0,0,0,0,0,0,0,0,0,0,0,0,0,0,0,0,0,0,48,47,47,48,47,47,47,48,48,48,47,47,48,48,48,48,48,47,47,47,47,47,47,47,47,47,47,48,47,47,48,48,48,47,47,48,48,47,48,47,48,48,47,47,48,47,47,47,47,47,48,48,47,47,48,47,47,48,48,48,48,48,48,47,48,48,48,48,47,47,48,47,48,48,47,47,48,48,47,48,47,47,47,47,48,47,48,47,48,47,47,47,47,47,48,48,48,0,0,0,0,47,47,47,48,48,47,47,48,48,47,48,48,47,47,47,47,47,48,47,48,48,47,48,48,48,47,48,48,48,47,48,47,47,47,47,47,47,48,47,47,48,47,48,48,0,0,0,0,48,48,47,47,48,48,47,47,48,48,47,47,47,48,48,48,48,47,47,47,47,47,47,48,47,47,48,47,47,48,48,47,47,47,48,48,48,47,47,48,47,48,48,48,47,47,48,47,48,47,47,48,48,48,47,48,47,48,47,47,48,47,47,47,47,48,47,48,48,48,48,48,48,48,48,47,47,47,0,0,0,0,48,47,48,48,47,48,47,47,47,48,47,47,47,48,48,48,47,48,0,0,0,0,47,48,48,48,48,47,48,47,47,47,47,48,47,48,47,47,0,0,0,0,48,48,48,47,48,48,47,48,48,47,47,47,47,48,47,47,48,48,47,47,47,48,48,47,47,48,48,47,48,47,48,48,48,47,48,48,47,48,48,47,48,48,47,47,48,47,48,47,47,47,48,48,47,48,48,48,48,47,48,48,47,48,48,47,48,48,48,48,47,47,48,47,48,48,47,47,48,48,47,47,
0,0,0,0,0,0,0,0,0,0,0,0,0,0,0,0,0,0,48,48,48,48,47,47,48,48,47,48,48,48,48,48,48,47,48,48,48,48,48,48,48,48,48,48,47,47,48,47,47,48,47,47,47,48,48,47,48,48,48,47,48,48,47,48,48,47,48,47,47,47,47,47,47,48,48,48,47,48,47,48,48,48,47,48,47,48,47,47,48,48,48,47,48,47,48,47,48,47,48,48,47,47,47,47,47,48,48,48,47,47,48,48,48,48,47,47,0,0,0,0,48,47,47,47,47,47,47,48,48,48,47,47,48,48,47,48,48,47,48,48,48,47,48,48,47,47,48,48,48,48,47,47,48,48,47,48,47,48,48,48,48,47,47,48,0,0,0,0,47,48,47,48,47,47,47,47,47,48,47,48,48,47,48,47,48,47,47,48,48,47,47,47,48,48,0,0,0,0,0,0,0,0,0,0,0,0,0,0,0,0,0,0,48,47,47,47,48,48,47,47,47,47,47,47,48,48,48,48,48,48,48,48,48,47,48,47,47,48,48,48,48,47,48,48,47,47,0,0,0,0,48,48,47,47,48,47,48,47,47,48,48,47,48,48,47,48,48,47,0,0,0,0,47,47,47,48,48,47,47,47,48,47,48,48,47,48,47,47,0,0,0,0,48,48,47,47,48,48,48,48,48,47,47,48,48,47,48,47,48,48,47,47,48,47,48,48,48,48,47,47,47,47,47,47,47,48,47,47,48,47,48,48,47,48,48,48,47,47,48,47,48,47,47,47,47,47,48,48,48,48,47,47,47,47,48,47,48,48,48,48,48,48,47,48,48,48,48,48,48,47,47,47,
0,0,0,0,0,0,0,0,0,0,0,0,0,0,0,0,0,48,47,48,48,48,48,47,48,48,48,47,48,48,47,48,47,48,47,47,48,48,48,47,48,47,48,47,48,47,48,48,48,47,48,48,48,48,48,48,48,48,47,47,48,48,47,47,48,47,47,48,48,47,47,48,47,48,47,48,48,47,47,47,48,47,47,47,48,47,47,48,48,48,47,47,48,47,47,48,48,48,48,48,48,47,48,48,47,47,47,47,48,47,48,48,47,48,48,47,0,0,0,0,48,48,47,47,48,47,48,47,48,48,48,48,48,47,48,47,47,48,48,47,47,48,48,47,47,47,48,47,48,47,48,48,48,47,48,48,48,47,47,48,48,48,48,48,0,0,0,0,48,48,48,48,48,47,47,47,47,47,47,47,47,48,48,47,47,47,48,47,48,48,47,48,47,48,0,0,0,0,0,0,0,0,0,0,0,0,0,0,0,0,0,0,48,48,48,47,47,47,48,47,48,47,48,47,47,48,48,47,47,48,47,48,47,47,48,47,47,47,48,47,47,48,47,48,47,48,0,0,0,0,47,48,47,48,47,47,47,48,47,47,47,48,48,48,48,47,48,48,0,0,0,0,48,48,48,48,47,47,47,48,48,47,48,47,47,47,48,47,0,0,0,0,48,48,47,48,47,47,47,47,48,48,48,48,48,47,47,48,48,47,47,48,48,47,48,48,48,48,48,48,47,48,48,47,47,47,47,47,48,47,47,48,48,47,48,48,48,48,47,48,48,48,48,47,47,47,48,48,47,48,47,48,47,48,47,48,48,48,47,47,48,47,47,47,48,47,47,48,48,48,47,48,
0,0,0,0,0,0,0,0,0,0,0,0,0,0,0,0,48,47,48,47,47,48,47,47,47,48,48,47,47,48,48,48,47,48,48,47,47,48,47,47,48,48,47,48,48,48,48,47,47,48,48,48,47,47,48,48,48,47,48,47,47,48,48,48,48,47,47,47,47,47,48,48,48,47,48,48,47,47,47,47,47,48,47,47,47,48,48,48,47,47,48,47,47,48,48,47,47,47,47,48,47,47,47,48,47,47,47,48,47,48,48,48,47,47,48,48,0,0,0,0,47,47,47,48,48,48,47,48,47,48,48,48,47,48,48,47,48,47,48,48,48,47,47,48,48,48,47,48,48,47,47,48,47,48,47,47,47,48,48,47,48,48,48,47,0,0,0,0,48,48,48,47,47,47,47,48,48,47,47,48,48,47,47,47,48,47,47,47,48,47,47,47,47,47,0,0,0,0,0,0,0,0,0,0,0,0,0,0,0,0,0,0,47,47,47,47,48,48,47,48,48,47,48,47,48,48,48,48,48,47,48,47,47,48,48,47,47,48,47,48,48,48,48,47,48,47,0,0,0,0,48,48,47,47,48,48,47,47,48,47,47,47,48,48,48,47,48,47,0,0,0,0,47,48,47,47,47,48,47,47,47,48,47,47,48,47,48,47,0,0,0,0,47,47,47,48,48,48,48,48,48,48,48,48,47,47,48,47,48,47,48,47,48,47,47,47,47,48,47,48,47,47,47,47,47,47,48,47,47,47,48,48,48,47,47,48,48,47,47,48,47,48,48,48,47,47,47,47,47,47,47,48,48,47,47,47,47,47,48,47,48,47,47,47,47,47,48,48,47,47,47,48,
0,0,0,0,0,0,0,0,0,0,0,0,0,0,0,47,48,48,48,48,48,47,48,48,48,47,48,48,47,48,48,48,47,48,47,47,48,48,47,48,47,47,48,47,48,48,47,47,48,48,48,47,47,47,48,48,48,47,48,47,48,47,47,48,47,48,48,47,48,47,47,48,48,47,48,48,47,48,47,47,48,47,48,47,48,47,47,48,48,48,48,48,47,47,47,47,48,47,47,48,47,48,47,48,48,47,48,47,48,47,48,47,48,47,47,47,0,0,0,0,48,47,47,47,48,47,48,48,47,48,47,47,48,47,48,47,47,48,47,47,47,48,47,47,48,47,48,47,47,48,48,47,47,47,48,47,47,48,47,47,48,48,47,48,0,0,0,0,48,47,48,48,48,47,48,47,47,47,47,47,48,48,47,48,48,47,47,47,47,48,48,47,48,48,0,0,0,0,0,0,0,0,0,0,0,0,0,0,0,0,0,0,48,47,47,48,48,48,47,47,48,48,48,48,48,47,47,48,47,47,48,47,47,47,47,48,47,47,48,48,47,47,47,48,47,47,0,0,0,0,47,48,48,48,48,48,48,48,48,47,48,47,47,47,47,47,48,48,0,0,0,0,47,47,47,48,48,48,48,48,47,47,47,48,47,47,48,47,0,0,0,0,47,47,47,47,47,47,48,47,47,47,47,47,47,48,47,47,47,47,48,47,48,48,47,48,48,48,48,48,48,48,48,47,48,47,47,47,48,48,48,47,48,48,48,48,48,48,48,48,47,48,47,48,47,48,48,47,47,47,48,48,47,47,47,47,47,47,47,48,48,48,48,47,47,48,47,48,48,48,47,47,
0,0,0,0,0,0,0,0,0,0,0,0,0,0,48,48,47,48,47,47,48,48,48,48,48,48,48,47,47,47,47,47,48,48,47,47,48,47,47,48,47,47,48,48,48,48,47,48,47,47,47,48,47,48,48,47,47,48,48,47,47,48,47,47,48,47,47,47,47,47,47,47,47,48,47,48,48,47,47,47,48,47,47,48,48,47,0,0,0,0,0,0,0,0,0,0,0,0,0,0,0,0,0,0,47,48,47,47,48,47,48,48,48,47,48,48,0,0,0,0,48,47,48,48,47,47,48,48,48,47,47,47,48,48,47,47,48,48,48,48,48,47,47,47,48,48,47,48,47,48,47,48,48,47,48,47,48,47,47,47,48,48,48,47,0,0,0,0,47,47,47,47,47,47,47,47,47,48,48,47,0,0,0,0,0,0,0,0,0,0,0,0,0,0,0,0,0,0,0,0,101,103,0,0,101,103,0,0,0,0,0,0,0,0,0,0,0,0,0,0,0,0,0,0,0,0,47,47,47,48,48,48,47,47,47,48,47,48,48,48,48,47,47,48,48,48,0,0,0,0,47,47,48,47,47,48,47,47,48,47,47,47,0,0,0,0,0,0,0,0,0,0,0,0,0,0,0,0,48,48,47,47,47,48,48,47,48,47,0,0,0,0,48,48,47,47,47,47,47,48,47,47,47,47,47,48,48,48,48,48,48,47,48,47,47,48,47,48,0,0,0,0,48,47,48,47,48,48,48,47,48,47,47,48,0,0,0,0,0,0,0,0,0,0,0,0,0,0,47,47,48,48,47,47,47,48,48,47,47,48,47,48,47,47,48,48,47,47,47,47,48,48,
0,0,0,0,0,0,0,0,0,0,0,0,0,48,48,47,47,48,47,48,47,47,47,48,47,47,47,48,47,47,47,48,47,47,48,48,48,47,47,47,47,47,47,47,47,47,48,47,48,47,47,48,47,48,48,47,48,48,47,48,47,47,48,47,48,47,48,47,48,48,47,48,47,47,48,47,48,47,47,47,48,47,48,48,48,48,0,0,0,0,0,0,0,0,0,0,0,0,0,0,0,0,0,0,48,47,48,48,47,47,48,48,48,48,48,47,0,0,0,0,47,47,47,48,48,47,48,48,47,47,48,48,47,47,48,47,47,48,48,48,47,48,47,47,47,47,47,47,48,48,47,47,47,48,48,47,47,48,47,48,48,47,47,48,0,0,0,0,47,47,48,48,48,47,48,48,48,48,48,47,0,0,0,0,0,0,0,0,0,0,0,0,0,0,0,0,0,0,0,0,0,0,0,0,0,0,0,0,0,0,0,0,0,0,0,0,0,0,0,0,0,0,0,0,0,0,47,47,48,47,47,47,47,47,48,48,48,48,47,48,47,47,48,48,48,47,0,0,0,0,47,47,47,48,47,48,47,47,48,48,47,48,0,0,0,0,0,0,0,0,0,0,0,0,0,0,0,0,48,48,48,47,48,48,47,48,48,47,0,0,0,0,48,48,48,48,47,47,48,48,48,48,47,47,48,47,48,48,47,47,48,47,48,47,47,47,47,48,0,0,0,0,48,47,48,47,48,47,48,48,47,47,47,48,0,0,0,0,0,0,0,0,0,0,0,0,0,0,47,47,47,48,47,48,47,47,47,47,48,47,47,48,48,47,48,47,48,47,48,47,48,48,
0,0,0,0,0,0,0,0,0,0,0,0,48,48,48,47,47,48,48,47,47,48,48,47,48,47,48,48,48,48,47,47,48,47,47,48,48,48,48,48,47,48,48,47,47,48,47,47,48,48,48,48,48,48,48,47,48,47,47,47,48,48,48,48,48,47,48,47,48,47,48,47,47,47,47,47,47,48,48,47,48,47,48,47,48,47,0,0,0,0,0,0,0,0,0,0,0,0,0,0,0,0,0,0,47,48,47,47,47,47,47,48,48,47,48,48,0,0,0,0,48,48,47,48,47,47,47,47,48,47,47,48,47,48,47,48,0,0,0,0,0,0,0,0,0,0,0,0,0,0,0,0,48,47,48,47,47,48,48,47,47,47,47,48,0,0,0,0,48,48,48,48,48,47,48,47,48,47,48,48,0,0,47,47,47,48,48,47,48,48,47,48,47,47,101,103,0,0,0,0,0,0,0,0,0,0,0,0,0,0,101,103,47,48,47,47,48,47,48,48,47,47,47,47,0,0,47,48,47,47,48,47,48,47,47,48,47,48,47,47,48,48,48,48,48,48,0,0,0,0,47,48,48,48,47,48,47,47,47,48,48,48,0,0,0,0,0,0,0,0,0,0,0,0,0,0,0,0,47,47,47,48,47,48,48,48,48,47,0,0,0,0,48,48,47,48,48,47,48,47,47,47,47,48,48,47,48,48,47,47,47,47,48,48,47,47,47,47,0,0,0,0,0,0,0,0,0,0,0,0,0,0,0,0,0,0,0,0,0,0,0,0,0,0,0,0,0,0,47,47,47,47,48,47,47,48,48,48,48,48,48,48,48,48,48,47,48,47,47,48,48,48,
0,0,0,0,0,0,0,0,0,0,0,47,48,47,48,48,47,48,47,48,47,47,48,47,48,47,47,47,47,48,48,47,47,48,48,47,48,47,47,47,47,48,48,47,47,48,48,47,48,47,47,47,47,47,48,47,48,48,48,47,47,47,47,47,48,47,48,47,48,48,48,48,47,47,47,48,47,47,47,48,47,47,48,47,48,47,0,0,0,0,0,0,0,0,0,0,0,0,0,0,0,0,0,0,47,48,48,47,48,47,47,48,47,48,48,47,0,0,0,0,47,48,47,47,48,47,47,48,48,48,47,48,47,47,47,47,0,0,0,0,0,0,0,0,0,0,0,0,0,0,0,0,47,48,48,48,47,47,47,47,48,47,48,47,0,0,0,0,48,47,47,47,48,47,48,48,48,48,48,47,0,0,48,47,48,47,47,48,48,47,48,48,48,48,0,0,0,0,0,0,0,0,0,0,0,0,0,0,0,0,0,0,48,47,48,47,47,47,48,48,48,48,48,48,0,0,47,47,47,48,48,48,47,48,48,48,48,48,48,48,48,48,47,48,48,48,0,0,0,0,48,48,47,47,47,48,48,47,48,48,47,48,0,0,0,0,0,0,0,0,0,0,0,0,0,0,0,0,48,47,48,47,48,48,48,47,48,48,0,0,0,0,47,48,47,47,47,47,48,48,48,47,47,48,47,48,47,47,47,47,48,48,48,48,48,48,48,48,0,0,0,0,0,0,0,0,0,0,0,0,0,0,0,0,0,0,0,0,0,0,0,0,0,0,0,0,0,0,47,48,47,48,48,47,48,47,47,47,48,48,47,48,48,48,47,47,47,48,48,48,48,47,
0,0,0,0,0,0,0,0,0,0,47,47,48,48,48,48,48,48,48,47,48,48,48,48,48,48,47,47,48,47,48,47,47,48,48,48,48,48,47,47,47,48,47,47,47,47,47,48,48,47,47,48,48,47,47,47,47,48,47,47,47,48,47,48,47,47,47,47,48,48,48,47,48,47,47,48,48,48,47,48,48,48,47,48,48,48,0,0,0,0,0,0,0,0,0,0,101,103,0,0,0,0,0,0,0,0,0,0,0,0,0,0,0,0,0,0,0,0,0,0,0,0,0,0,0,0,0,0,0,0,0,0,0,0,0,0,0,0,0,0,0,0,0,0,0,0,0,0,0,0,0,0,47,47,48,47,47,47,47,47,47,48,47,47,0,0,0,0,47,47,47,48,48,48,48,47,47,47,48,48,0,0,48,48,48,47,47,48,47,47,47,48,48,47,0,0,0,0,0,0,0,0,101,103,0,0,0,0,0,0,0,0,47,48,47,47,48,48,48,47,47,47,48,47,0,0,0,0,0,0,0,0,0,0,0,0,0,0,0,0,0,0,0,0,0,0,0,0,0,0,0,0,0,0,0,0,0,0,0,0,0,0,0,0,0,0,0,0,0,0,0,0,0,0,101,103,0,0,47,48,47,47,48,47,48,48,48,47,0,0,0,0,47,48,48,48,47,47,47,47,48,48,48,47,48,47,48,48,47,47,47,48,47,48,47,47,48,47,47,47,47,48,48,47,47,48,48,48,48,48,48,48,48,47,101,103,0,0,0,0,101,103,0,0,0,0,101,103,48,48,47,47,48,48,47,48,48,47,47,47,47,47,48,48,47,47,47,47,47,47,47,47,
0,0,0,0,0,0,0,0,0,47,47,48,48,48,48,48,48,47,48,47,47,48,47,47,47,47,47,48,48,47,48,47,47,47,48,47,48,48,47,48,47,48,47,47,48,48,48,47,48,47,47,47,48,47,48,48,47,48,47,48,47,48,48,47,47,47,48,47,47,48,47,48,47,47,48,47,48,48,48,47,48,48,47,48,47,48,0,0,0,0,0,0,0,0,0,0,0,0,0,0,0,0,0,0,0,0,0,0,0,0,0,0,0,0,0,0,0,0,0,0,0,0,0,0,0,0,0,0,0,0,0,0,0,0,0,0,0,0,0,0,0,0,0,0,0,0,0,0,0,0,0,0,48,48,47,47,48,48,47,48,48,48,47,48,0,0,0,0,47,48,47,48,48,47,47,47,47,47,47,47,0,0,48,47,47,47,47,48,47,47,47,48,48,48,0,0,0,0,0,0,0,0,0,0,0,0,0,0,0,0,0,0,47,48,47,47,48,47,47,48,48,47,47,47,0,0,0,0,0,0,0,0,0,0,0,0,0,0,0,0,0,0,0,0,0,0,0,0,0,0,0,0,0,0,0,0,0,0,0,0,0,0,0,0,0,0,0,0,0,0,0,0,0,0,0,0,0,0,48,47,48,47,48,47,47,47,48,48,0,0,0,0,48,47,48,48,48,48,47,47,47,47,47,48,47,47,47,48,48,47,48,48,48,47,47,48,48,48,48,47,47,48,47,47,48,48,47,48,47,48,48,48,47,47,0,0,0,0,0,0,0,0,0,0,0,0,0,0,47,48,48,47,48,48,47,48,48,47,48,48,48,47,47,48,48,48,48,47,47,47,47,48,
0,0,0,0,0,0,0,0,47,48,48,48,47,48,47,47,48,47,47,47,47,48,48,48,47,48,48,48,47,47,48,48,48,47,47,47,48,47,48,47,48,47,48,48,48,48,48,47,47,48,47,47,48,47,47,47,48,48,47,48,48,48,47,47,47,47,48,48,48,47,47,48,47,47,47,48,48,48,48,48,48,48,48,47,47,47,0,0,0,0,101,103,0,0,0,0,0,0,0,0,0,0,101,103,48,48,47,47,47,48,47,48,47,48,48,48,0,0,0,0,48,47,48,48,47,47,47,47,48,47,47,48,48,48,48,48,101,103,0,0,101,103,0,0,0,0,0,0,0,0,0,0,48,48,48,47,47,48,48,48,47,48,48,48,0,0,0,0,47,47,47,48,47,48,47,48,47,48,48,47,0,0,48,48,47,48,47,47,47,48,48,47,48,47,0,0,101,103,0,0,0,0,0,0,0,0,0,0,101,103,0,0,48,48,48,48,48,47,47,48,48,47,47,48,47,48,47,48,48,47,47,47,48,47,48,47,47,47,47,48,48,48,47,47,47,48,0,0,0,0,47,48,47,47,47,47,47,48,48,48,47,47,101,103,0,0,0,0,0,0,0,0,0,0,0,0,0,0,48,48,47,48,47,48,47,47,47,48,0,0,0,0,47,48,48,48,47,48,48,47,48,48,47,48,47,48,48,47,48,47,47,47,47,47,48,47,48,47,48,48,47,48,47,48,47,47,48,48,48,47,47,47,47,47,0,0,0,0,0,0,0,0,0,0,0,0,0,0,47,47,47,48,47,47,47,48,48,48,47,47,47,47,47,48,48,48,47,48,48,48,47,48,
0,0,0,0,0,0,0,48,48,48,47,47,48,48,48,47,48,48,48,47,48,47,48,47,47,47,47,48,48,48,48,48,48,48,47,47,48,48,48,48,47,48,48,47,48,47,48,48,47,47,47,48,47,47,48,48,47,47,47,47,47,47,48,47,48,47,48,47,48,47,47,48,47,48,48,47,47,47,48,47,48,48,47,48,47,48,0,0,0,0,0,0,0,0,0,0,0,0,0,0,0,0,0,0,47,48,48,48,48,48,47,47,48,48,48,47,0,0,0,0,48,48,47,48,48,48,47,48,47,47,47,47,47,47,47,48,0,0,0,0,0,0,0,0,0,0,0,0,0,0,0,0,47,48,48,47,48,47,48,48,48,48,48,48,0,0,0,0,48,48,48,48,48,47,47,48,47,47,48,48,0,0,47,48,48,48,47,47,47,47,47,48,47,47,0,0,0,0,0,0,0,0,0,0,0,0,0,0,0,0,0,0,47,48,47,48,48,47,47,48,47,47,47,47,48,48,48,48,48,48,48,47,48,47,47,48,47,47,48,48,48,48,48,48,47,48,0,0,0,0,47,47,47,47,47,47,48,47,48,48,47,47,0,0,0,0,0,0,0,0,0,0,0,0,0,0,0,0,48,47,47,47,48,47,48,47,48,47,0,0,0,0,47,48,47,48,47,48,48,47,48,47,47,47,47,47,48,48,47,47,48,47,48,47,48,48,47,47,47,48,48,47,47,48,47,47,47,47,47,47,47,47,48,48,0,0,0,0,0,0,0,0,0,0,0,0,0,0,47,47,48,48,48,48,47,48,47,47,48,47,47,48,47,48,48,48,48,48,47,48,48,47,
0,0,0,0,0,0,48,47,47,47,47,48,48,48,47,47,47,48,48,47,48,47,48,47,47,48,47,48,47,47,48,48,47,47,47,47,48,48,48,47,48,47,47,47,47,47,47,48,47,47,47,48,47,48,48,48,47,48,48,47,48,47,48,47,47,48,48,47,47,47,48,48,48,47,48,48,48,48,48,47,48,47,48,48,47,47,0,0,0,0,0,0,0,0,101,103,0,0,0,0,0,0,0,0,48,48,47,48,47,47,48,48,48,48,47,47,0,0,0,0,47,48,47,47,47,47,48,47,47,47,48,48,47,47,48,48,0,0,0,0,0,0,0,0,0,0,0,0,0,0,0,0,47,48,48,48,47,48,48,47,48,48,47,47,0,0,0,0,47,48,47,48,47,47,48,47,48,47,48,48,0,0,48,47,48,47,47,48,47,47,48,48,48,47,0,0,0,0,0,0,101,103,0,0,101,103,0,0,0,0,0,0,48,47,48,47,47,47,47,48,47,47,47,47,47,48,47,47,48,48,47,48,48,48,48,48,48,47,47,48,48,48,47,48,47,47,0,0,0,0,48,47,47,47,47,48,48,47,47,47,47,48,0,0,0,0,0,0,0,0,0,0,101,103,0,0,0,0,47,47,48,48,48,48,48,48,47,48,0,0,0,0,47,48,48,47,47,47,47,47,47,47,48,47,47,47,48,48,47,47,48,47,48,47,47,47,47,47,47,47,47,48,47,48,47,48,47,47,47,47,48,47,47,48,0,0,0,0,101,103,0,0,101,103,0,0,0,0,48,48,48,48,47,48,48,47,47,48,48,48,48,48,47,47,47,47,48,47,47,47,48,48,
0,0,0,0,0,0,47,47,48,48,47,47,48,47,48,48,48,47,48,48,47,47,48,47,48,47,47,47,48,48,47,47,47,47,48,48,48,47,48,47,47,47,48,48,47,48,48,47,48,48,48,47,47,47,48,47,47,48,48,48,47,48,47,48,48,48,48,47,47,47,47,48,48,48,48,47,48,48,47,48,47,48,47,48,48,47,0,0,0,0,0,0,0,0,0,0,0,0,0,0,0,0,0,0,48,47,47,47,48,47,47,48,48,47,48,48,0,0,0,0,47,48,48,48,48,48,47,47,47,47,47,47,47,48,47,47,0,0,0,0,0,0,0,0,0,0,0,0,0,0,0,0,48,48,47,48,48,47,47,48,47,47,47,48,0,0,0,0,48,47,47,48,47,48,47,48,48,48,48,48,0,0,48,47,47,48,47,47,47,47,48,48,48,47,0,0,0,0,0,0,0,0,0,0,0,0,0,0,0,0,0,0,48,47,47,48,47,47,47,47,48,47,48,48,47,48,47,48,48,48,48,48,47,48,47,48,48,47,48,48,48,48,48,47,48,48,0,0,0,0,47,47,47,47,48,48,47,47,48,47,47,48,0,0,0,0,0,0,0,0,0,0,0,0,0,0,0,0,47,48,48,48,47,47,48,48,47,47,0,0,0,0,48,48,47,48,48,47,48,47,47,48,47,47,47,48,47,48,47,47,48,47,48,48,48,47,47,47,48,47,47,47,48,47,48,47,47,48,48,48,47,48,48,47,0,0,0,0,0,0,0,0,0,0,0,0,0,0,48,47,48,48,47,48,48,47,48,47,48,47,47,48,48,47,47,48,47,47,47,47,48,47,
0,0,0,0,0,48,47,48,48,48,47,48,47,48,48,47,47,48,47,47,47,48,47,48,47,47,47,48,48,47,48,48,47,48,48,47,47,48,47,47,47,47,47,47,48,48,48,48,48,48,47,47,48,48,47,48,48,48,47,47,47,47,47,47,47,47,47,48,47,48,47,48,47,48,48,48,48,48,48,48,48,47,47,47,48,48,0,0,0,0,0,0,0,0,0,0,0,0,101,103,0,0,0,0,47,48,48,47,48,47,47,47,48,47,48,47,0,0,0,0,48,48,47,48,47,47,47,48,47,47,47,48,48,47,47,47,0,0,0,0,0,0,0,0,0,0,101,103,0,0,0,0,47,48,47,48,47,48,48,47,48,47,48,48,0,0,0,0,48,48,48,48,48,47,48,47,47,48,47,47,0,0,47,47,47,47,48,48,48,47,47,48,47,48,0,0,0,0,0,0,0,0,0,0,0,0,0,0,0,0,0,0,47,47,47,47,48,48,48,47,47,47,48,47,47,47,47,48,48,48,47,47,48,48,47,48,48,48,48,47,48,48,48,47,48,47,0,0,0,0,48,47,48,48,48,47,47,47,48,48,48,47,0,0,0,0,101,103,0,0,0,0,0,0,0,0,0,0,48,47,47,47,48,48,47,47,47,47,0,0,0,0,48,47,48,47,47,48,48,47,48,48,48,48,0,0,0,0,0,0,0,0,0,0,48,47,47,48,48,47,48,48,48,48,48,47,48,48,47,48,48,48,47,47,101,103,0,0,0,0,0,0,0,0,0,0,101,103,48,48,48,47,48,47,47,47,47,47,48,47,48,48,48,48,47,47,48,48,48,47,48,47,
0,0,0,0,0,47,48,48,47,47,48,48,47,48,48,47,47,48,48,47,48,48,47,48,48,48,48,47,48,48,47,47,47,48,47,48,48,48,48,48,48,47,48,48,48,47,48,48,48,48,47,47,48,47,48,48,48,48,47,47,47,48,47,48,48,48,48,47,48,47,48,47,47,48,47,47,47,48,47,47,48,47,48,48,48,47,0,0,0,0,0,0,0,0,0,0,0,0,0,0,0,0,0,0,47,47,47,47,48,47,48,47,47,47,48,48,0,0,0,0,47,48,48,47,47,48,48,47,48,48,47,47,47,48,48,47,0,0,0,0,0,0,0,0,0,0,0,0,0,0,0,0,47,48,48,48,47,48,48,47,47,47,47,47,0,0,0,0,48,48,48,47,48,47,48,48,47,47,47,48,0,0,48,48,48,47,48,47,48,47,47,47,48,48,0,0,0,0,0,0,0,0,0,0,0,0,0,0,0,0,0,0,47,47,47,48,48,47,47,47,48,47,47,48,47,48,47,48,48,48,48,48,48,47,47,47,47,48,48,47,48,47,47,47,47,47,0,0,0,0,48,47,48,47,48,47,48,47,48,47,48,47,0,0,0,0,0,0,0,0,0,0,0,0,0,0,0,0,47,48,48,47,48,48,47,47,47,48,0,0,0,0,48,47,47,48,48,47,47,48,47,48,47,47,0,0,0,0,0,0,0,0,0,0,48,47,47,48,48,48,48,48,48,47,47,47,48,48,48,48,47,48,47,48,0,0,0,0,0,0,0,0,0,0,0,0,0,0,48,47,47,47,48,47,47,47,48,47,48,48,48,48,47,47,48,47,47,48,48,48,47,47,
0,0,0,0,47,48,48,47,48,48,47,48,48,48,48,48,48,47,47,47,47,48,48,47,48,48,48,47,47,48,47,47,48,48,47,48,48,47,47,48,48,47,47,47,48,48,48,47,47,47,48,48,47,48,48,47,47,47,47,47,47,48,48,47,47,47,47,47,47,47,47,48,48,47,48,47,47,47,48,47,48,48,48,48,48,48,0,0,101,103,0,0,0,0,0,0,0,0,0,0,0,0,101,103,47,48,47,48,47,48,47,48,47,47,48,47,0,0,0,0,48,48,47,48,48,48,48,47,48,48,47,48,48,47,47,48,0,0,0,0,101,103,0,0,0,0,0,0,0,0,0,0,47,48,48,47,47,47,47,48,48,48,47,48,0,0,0,0,48,48,47,48,47,47,48,48,47,48,47,48,0,0,48,47,47,48,47,48,47,47,47,47,48,48,0,0,101,103,0,0,0,0,0,0,0,0,0,0,101,103,0,0,47,47,47,48,47,48,47,48,48,48,47,47,48,47,48,48,47,48,48,47,47,47,47,47,47,48,47,47,47,48,48,48,48,48,0,0,0,0,48,47,47,48,48,47,47,48,48,47,47,47,0,0,0,0,0,0,0,0,101,103,0,0,0,0,0,0,0,0,0,0,0,0,0,0,0,0,0,0,0,0,48,47,48,47,47,47,47,47,48,47,48,48,0,0,0,0,0,0,0,0,0,0,0,0,0,0,0,0,0,0,0,0,0,0,0,0,0,0,0,0,0,0,0,0,0,0,0,0,101,103,0,0,0,0,0,0,48,47,47,48,48,48,48,47,47,47,47,48,48,48,48,47,47,48,47,48,47,48,47,48,
0,0,0,0,48,48,48,47,47,48,47,47,48,48,47,48,47,48,47,47,48,47,47,47,48,48,47,47,47,48,48,47,48,48,47,47,47,47,48,48,48,48,48,47,48,48,48,48,48,48,48,48,48,47,47,48,48,47,47,47,48,47,47,47,48,48,48,48,47,48,47,47,47,47,48,48,47,47,47,48,47,48,47,47,48,47,0,0,0,0,0,0,0,0,0,0,0,0,0,0,0,0,0,0,48,48,48,48,47,47,47,48,48,48,48,47,0,0,0,0,47,48,48,47,48,47,47,47,47,48,48,48,48,48,47,48,0,0,0,0,0,0,0,0,0,0,0,0,0,0,0,0,48,48,47,47,48,47,48,48,48,47,47,48,0,0,0,0,47,47,48,47,47,47,47,47,48,47,47,47,0,0,48,47,48,47,48,47,48,47,47,48,48,47,0,0,0,0,0,0,0,0,0,0,0,0,0,0,0,0,0,0,48,47,47,47,47,47,47,47,48,47,47,48,47,48,48,48,47,48,47,48,47,47,48,47,47,47,47,47,47,47,48,47,48,47,0,0,0,0,47,47,48,48,47,47,48,48,48,47,48,48,0,0,0,0,0,0,0,0,0,0,0,0,0,0,0,0,0,0,0,0,0,0,0,0,0,0,0,0,0,0,48,48,48,48,47,48,48,47,47,47,48,48,0,0,0,0,0,0,0,0,0,0,0,0,0,0,0,0,0,0,0,0,0,0,0,0,0,0,0,0,0,0,0,0,0,0,0,0,0,0,0,0,0,0,0,0,48,47,47,47,48,47,47,47,48,47,48,48,47,47,48,48,48,47,48,48,48,47,47,47,
0,0,0,47,47,48,48,47,47,47,47,48,48,48,47,48,47,47,47,47,48,47,48,48,48,48,47,48,47,47,48,47,48,47,48,48,48,48,47,48,48,47,48,48,48,47,47,47,47,47,48,48,47,48,48,47,48,48,48,47,48,48,47,47,47,48,48,48,47,48,47,47,48,47,47,48,0,0,0,0,48,48,48,48,47,47,0,0,0,0,0,0,0,0,101,103,0,0,0,0,0,0,0,0,47,48,48,48,48,47,48,47,47,48,48,47,0,0,0,0,47,48,47,48,47,47,48,48,47,48,47,47,48,48,48,47,101,103,0,0,0,0,0,0,0,0,0,0,101,103,0,0,47,48,47,47,48,47,47,48,48,48,48,48,0,0,0,0,48,47,47,48,48,47,48,47,48,48,47,48,0,0,47,48,48,48,48,47,47,47,48,48,48,47,0,0,0,0,0,0,0,0,0,0,0,0,0,0,0,0,0,0,47,48,48,47,48,47,47,48,47,48,47,48,48,47,48,47,47,47,48,47,47,47,47,48,47,48,47,47,48,47,47,47,47,48,0,0,0,0,47,47,48,48,48,48,48,47,48,48,47,47,0,0,101,103,0,0,0,0,0,0,0,0,101,103,0,0,47,48,47,47,48,47,48,47,48,47,0,0,0,0,48,47,47,47,47,47,48,47,48,47,48,48,0,0,0,0,0,0,101,103,0,0,48,48,47,48,47,48,47,48,48,47,48,47,47,47,47,47,48,47,47,48,0,0,101,103,0,0,0,0,0,0,101,103,0,0,48,47,48,47,47,48,47,47,47,47,48,48,48,48,48,47,48,47,48,47,48,47,47,48,
0,0,0,48,47,47,47,47,47,48,47,47,48,47,48,48,48,48,48,47,48,48,48,48,48,48,47,47,47,48,48,48,48,48,48,47,48,47,48,47,48,48,47,48,47,48,47,48,47,47,47,47,48,48,47,47,47,47,48,47,47,48,48,48,47,48,48,47,47,47,47,47,47,48,47,47,0,0,0,0,48,47,47,48,47,47,0,0,0,0,0,0,0,0,0,0,0,0,0,0,0,0,0,0,47,48,47,48,47,48,48,47,47,47,47,48,0,0,0,0,48,47,48,48,47,47,48,47,48,48,47,48,47,47,48,47,0,0,0,0,0,0,0,0,0,0,0,0,0,0,0,0,48,48,47,48,48,48,47,48,48,47,48,47,0,0,0,0,47,48,47,47,48,47,47,47,48,48,48,48,0,0,47,48,48,48,48,48,47,47,48,47,47,48,0,0,0,0,0,0,0,0,0,0,0,0,0,0,0,0,0,0,47,47,47,48,47,48,48,48,47,48,48,47,48,48,48,48,48,48,48,48,47,47,48,47,47,48,47,48,48,48,48,48,47,48,0,0,0,0,47,47,48,48,48,48,48,47,48,47,48,47,0,0,0,0,0,0,0,0,0,0,0,0,0,0,0,0,48,48,48,47,48,48,47,48,47,48,0,0,0,0,47,47,47,47,48,47,48,48,48,47,47,48,0,0,0,0,0,0,0,0,0,0,47,48,47,47,47,48,48,48,47,47,47,47,47,47,47,47,48,47,48,48,0,0,0,0,0,0,0,0,0,0,0,0,0,0,47,48,48,48,48,48,47,48,48,48,48,47,47,47,48,48,47,48,47,48,48,47,48,48,
0,0,47,47,47,47,47,47,47,47,47,48,47,47,47,48,47,48,47,48,47,48,47,47,48,47,47,47,47,47,48,47,48,48,48,48,47,47,48,48,47,48,47,47,47,47,48,48,47,48,47,47,48,48,47,48,48,48,47,47,48,47,47,47,47,48,47,48,48,47,48,48,48,47,47,47,0,0,0,0,0,0,0,0,0,0,0,0,0,0,101,103,0,0,0,0,0,0,101,103,0,0,0,0,48,47,47,47,47,47,47,47,47,48,47,48,0,0,0,0,48,48,48,48,48,48,47,48,48,47,47,48,48,47,47,47,0,0,0,0,0,0,0,0,101,103,0,0,0,0,0,0,0,0,0,0,0,0,0,0,0,0,0,0,0,0,0,0,0,0,0,0,0,0,0,0,0,0,0,0,0,0,47,48,47,47,48,48,48,47,47,47,47,47,48,47,47,48,47,48,47,48,48,48,48,47,48,48,47,47,48,47,47,47,47,47,47,48,47,47,47,48,48,47,47,48,48,47,47,48,47,48,47,47,47,48,47,47,47,48,48,48,48,48,47,48,0,0,0,0,48,47,47,48,48,48,47,47,48,47,47,48,48,47,47,48,47,48,48,48,48,48,48,48,48,48,48,47,48,48,48,48,47,48,47,48,47,48,0,0,0,0,48,47,47,48,47,47,47,47,47,47,48,47,0,0,101,103,0,0,0,0,0,0,47,47,47,47,47,47,47,48,48,48,47,47,47,47,47,47,48,47,47,48,48,47,47,47,48,48,47,48,47,48,47,47,48,47,48,47,47,47,48,48,47,48,48,47,48,48,48,48,47,47,48,47,48,47,47,48,47,47,
0,0,47,47,47,47,48,48,47,47,48,48,48,47,48,47,48,48,48,47,47,47,48,48,48,47,48,47,47,48,47,47,48,48,48,48,47,47,47,47,48,47,47,47,47,47,48,47,47,47,47,47,48,47,47,48,47,48,47,48,47,48,48,48,48,48,47,47,47,47,48,47,47,47,47,47,0,0,0,0,0,0,0,0,0,0,0,0,0,0,0,0,0,0,0,0,0,0,0,0,0,0,0,0,47,48,47,48,48,47,48,48,47,48,48,48,0,0,0,0,48,48,48,47,48,47,48,48,48,48,47,47,48,47,48,48,0,0,0,0,0,0,0,0,0,0,0,0,0,0,0,0,0,0,0,0,0,0,0,0,0,0,0,0,0,0,0,0,0,0,0,0,0,0,0,0,0,0,0,0,0,0,48,47,47,48,47,47,47,48,47,48,47,47,47,48,47,48,48,48,47,47,47,48,47,47,47,48,48,47,48,48,47,48,48,47,47,48,47,48,48,48,48,48,48,48,47,48,47,48,48,47,47,48,47,48,48,47,47,48,47,48,48,48,47,47,0,0,0,0,47,47,48,48,48,48,48,48,48,47,47,47,48,48,48,47,48,48,48,48,47,47,48,48,48,48,47,47,47,47,48,48,48,47,48,47,47,48,0,0,0,0,47,48,48,48,47,47,48,48,48,47,48,47,0,0,0,0,0,0,0,0,0,0,48,48,48,48,48,47,47,47,47,48,47,47,48,48,47,48,47,47,47,47,47,48,48,47,47,48,47,48,47,48,47,47,48,47,48,48,47,48,48,47,48,47,47,48,47,47,48,47,47,48,48,47,47,47,47,48,48,47,
0,47,47,47,48,48,48,48,48,48,47,48,47,48,47,47,48,48,48,48,47,47,48,47,48,47,48,48,47,47,48,48,48,47,47,48,47,47,48,47,48,47,47,47,48,47,47,48,48,47,47,47,47,48,47,47,47,48,48,48,47,47,48,47,48,47,47,48,48,48,47,48,47,48,48,47,47,48,47,48,48,47,47,47,47,47,0,0,0,0,0,0,0,0,0,0,0,0,0,0,0,0,0,0,47,48,48,48,47,48,48,47,47,48,47,47,0,0,0,0,47,47,48,47,47,48,48,48,47,47,48,47,48,47,48,48,0,0,101,103,0,0,0,0,0,0,0,0,0,0,101,103,48,48,48,47,47,47,48,48,47,48,48,48,0,0,0,0,48,47,47,48,48,48,47,48,47,48,47,47,47,48,47,47,48,47,47,48,48,47,47,48,47,48,48,47,48,48,47,48,48,47,48,48,47,47,47,48,48,48,48,47,47,47,48,47,48,48,48,47,47,47,48,48,48,48,47,47,47,47,48,47,48,47,48,48,48,47,48,48,47,47,47,47,47,47,0,0,0,0,47,48,47,48,48,48,47,48,48,48,48,48,48,48,48,47,48,48,47,48,48,47,47,48,48,48,47,47,47,47,48,48,47,48,47,47,47,48,0,0,0,0,47,47,48,48,48,47,48,48,47,47,47,47,0,0,0,0,0,0,0,0,101,103,47,48,48,48,48,48,47,47,47,47,47,48,48,47,47,48,48,48,47,48,47,47,48,48,48,48,47,47,47,47,47,48,47,48,47,48,47,48,48,48,47,47,47,47,47,48,48,48,48,48,47,48,47,47,47,47,48,47,
0,47,47,47,48,48,48,47,47,47,48,48,47,47,48,47,47,48,47,47,48,47,47,48,48,47,47,47,48,47,48,47,47,47,48,47,47,47,48,48,47,48,47,48,47,47,47,48,48,47,48,47,48,48,47,48,48,47,47,48,48,47,48,48,48,48,47,48,47,47,47,47,47,47,47,48,48,48,47,47,48,48,48,47,47,47,0,0,0,0,0,0,0,0,0,0,0,0,0,0,0,0,0,0,48,47,47,47,47,47,47,47,48,47,48,47,0,0,0,0,48,48,47,48,47,48,48,48,47,48,48,47,47,47,47,47,0,0,0,0,0,0,0,0,0,0,0,0,0,0,0,0,47,48,47,47,47,48,47,47,48,47,47,48,0,0,0,0,47,47,47,47,47,48,47,47,47,47,47,47,48,48,48,48,48,47,47,47,48,48,48,47,47,47,47,47,47,47,48,48,48,48,48,48,48,48,47,47,48,48,47,47,48,47,47,47,47,47,48,47,48,47,47,47,48,47,48,47,47,47,47,47,48,48,47,48,47,47,47,48,47,48,48,47,47,47,0,0,0,0,47,47,48,47,48,47,47,48,48,47,47,47,48,47,48,47,47,48,47,48,47,48,47,47,48,48,48,48,47,47,48,48,48,47,48,48,48,48,0,0,0,0,48,47,47,47,48,48,48,48,48,48,48,47,0,0,0,0,0,0,0,0,0,0,47,48,47,48,48,48,48,48,48,48,47,48,47,47,48,48,48,47,48,48,47,47,47,48,47,47,48,48,48,48,48,48,47,48,48,48,48,48,47,48,48,48,48,47,47,47,48,47,47,47,47,48,48,48,47,47,48,47,
47,47,47,48,47,47,48,47,47,48,47,47,48,48,47,48,48,48,48,47,47,47,47,47,47,48,48,47,47,47,47,47,47,48,47,47,47,48,48,47,47,47,48,48,48,48,48,48,48,47,47,48,48,48,47,47,47,48,47,48,48,48,47,48,48,48,48,48,48,48,47,48,48,47,47,47,48,48,48,48,47,47,48,47,47,47,48,47,48,48,48,48,48,47,48,48,47,48,47,48,47,47,47,47,47,47,48,47,48,47,48,48,48,47,48,47,0,0,0,0,47,48,48,48,47,48,47,48,48,48,47,47,48,47,47,47,47,48,47,48,48,48,48,47,47,48,47,48,47,47,47,47,48,48,47,47,47,48,48,47,48,48,47,48,0,0,0,0,47,48,47,48,47,47,48,48,48,48,47,48,47,47,48,48,48,47,48,47,47,48,47,47,48,47,47,48,48,47,48,47,47,47,47,48,47,48,47,47,47,47,47,47,48,48,48,47,47,48,47,48,48,47,48,48,47,47,47,48,47,48,47,47,48,48,47,47,48,48,47,48,47,48,48,47,47,48,0,0,0,0,47,48,48,48,47,48,48,47,48,48,48,48,47,48,48,47,48,47,48,48,47,48,48,47,48,48,48,48,47,48,48,47,47,48,48,48,47,47,0,0,0,0,47,47,47,47,48,47,48,47,48,47,47,48,0,0,0,0,101,103,0,0,0,0,47,47,47,47,48,48,47,48,47,47,47,48,47,48,47,47,47,48,48,48,48,48,47,48,48,48,47,48,47,48,48,47,47,47,48,47,48,48,47,48,48,48,48,47,48,48,48,47,48,48,48,47,48,48,47,48,47,48,
48,48,48,47,47,47,48,47,48,48,48,48,47,47,48,48,47,47,47,47,48,47,48,48,47,47,47,48,47,47,47,47,47,47,47,48,47,48,47,48,47,47,48,47,48,47,47,47,48,48,48,48,48,48,47,48,47,47,47,47,47,47,47,47,48,47,48,47,47,47,47,47,47,47,48,48,47,47,48,47,48,48,47,47,48,48,47,48,48,47,47,47,48,47,48,48,47,48,48,47,48,48,47,48,48,48,47,47,48,47,47,47,48,48,47,47,0,0,0,0,47,48,47,48,47,48,48,48,47,47,47,47,47,47,48,48,47,47,48,47,47,48,47,47,47,48,47,48,47,48,48,48,47,48,47,47,48,47,47,47,47,47,47,48,0,0,0,0,47,48,48,47,47,47,47,48,47,48,47,48,47,48,47,48,48,47,48,47,47,47,48,47,48,47,47,47,48,47,47,47,47,48,48,47,48,48,48,48,47,47,47,47,48,48,48,48,48,47,47,47,47,47,47,47,48,48,48,48,47,47,48,47,48,48,47,48,47,47,47,48,47,47,48,48,48,47,0,0,0,0,47,48,48,48,47,47,48,47,47,48,48,47,48,47,47,47,48,47,47,47,48,48,48,47,48,48,47,47,47,47,48,48,48,48,47,47,48,47,0,0,0,0,47,47,48,47,48,47,48,48,48,48,47,47,0,0,0,0,0,0,0,0,0,0,47,47,48,47,48,47,48,47,48,47,48,48,47,47,48,48,47,48,47,47,47,47,48,47,47,47,48,47,47,48,47,48,48,48,47,48,48,47,47,48,47,48,48,47,47,47,48,47,47,48,48,47,47,48,48,47,47,47,
48,48,48,48,47,48,48,48,47,47,48,48,47,47,47,48,47,47,47,47,48,47,47,47,47,48,47,48,48,47,47,47,47,48,47,47,48,48,48,47,47,47,48,47,47,47,47,47,48,47,48,48,47,48,48,48,48,47,47,48,48,48,48,48,47,47,48,47,47,48,47,48,48,48,47,47,47,47,47,48,47,48,48,48,48,47,48,48,47,47,48,47,48,47,47,47,47,47,48,47,48,48,48,48,48,47,48,48,48,48,47,47,48,47,48,48,0,0,0,0,48,47,48,47,48,47,47,48,47,48,48,48,48,48,47,47,48,48,47,47,48,48,48,48,48,48,47,47,48,47,47,47,47,48,47,48,48,48,48,48,48,48,48,47,0,0,0,0,48,48,47,48,48,48,48,48,47,47,47,47,47,48,48,48,48,47,47,47,48,48,47,47,48,48,48,47,47,48,48,48,48,48,47,47,48,48,47,48,47,48,47,47,47,48,47,47,47,48,48,47,47,48,47,48,47,48,47,48,48,48,47,47,48,48,48,47,48,48,48,47,48,47,48,47,47,48,0,0,0,0,48,48,48,48,48,47,47,47,48,48,48,47,47,47,47,48,48,48,48,47,47,47,48,47,48,47,48,48,47,47,48,47,48,47,47,47,48,48,0,0,0,0,48,47,47,48,48,48,47,48,47,47,48,48,101,103,0,0,0,0,0,0,0,0,48,48,48,48,48,48,47,48,47,47,48,47,48,47,47,47,48,47,48,47,0,0,0,0,0,0,0,0,0,0,0,0,0,0,0,0,0,0,47,48,48,48,48,47,48,48,48,48,47,47,48,47,47,47,48,47,48,47,
48,47,48,48,47,48,48,48,48,47,48,47,48,48,47,48,47,47,48,47,47,47,47,48,47,48,48,47,48,47,48,47,47,48,47,48,47,48,48,47,47,47,48,47,48,48,48,47,47,48,48,48,47,48,47,48,48,47,48,47,47,47,47,47,48,48,47,47,48,48,48,47,47,47,47,47,48,47,47,48,47,48,47,48,47,47,48,47,47,48,47,48,48,47,48,48,48,48,47,48,47,48,47,48,47,48,48,47,48,48,48,47,48,47,47,48,0,0,0,0,48,47,47,48,48,48,48,47,47,47,48,48,47,47,48,47,47,47,48,48,48,47,48,47,47,47,48,47,48,47,48,48,48,48,47,48,48,48,47,47,48,48,48,48,0,0,0,0,47,48,48,47,48,48,48,47,47,48,48,48,48,47,48,47,48,47,48,47,48,47,48,47,48,48,48,47,48,47,48,47,48,47,47,47,47,47,47,47,47,47,48,47,47,47,48,48,47,48,47,47,48,47,48,48,47,47,47,47,48,47,47,47,48,48,48,48,48,48,47,47,47,47,48,48,47,48,0,0,0,0,47,48,48,48,47,48,47,48,47,48,47,47,48,47,47,48,47,47,47,47,48,47,47,47,47,48,48,47,48,47,48,48,47,47,48,47,48,47,0,0,0,0,47,47,47,47,47,48,47,47,48,48,48,47,0,0,0,0,0,0,0,0,0,0,47,47,48,48,48,48,47,48,47,47,47,47,48,47,47,48,47,47,47,48,0,0,0,0,0,0,0,0,0,0,0,0,0,0,0,0,0,0,47,48,48,47,47,47,48,47,48,47,48,48,48,47,47,47,48,48,47,48,
0,48,47,48,47,47,48,48,47,47,48,47,47,48,47,47,47,48,48,48,48,48,48,48,47,47,47,47,47,47,48,47,47,47,47,48,48,47,48,47,47,47,48,47,47,47,47,47,48,48,47,47,48,48,47,47,48,48,48,47,47,47,47,47,47,48,47,48,47,47,47,47,47,47,47,47,48,48,48,48,47,48,48,47,47,48,47,48,47,48,48,48,48,47,47,48,47,48,48,48,48,48,47,47,47,47,47,47,48,48,48,47,48,47,47,48,0,0,0,0,47,47,48,47,48,48,48,47,47,47,47,47,47,47,48,48,47,48,47,47,47,48,48,47,47,47,47,48,47,47,47,48,48,47,48,48,48,47,48,47,47,48,48,48,0,0,0,0,47,47,47,48,47,48,48,48,47,48,47,48,47,48,47,47,47,47,47,48,48,48,47,48,48,47,47,48,48,48,47,47,48,48,48,47,48,48,47,47,47,47,48,47,47,47,47,48,47,48,47,48,47,48,48,47,48,48,47,47,47,48,47,48,47,48,48,47,48,48,47,48,48,47,47,48,48,48,0,0,0,0,48,47,48,48,48,48,47,47,47,48,47,48,48,48,47,48,48,48,47,48,47,47,48,48,47,48,47,47,48,48,48,47,47,48,48,47,47,47,0,0,0,0,48,48,47,47,47,47,47,47,47,48,48,47,0,0,0,0,0,0,101,103,0,0,0,0,0,0,0,0,0,0,0,0,0,0,0,0,0,0,0,0,0,0,0,0,0,0,0,0,0,0,0,0,0,0,0,0,0,0,0,0,47,47,47,47,47,48,47,48,48,47,47,48,47,47,48,48,47,47,48,48,
0,48,48,48,47,47,47,47,47,48,48,48,47,47,47,48,48,47,47,47,48,48,47,48,48,48,47,47,47,47,48,47,48,48,48,47,47,47,48,48,47,47,48,47,47,47,47,48,47,48,47,48,47,48,48,48,48,47,48,48,48,47,48,47,48,47,47,48,47,47,47,47,48,47,47,48,47,47,47,47,48,48,47,48,47,48,48,48,47,47,48,48,47,47,48,47,48,48,47,48,47,47,47,48,47,48,48,48,47,47,47,47,47,47,48,47,0,0,0,0,47,48,47,47,48,47,48,48,48,47,48,47,47,47,48,48,47,48,47,48,47,47,48,48,48,48,48,48,48,47,47,47,48,48,48,47,47,47,47,48,47,48,48,48,0,0,0,0,47,47,47,48,48,47,48,48,48,47,48,48,47,47,48,47,47,48,47,48,48,48,48,47,48,47,48,48,48,47,47,47,48,47,48,47,47,48,47,48,48,48,48,47,47,48,48,47,47,48,47,47,47,48,47,48,47,48,47,48,48,48,48,47,47,47,47,48,47,47,48,48,47,48,47,47,48,47,0,0,0,0,47,47,47,48,47,47,48,48,47,47,47,47,47,48,47,47,47,48,48,48,48,48,47,47,48,48,47,47,47,48,48,47,48,47,47,48,48,48,0,0,0,0,48,47,47,48,48,47,47,48,48,47,48,48,0,0,0,0,0,0,0,0,0,0,0,0,0,0,0,0,0,0,0,0,0,0,0,0,0,0,0,0,0,0,0,0,0,0,0,0,0,0,0,0,0,0,0,0,0,0,0,0,47,47,47,47,47,48,48,48,48,48,48,48,47,47,47,48,48,47,47,48,
0,0,47,47,47,48,48,47,47,47,47,47,47,47,47,48,47,48,47,47,47,47,48,47,48,48,48,48,48,47,47,47,47,48,48,47,48,48,47,47,48,48,48,48,48,48,48,48,47,48,47,48,48,48,48,48,47,47,47,47,47,48,48,47,47,48,47,47,48,48,47,48,47,48,47,48,47,47,48,48,47,48,47,48,47,48,48,48,47,47,48,47,47,48,47,48,47,47,48,47,48,48,47,47,47,48,47,47,48,48,47,48,48,48,47,48,0,0,0,0,48,47,48,47,47,47,47,48,47,48,47,48,47,48,47,48,47,48,47,47,47,47,47,47,47,48,48,47,47,48,47,48,47,48,47,48,47,48,47,48,47,48,47,48,0,0,0,0,47,47,48,48,47,47,48,47,47,48,48,48,48,48,47,47,48,47,47,47,48,48,48,48,48,48,0,0,0,0,0,0,0,0,0,0,0,0,0,0,0,0,0,0,0,0,0,0,0,0,0,0,47,48,48,47,48,47,47,47,47,48,47,48,47,47,48,48,48,47,48,47,47,48,48,47,48,48,0,0,0,0,48,47,48,47,48,48,48,48,48,47,47,48,47,47,47,47,48,47,48,48,47,48,47,48,47,48,47,47,47,48,47,47,47,47,48,47,47,47,0,0,0,0,48,47,48,48,48,48,47,48,47,48,48,48,0,0,101,103,0,0,0,0,0,0,47,47,48,47,48,47,48,48,47,48,48,47,48,48,48,47,47,48,48,47,101,103,0,0,101,103,0,0,101,103,0,0,0,0,0,0,0,0,47,47,48,48,48,48,47,48,47,47,47,47,48,47,47,48,48,47,48,47,
0,0,47,48,47,47,47,48,48,48,47,47,47,48,47,47,48,48,48,48,47,48,47,47,48,47,47,48,47,48,47,48,48,48,47,47,47,47,47,47,47,48,47,48,47,48,47,48,47,48,48,48,47,48,47,47,47,48,48,48,47,48,48,47,48,48,47,47,48,47,48,48,48,48,47,48,47,48,48,48,47,47,48,47,48,48,47,48,47,47,48,48,48,48,47,47,48,47,48,47,47,47,47,48,47,48,48,48,47,47,48,47,47,48,48,47,0,0,0,0,47,48,47,48,47,47,47,48,48,47,47,47,48,48,48,47,47,47,48,48,48,48,48,48,48,47,48,48,48,48,47,47,48,47,48,48,47,48,47,48,48,47,48,48,0,0,0,0,48,48,48,47,47,48,48,48,47,47,48,48,48,47,47,47,47,47,48,47,48,48,47,47,47,47,0,0,0,0,0,0,0,0,0,0,0,0,0,0,0,0,0,0,0,0,0,0,0,0,0,0,48,47,48,48,47,47,48,47,47,48,47,47,47,47,48,47,47,47,47,47,47,48,47,48,48,48,0,0,0,0,48,47,47,48,47,48,48,48,47,47,48,47,47,47,48,48,48,48,47,48,47,48,48,48,48,47,47,47,47,48,48,47,48,48,48,48,47,48,0,0,0,0,47,47,48,48,48,47,47,47,47,47,47,47,0,0,0,0,0,0,0,0,0,0,47,48,48,47,48,48,47,48,48,47,48,48,47,47,47,48,48,48,47,47,0,0,0,0,0,0,0,0,0,0,0,0,0,0,0,0,0,0,48,47,47,48,47,47,48,48,47,48,47,47,48,47,47,48,47,47,48,47,
0,0,0,47,48,47,47,48,48,47,48,48,47,47,48,48,47,47,47,48,47,48,48,48,48,48,47,48,47,48,48,48,47,48,47,47,47,47,48,47,48,48,48,48,48,47,47,47,48,47,47,48,47,47,48,48,47,48,48,47,48,47,47,47,48,48,47,48,47,47,48,48,47,47,47,47,48,47,48,47,48,47,48,48,48,48,47,47,48,48,48,48,47,47,48,48,47,47,47,47,48,47,48,47,47,47,48,48,48,48,47,47,48,48,47,47,0,0,0,0,48,47,47,48,47,48,47,48,48,47,48,47,48,47,47,47,47,48,47,47,48,48,48,48,47,48,48,48,47,48,47,48,47,48,48,48,48,48,48,47,48,48,47,48,0,0,0,0,47,48,48,47,47,48,47,48,47,48,48,47,48,48,48,47,47,48,48,47,48,48,47,47,48,47,0,0,0,0,0,0,0,0,0,0,0,0,0,0,0,0,0,0,0,0,0,0,0,0,0,0,48,48,47,48,48,47,48,48,47,48,48,47,48,47,48,48,48,48,47,48,47,48,47,47,47,48,0,0,0,0,47,48,48,48,48,47,47,47,47,47,48,47,48,47,48,47,47,48,47,47,47,47,48,47,48,47,48,48,48,47,47,48,47,48,48,48,47,48,0,0,0,0,48,48,47,48,48,48,48,48,48,47,47,47,47,47,48,47,47,48,48,48,47,47,47,47,48,47,48,48,47,47,48,48,48,47,47,47,47,48,47,48,48,47,0,0,0,0,0,0,0,0,0,0,0,0,0,0,101,103,0,0,48,47,48,47,48,48,47,47,47,47,48,48,47,47,48,48,48,47,47,47,
0,0,0,47,48,48,47,48,48,48,48,48,48,48,48,48,48,47,48,48,48,48,48,47,48,48,48,48,48,48,47,47,47,48,47,48,48,47,48,47,47,47,48,48,47,47,48,47,48,48,47,47,48,48,48,48,47,47,48,47,47,48,48,48,48,48,48,47,47,48,48,47,48,47,47,47,47,47,48,47,47,47,48,48,48,47,47,48,47,48,48,47,47,47,47,47,47,48,48,48,48,48,47,48,47,48,47,47,47,48,47,48,48,48,48,48,0,0,0,0,48,48,47,48,47,48,48,47,48,47,48,47,47,47,47,47,47,47,47,48,48,48,48,47,48,47,47,47,47,47,47,48,47,48,48,47,47,47,48,48,48,47,47,48,0,0,0,0,48,47,47,47,48,48,48,48,47,48,48,47,47,48,48,48,48,47,47,48,47,48,48,48,47,48,0,0,0,0,0,0,0,0,0,0,0,0,0,0,0,0,0,0,0,0,0,0,0,0,0,0,47,48,48,48,48,48,47,47,47,47,47,47,48,48,48,48,48,48,48,47,47,48,47,48,48,47,0,0,0,0,47,47,47,48,48,48,48,48,48,48,48,48,47,48,47,47,47,47,48,48,47,47,47,47,48,48,47,47,47,47,48,48,48,48,48,47,47,48,0,0,0,0,48,47,48,47,48,48,47,48,47,47,47,48,48,47,47,48,47,48,48,47,48,47,48,47,47,48,47,48,47,48,48,47,48,47,47,48,47,48,47,47,47,48,0,0,0,0,0,0,0,0,0,0,0,0,0,0,0,0,0,0,48,48,47,47,47,47,48,47,47,47,48,48,47,47,47,47,47,47,48,48,
0,0,0,0,48,47,48,48,47,47,47,48,47,47,48,48,48,48,48,47,48,47,48,48,48,48,47,47,47,47,48,48,47,47,47,47,47,47,48,48,48,47,47,48,47,48,48,47,47,47,48,47,47,47,47,48,47,47,48,47,47,48,47,48,47,47,47,48,48,48,48,47,48,47,48,47,48,47,48,48,47,47,48,48,47,47,48,47,48,47,47,47,47,48,47,48,47,48,47,48,47,48,48,47,47,48,48,48,47,48,48,48,47,47,47,48,0,0,0,0,48,48,47,48,47,47,48,47,48,47,47,47,48,48,48,48,47,47,47,48,48,47,47,48,47,48,48,48,47,48,48,48,47,47,47,47,48,48,47,48,47,47,48,47,0,0,0,0,47,48,47,47,48,48,47,48,48,48,47,47,47,48,47,48,48,48,48,47,47,47,48,47,48,48,0,0,0,0,0,0,0,0,0,0,0,0,101,103,0,0,0,0,0,0,0,0,0,0,0,0,48,47,47,47,48,48,0,0,0,0,47,47,47,48,48,48,47,47,48,48,48,47,47,47,47,48,0,0,0,0,47,48,48,48,47,47,47,48,48,48,48,47,48,48,47,47,0,0,0,0,0,0,0,0,0,0,0,0,0,0,47,47,48,48,47,48,47,48,0,0,0,0,48,48,47,47,48,47,48,48,48,48,47,47,48,47,48,48,48,48,48,48,48,47,48,48,47,48,47,48,47,48,47,47,48,48,48,47,47,48,47,47,48,48,0,0,0,0,0,0,0,0,0,0,0,0,0,0,0,0,0,0,47,48,48,48,48,47,48,47,47,48,48,47,47,48,48,47,47,48,48,47,
0,0,0,0,47,48,48,47,48,48,48,47,47,47,47,48,48,48,47,47,48,47,47,47,48,48,47,47,47,48,47,47,47,47,48,48,47,48,47,48,48,47,47,48,47,47,48,48,48,48,48,48,47,47,47,47,47,48,47,48,48,47,47,47,47,48,47,47,47,47,48,48,48,47,48,48,48,47,48,47,47,47,47,48,47,47,48,48,47,48,47,48,48,48,47,47,48,48,47,48,47,48,48,48,47,48,48,48,47,47,47,48,48,48,48,47,0,0,0,0,48,48,47,47,47,48,47,47,47,47,47,47,47,48,47,48,47,47,47,48,48,48,48,47,47,48,48,47,48,48,47,48,47,47,48,48,47,47,47,47,48,48,48,48,0,0,0,0,47,48,47,47,47,47,47,47,48,47,47,47,47,48,48,47,48,47,48,47,47,48,47,47,47,48,0,0,0,0,0,0,0,0,0,0,0,0,0,0,0,0,0,0,0,0,0,0,0,0,0,0,47,47,47,47,47,48,0,0,0,0,48,48,48,48,48,48,48,48,48,48,47,47,47,47,47,48,0,0,0,0,47,47,47,47,47,47,48,47,48,47,48,47,47,48,47,48,0,0,0,0,0,0,0,0,0,0,0,0,0,0,47,48,48,48,47,48,47,48,0,0,0,0,48,48,47,47,48,47,47,48,47,48,48,48,47,47,47,47,47,47,47,48,47,48,48,48,47,47,47,47,47,47,47,48,47,48,48,48,48,48,47,48,47,47,0,0,0,0,0,0,0,0,0,0,0,0,0,0,0,0,0,0,48,48,47,47,48,47,47,48,48,48,47,48,48,47,47,48,48,47,48,48,
0,0,0,0,0,48,47,48,48,47,47,47,47,48,48,47,48,48,48,47,47,48,47,48,47,47,47,47,48,47,47,47,47,48,48,47,47,47,48,48,48,48,47,47,48,47,47,48,48,48,47,47,48,48,48,47,48,47,48,48,47,48,48,47,48,48,47,48,47,47,48,48,47,47,47,48,48,48,0,0,0,0,0,0,0,0,0,0,0,0,0,0,0,0,0,0,48,48,48,47,48,47,48,48,47,47,47,47,48,48,48,48,47,47,48,48,0,0,0,0,47,48,47,47,48,47,48,47,48,47,47,48,0,0,0,0,0,0,0,0,0,0,0,0,0,0,0,0,47,48,48,47,47,47,47,47,48,48,48,48,48,48,48,47,0,0,0,0,47,48,47,48,47,48,47,48,48,48,48,47,47,48,48,47,47,48,48,48,47,47,47,47,47,48,0,0,0,0,0,0,101,103,0,0,0,0,0,0,0,0,0,0,101,103,0,0,0,0,0,0,0,0,0,0,0,0,0,0,0,0,0,0,0,0,47,47,47,47,47,48,48,47,48,48,47,48,0,0,0,0,47,48,47,47,48,47,48,47,47,47,47,47,48,48,47,47,0,0,0,0,0,0,0,0,0,0,0,0,0,0,47,47,48,48,48,48,48,47,0,0,0,0,48,47,48,48,47,48,47,47,47,48,47,48,47,48,48,47,47,48,47,48,47,48,47,48,47,48,47,48,47,48,47,48,47,47,48,48,47,48,47,47,48,47,0,0,0,0,101,103,0,0,0,0,101,103,0,0,0,0,0,0,48,47,47,48,48,47,48,47,48,47,47,47,48,48,48,47,47,47,48,48,
0,0,0,0,0,47,47,47,47,48,47,47,47,47,48,48,48,48,48,47,47,48,47,48,48,48,48,48,47,48,47,47,48,47,47,48,47,48,47,47,48,47,47,48,48,47,48,48,47,47,48,47,47,47,47,47,47,47,47,47,48,47,47,48,48,48,47,47,48,48,48,48,48,47,47,48,47,48,0,0,0,0,0,0,0,0,0,0,0,0,0,0,0,0,0,0,48,48,47,48,48,47,47,47,47,47,47,48,48,48,48,47,48,47,48,47,0,0,0,0,48,48,48,48,47,48,47,47,47,47,47,48,0,0,0,0,0,0,0,0,0,0,0,0,0,0,0,0,48,48,47,48,48,48,48,47,48,48,47,47,47,47,48,47,0,0,0,0,48,48,48,47,48,48,47,48,48,47,48,48,48,48,47,48,48,47,48,48,47,47,47,48,48,47,0,0,0,0,0,0,0,0,0,0,0,0,0,0,0,0,0,0,0,0,0,0,0,0,0,0,0,0,0,0,0,0,0,0,0,0,0,0,0,0,47,48,48,47,47,47,47,47,48,47,48,48,0,0,0,0,48,48,47,47,47,47,47,47,47,47,48,47,48,48,47,47,0,0,0,0,0,0,0,0,0,0,0,0,0,0,47,47,48,47,47,47,47,48,0,0,0,0,48,47,47,48,47,48,47,48,48,47,48,47,48,48,47,47,48,48,47,48,48,47,47,48,47,47,47,47,47,47,48,47,47,47,48,47,47,48,47,48,47,47,0,0,0,0,0,0,0,0,0,0,0,0,0,0,0,0,0,0,48,48,47,47,48,47,47,47,47,48,47,48,47,48,48,47,47,47,47,48,
0,0,0,0,0,0,48,47,48,47,47,48,48,48,48,47,47,48,47,48,47,48,47,47,47,47,48,47,47,48,48,47,48,47,47,48,47,48,47,47,47,47,48,48,48,47,47,48,48,48,47,47,48,48,47,48,47,48,47,48,47,48,47,47,47,48,47,47,48,47,47,48,47,47,48,48,48,48,0,0,0,0,0,0,0,0,0,0,0,0,0,0,0,0,0,0,48,48,48,47,48,48,47,47,48,48,47,48,47,48,48,48,47,47,47,47,0,0,0,0,48,48,48,48,47,48,48,48,48,48,48,48,0,0,0,0,0,0,0,0,0,0,0,0,0,0,0,0,48,47,47,47,47,47,48,48,48,47,47,47,48,48,48,48,0,0,0,0,47,47,47,47,47,47,48,47,48,47,47,48,48,48,47,47,47,47,48,47,47,48,47,48,47,47,101,103,0,0,0,0,0,0,0,0,0,0,101,103,0,0,0,0,0,0,0,0,0,0,101,103,47,47,48,47,48,47,47,48,47,48,47,47,0,0,47,48,47,48,48,47,47,48,48,47,47,47,0,0,0,0,47,47,47,47,47,48,47,48,48,48,48,47,47,47,48,48,101,103,0,0,0,0,0,0,0,0,0,0,101,103,47,47,47,48,48,47,48,48,0,0,0,0,48,48,47,47,47,47,47,47,47,47,47,48,48,48,47,47,48,47,48,48,48,47,47,48,47,48,48,47,48,48,47,48,47,48,48,48,48,47,47,48,48,48,101,103,0,0,0,0,0,0,0,0,0,0,0,0,101,103,0,0,48,47,48,48,47,48,47,48,47,48,47,48,48,48,47,48,47,47,47,47,
0,0,0,0,0,0,48,48,48,47,47,47,47,48,48,47,48,47,48,48,48,47,47,47,47,48,48,48,48,47,47,47,48,48,48,48,48,48,48,47,47,47,47,47,47,48,47,47,48,47,47,47,48,48,47,47,47,47,48,48,48,48,48,48,48,47,47,47,48,48,47,48,47,47,47,48,47,47,0,0,0,0,0,0,0,0,0,0,0,0,0,0,0,0,0,0,48,48,48,48,48,48,47,47,47,47,48,47,47,48,48,47,47,47,48,48,0,0,0,0,47,47,48,48,47,47,47,48,47,48,48,48,0,0,0,0,0,0,0,0,0,0,0,0,0,0,0,0,48,48,47,48,47,48,47,47,47,48,47,47,48,47,47,48,0,0,0,0,48,48,47,48,48,48,47,48,48,48,47,48,47,48,47,48,48,47,48,47,48,47,47,48,47,47,0,0,0,0,0,0,0,0,0,0,0,0,0,0,0,0,0,0,0,0,0,0,0,0,0,0,47,47,47,48,48,47,48,48,47,48,48,47,0,0,47,47,47,48,48,47,48,47,47,48,47,47,0,0,0,0,47,48,47,47,48,48,48,48,47,47,48,48,48,48,47,48,0,0,0,0,0,0,0,0,0,0,0,0,0,0,47,47,47,48,47,48,47,48,0,0,0,0,48,47,47,48,47,48,47,47,47,47,47,47,47,47,47,48,47,47,48,48,47,48,47,47,47,48,48,48,47,48,47,48,48,47,48,47,47,47,47,48,47,47,0,0,0,0,0,0,0,0,0,0,0,0,0,0,0,0,0,0,48,48,48,47,48,48,47,48,48,47,47,48,47,48,47,47,48,48,48,48,
0,0,0,0,0,0,0,47,48,48,47,47,47,47,47,47,47,48,47,47,47,48,48,48,47,48,47,48,48,48,48,48,48,48,47,48,48,47,48,48,47,48,48,47,48,47,47,47,47,47,48,47,47,47,47,48,47,48,47,48,47,48,47,47,48,48,48,47,0,0,0,0,47,47,47,48,47,48,0,0,0,0,101,103,0,0,0,0,0,0,101,103,0,0,0,0,47,47,48,48,47,47,48,48,48,47,48,47,47,48,47,47,47,47,47,47,0,0,0,0,47,48,47,47,48,48,48,48,47,48,48,48,0,0,0,0,101,103,0,0,0,0,101,103,0,0,0,0,47,48,48,47,47,48,47,47,47,47,48,47,47,47,48,47,0,0,0,0,47,48,48,47,47,47,48,48,47,47,48,48,48,48,47,48,47,47,47,48,48,47,47,48,47,47,0,0,0,0,0,0,0,0,0,0,0,0,0,0,0,0,0,0,0,0,0,0,0,0,0,0,48,48,48,47,47,48,47,47,47,48,47,47,0,0,48,47,47,47,47,48,48,47,48,47,48,48,0,0,0,0,48,48,48,47,48,47,47,47,47,48,47,47,48,48,48,48,0,0,0,0,101,103,0,0,101,103,0,0,0,0,47,47,48,47,47,48,47,47,0,0,0,0,48,47,47,48,47,48,47,47,48,48,47,48,47,48,47,47,48,47,47,48,47,47,47,47,47,48,48,48,47,47,48,48,48,47,48,47,48,48,47,48,47,48,0,0,0,0,0,0,0,0,101,103,0,0,0,0,0,0,0,0,47,48,48,48,48,48,48,48,47,48,48,48,47,47,47,47,47,48,47,47,
0,0,0,0,0,0,0,0,47,48,47,47,48,47,48,47,47,47,48,48,48,48,47,48,47,47,47,48,47,48,48,47,47,48,47,47,47,47,47,48,47,48,47,47,48,48,48,47,47,47,48,47,47,47,47,48,47,47,47,48,47,48,47,47,47,47,48,47,0,0,0,0,47,48,47,48,48,47,0,0,0,0,0,0,0,0,0,0,0,0,0,0,0,0,0,0,48,47,47,47,48,47,48,48,47,47,48,47,48,47,48,47,48,48,48,48,0,0,0,0,47,47,47,48,47,47,48,48,48,48,47,48,0,0,0,0,0,0,0,0,0,0,0,0,0,0,0,0,47,48,47,48,47,48,47,47,48,48,48,47,48,48,47,47,0,0,0,0,47,48,48,48,47,47,48,48,47,48,47,47,47,47,48,47,47,48,48,48,48,47,47,48,47,47,0,0,0,0,0,0,0,0,0,0,0,0,0,0,0,0,0,0,0,0,0,0,0,0,0,0,48,47,48,47,47,48,47,48,48,48,48,47,0,0,47,48,47,47,48,48,48,48,47,48,47,47,0,0,0,0,47,48,47,48,48,47,48,48,47,47,47,48,48,48,48,48,0,0,0,0,0,0,0,0,0,0,0,0,0,0,47,48,48,47,47,48,47,48,0,0,0,0,47,48,48,47,47,47,47,48,47,47,48,48,47,47,47,48,47,48,48,47,48,47,48,47,48,48,48,47,47,48,47,48,47,48,47,47,48,48,47,47,48,48,0,0,0,0,0,0,0,0,0,0,0,0,0,0,0,0,0,0,47,48,48,48,48,47,47,48,48,48,47,48,47,47,48,47,48,47,48,48,
0,0,0,0,0,0,0,0,0,48,47,48,48,48,48,47,48,48,48,47,47,48,48,48,47,48,48,48,48,48,48,48,48,47,47,48,48,47,48,47,48,47,48,48,48,47,47,47,47,47,47,47,48,47,48,48,48,47,48,47,47,47,47,48,47,48,47,47,0,0,0,0,0,0,0,0,0,0,0,0,0,0,0,0,0,0,0,0,0,0,0,0,0,0,0,0,0,0,0,0,0,0,0,0,0,0,0,0,0,0,0,0,0,0,0,0,0,0,0,0,0,0,0,0,0,0,0,0,0,0,0,0,0,0,0,0,0,0,0,0,0,0,0,0,0,0,0,0,0,0,0,0,0,0,0,0,0,0,0,0,0,0,0,0,0,0,0,0,0,0,0,0,0,0,0,0,0,0,0,0,0,0,47,48,47,48,47,47,47,48,47,48,47,48,0,0,0,0,0,0,0,0,101,103,0,0,0,0,0,0,101,103,0,0,0,0,0,0,0,0,47,47,48,47,47,48,48,47,47,48,47,48,0,0,0,0,0,0,0,0,0,0,0,0,0,0,0,0,0,0,0,0,0,0,0,0,0,0,0,0,0,0,0,0,0,0,0,0,0,0,0,0,0,0,0,0,0,0,0,0,48,47,47,48,47,48,48,48,0,0,0,0,47,48,48,47,47,48,47,48,48,47,47,47,48,47,47,48,47,47,48,47,47,48,48,47,47,48,48,47,47,47,47,47,47,47,48,48,48,48,47,48,47,48,0,0,101,103,0,0,0,0,0,0,0,0,0,0,101,103,0,0,48,48,48,48,48,48,48,48,48,48,48,48,47,48,48,48,48,47,47,47,
0,0,0,0,0,0,0,0,0,0,47,48,48,48,48,47,48,47,48,47,48,47,48,48,48,47,47,48,47,48,47,48,48,48,48,47,48,48,47,48,48,48,47,48,48,48,48,47,48,48,47,48,48,48,47,48,47,47,48,47,48,47,47,47,48,47,48,48,0,0,0,0,0,0,0,0,0,0,0,0,0,0,0,0,0,0,0,0,0,0,0,0,0,0,0,0,0,0,0,0,0,0,0,0,0,0,0,0,0,0,0,0,0,0,0,0,0,0,0,0,0,0,0,0,0,0,0,0,0,0,0,0,0,0,0,0,0,0,0,0,0,0,0,0,0,0,0,0,0,0,0,0,0,0,0,0,0,0,0,0,0,0,0,0,0,0,0,0,0,0,0,0,0,0,0,0,0,0,0,0,0,0,47,47,48,48,48,48,48,47,48,48,47,47,0,0,0,0,0,0,0,0,0,0,0,0,0,0,0,0,0,0,0,0,0,0,0,0,0,0,48,48,47,48,48,48,48,47,48,48,47,48,0,0,0,0,0,0,0,0,0,0,0,0,0,0,0,0,0,0,0,0,0,0,0,0,0,0,0,0,0,0,0,0,0,0,0,0,0,0,0,0,0,0,0,0,0,0,0,0,48,47,48,48,48,48,47,48,0,0,0,0,47,47,47,47,48,47,47,48,48,47,48,47,47,48,48,48,48,47,47,47,47,48,48,48,48,48,47,47,48,47,47,48,48,48,47,47,47,48,48,48,47,48,0,0,0,0,0,0,0,0,0,0,0,0,0,0,0,0,0,0,47,47,47,48,48,48,48,48,48,48,48,48,48,47,47,47,48,48,48,48,
0,0,0,0,0,0,0,0,0,0,0,47,47,48,47,47,48,47,47,48,48,47,48,47,48,48,47,48,48,48,48,47,47,47,47,48,48,47,48,47,47,48,47,47,48,47,48,47,47,48,48,48,47,48,48,48,48,47,48,47,47,47,47,48,47,48,47,47,47,48,48,48,47,48,48,47,47,48,101,103,0,0,0,0,0,0,101,103,0,0,0,0,0,0,101,103,48,47,48,47,47,47,47,47,47,47,48,47,47,48,47,47,48,48,48,47,0,0,0,0,47,48,48,47,48,47,48,48,47,47,47,47,101,103,0,0,0,0,0,0,0,0,0,0,0,0,101,103,48,48,47,48,48,48,47,47,47,47,47,47,47,47,48,47,0,0,0,0,47,47,47,48,47,47,48,47,48,48,48,48,0,0,48,48,48,47,48,47,48,47,47,48,47,47,0,0,101,103,0,0,0,0,0,0,0,0,101,103,0,0,0,0,0,0,0,0,101,103,0,0,47,47,48,48,48,48,48,48,47,48,47,47,48,47,47,48,47,47,48,47,47,47,48,48,47,47,0,0,0,0,48,48,48,47,48,47,48,48,47,47,48,48,48,47,47,48,101,103,0,0,0,0,0,0,0,0,0,0,101,103,47,47,47,48,47,47,47,47,0,0,0,0,47,48,48,48,48,47,47,47,48,48,48,47,47,48,47,47,47,48,48,47,48,48,47,47,47,47,48,47,47,47,48,48,47,48,48,47,48,48,48,48,47,48,0,0,0,0,0,0,101,103,0,0,0,0,0,0,0,0,0,0,47,48,48,47,47,47,48,48,47,47,47,48,47,47,48,47,47,48,47,48,
0,0,0,0,0,0,0,0,0,0,0,0,48,48,48,47,48,47,47,48,47,47,48,48,47,48,48,47,48,48,47,48,47,47,48,48,47,47,48,47,48,48,48,47,48,48,47,48,48,47,48,47,47,48,48,48,48,47,48,48,48,47,47,48,47,47,48,47,47,47,47,48,48,48,48,48,48,48,0,0,0,0,0,0,0,0,0,0,0,0,0,0,0,0,0,0,47,48,48,47,48,47,47,48,47,47,48,47,48,48,48,48,48,48,47,47,0,0,0,0,47,48,48,48,47,48,47,48,47,48,47,48,0,0,0,0,0,0,0,0,0,0,0,0,0,0,0,0,47,48,48,48,47,48,48,48,47,48,48,48,47,47,48,47,0,0,0,0,47,48,48,48,47,47,47,47,47,48,48,47,0,0,48,48,48,48,47,48,47,48,47,47,47,47,0,0,0,0,0,0,0,0,0,0,0,0,0,0,0,0,0,0,0,0,0,0,0,0,0,0,47,47,48,47,47,47,48,47,47,47,47,48,47,48,47,47,48,47,48,48,47,48,48,47,47,48,0,0,0,0,48,47,47,47,48,47,48,48,48,48,47,48,47,47,48,47,0,0,0,0,0,0,0,0,0,0,0,0,0,0,48,48,47,48,47,47,48,48,0,0,0,0,47,47,47,47,48,47,48,47,48,48,47,48,47,48,48,48,47,47,48,47,48,48,47,48,48,48,47,47,47,48,47,48,47,48,48,48,48,47,48,47,48,47,0,0,0,0,0,0,0,0,0,0,0,0,0,0,0,0,0,0,48,48,48,47,48,47,47,47,48,48,47,48,47,47,48,47,47,47,48,48,
0,0,0,0,0,0,0,0,0,0,0,0,0,48,47,47,48,47,48,48,48,47,47,48,47,48,48,47,48,47,48,48,47,47,48,47,47,47,47,48,48,48,47,47,48,47,48,47,47,47,48,47,47,47,48,47,47,47,47,48,48,48,47,48,47,48,47,48,48,48,47,48,47,47,47,47,47,47,0,0,0,0,0,0,0,0,0,0,0,0,0,0,0,0,0,0,47,47,47,48,47,47,48,47,48,47,47,47,47,48,48,48,47,48,48,47,0,0,0,0,47,48,48,48,48,47,48,48,47,48,47,47,0,0,0,0,101,103,0,0,0,0,101,103,0,0,0,0,47,47,48,48,47,47,48,48,48,47,48,48,47,47,47,48,0,0,0,0,47,48,48,48,48,47,48,47,47,48,47,47,0,0,48,47,48,48,48,48,48,47,47,48,48,47,0,0,0,0,0,0,0,0,0,0,0,0,0,0,0,0,0,0,0,0,0,0,0,0,0,0,48,48,48,47,47,48,48,48,48,47,47,47,48,47,48,48,47,48,48,48,47,48,48,48,47,48,0,0,0,0,48,48,48,48,47,47,48,47,48,47,48,47,47,48,48,48,0,0,0,0,0,0,101,103,0,0,0,0,0,0,48,48,48,48,47,48,48,48,0,0,0,0,47,47,48,47,48,48,48,48,48,48,47,48,0,0,0,0,0,0,0,0,0,0,0,0,0,0,47,47,47,48,48,48,48,48,47,47,48,48,47,47,47,48,0,0,0,0,0,0,0,0,0,0,101,103,0,0,0,0,101,103,48,48,48,47,47,48,47,48,47,48,47,48,48,47,48,47,47,48,47,48,
0,0,0,0,0,0,0,0,0,0,0,0,0,0,47,48,48,47,48,48,47,47,48,47,48,47,48,47,48,48,48,48,48,47,48,47,47,48,47,48,48,48,48,47,47,48,47,47,47,48,47,48,48,47,47,48,47,47,47,48,47,47,48,47,47,48,47,47,47,48,48,47,47,48,47,48,47,47,0,0,0,0,0,0,0,0,0,0,0,0,0,0,0,0,0,0,48,48,48,47,48,48,48,47,48,48,48,48,47,47,47,47,47,47,48,48,0,0,0,0,47,47,48,48,47,47,47,48,47,48,47,47,0,0,0,0,0,0,0,0,0,0,0,0,0,0,0,0,47,48,48,48,48,47,48,48,47,48,48,48,48,47,48,48,0,0,0,0,47,47,47,48,47,47,47,47,48,48,48,47,0,0,48,48,48,48,48,48,48,47,48,47,48,47,0,0,0,0,0,0,0,0,0,0,0,0,0,0,0,0,0,0,0,0,0,0,0,0,0,0,48,48,48,48,48,47,48,48,47,48,48,48,48,48,47,47,48,48,47,47,48,47,47,48,47,47,0,0,0,0,48,47,48,48,47,48,47,48,48,47,48,48,48,48,47,48,0,0,0,0,0,0,0,0,0,0,0,0,0,0,47,48,47,47,47,47,47,47,0,0,0,0,48,48,47,48,48,47,47,47,48,47,47,47,0,0,0,0,0,0,0,0,0,0,0,0,0,0,47,47,47,48,47,48,47,48,48,48,47,48,47,47,47,48,0,0,0,0,0,0,0,0,0,0,0,0,0,0,0,0,0,0,48,47,48,48,48,48,48,48,47,48,48,47,48,47,48,48,47,47,47,48,
0,0,0,0,0,0,0,0,0,0,0,0,0,0,0,47,47,48,47,47,48,47,48,47,47,47,47,47,48,47,47,47,48,48,47,47,47,48,47,47,48,48,47,47,47,47,47,48,47,47,48,47,47,47,48,48,48,47,47,47,47,48,48,47,48,47,47,47,47,48,47,47,47,47,47,47,47,47,48,47,48,48,47,48,47,47,48,47,48,48,48,48,48,47,48,47,47,48,47,48,47,48,48,48,47,47,47,48,47,47,47,48,47,47,48,47,0,0,0,0,48,48,48,47,47,47,48,47,48,48,48,48,0,0,0,0,0,0,0,0,0,0,0,0,0,0,0,0,48,48,48,47,48,48,48,47,47,48,47,47,48,48,47,47,0,0,0,0,47,48,48,47,48,47,47,48,48,48,48,48,0,0,47,47,47,48,48,47,47,48,48,48,47,47,0,0,0,0,0,0,101,103,0,0,0,0,0,0,0,0,0,0,101,103,0,0,0,0,0,0,48,47,47,47,48,47,48,47,48,48,48,48,47,47,47,47,48,47,47,48,48,47,47,47,47,47,0,0,0,0,48,47,48,47,48,47,48,47,48,48,47,47,48,47,48,48,0,0,101,103,0,0,0,0,0,0,101,103,0,0,0,0,0,0,0,0,0,0,0,0,0,0,0,0,0,0,0,0,0,0,0,0,0,0,0,0,0,0,0,0,0,0,0,0,0,0,0,0,47,47,48,48,48,47,48,47,48,47,47,47,47,47,47,47,0,0,0,0,101,103,0,0,0,0,0,0,0,0,101,103,0,0,47,47,47,48,48,47,48,48,48,47,48,48,47,47,47,47,48,47,48,47,
0,0,0,0,0,0,0,0,0,0,0,0,0,0,0,0,47,48,47,47,47,47,47,48,48,48,48,47,47,47,48,48,47,48,48,47,48,47,48,47,48,47,47,47,48,48,47,47,48,47,48,47,47,48,47,47,48,47,48,47,48,48,48,47,48,48,48,47,48,47,47,48,48,47,48,47,48,47,47,48,47,48,48,48,47,48,48,48,47,47,48,47,48,47,47,48,48,48,48,47,48,48,47,48,48,47,47,48,48,47,47,47,47,47,48,48,0,0,0,0,48,48,47,48,48,47,48,47,47,47,48,48,0,0,0,0,0,0,0,0,0,0,0,0,0,0,0,0,48,47,48,47,48,47,47,47,47,48,48,47,47,47,47,48,0,0,0,0,47,47,48,48,48,47,48,48,47,48,48,48,0,0,48,47,48,48,47,47,47,48,47,47,48,48,0,0,0,0,0,0,0,0,0,0,0,0,0,0,0,0,0,0,0,0,0,0,0,0,0,0,47,47,47,48,47,47,47,47,48,47,47,48,47,47,47,48,47,47,47,48,48,48,48,47,48,48,0,0,0,0,48,47,48,48,47,47,47,47,47,48,48,48,48,48,47,48,0,0,0,0,0,0,0,0,0,0,0,0,0,0,0,0,0,0,0,0,0,0,0,0,0,0,0,0,0,0,0,0,0,0,0,0,0,0,0,0,0,0,0,0,0,0,0,0,0,0,0,0,48,47,47,47,48,47,47,48,47,47,47,48,47,47,48,48,0,0,0,0,0,0,0,0,0,0,0,0,0,0,0,0,0,0,48,48,47,48,47,47,47,47,47,47,48,47,48,48,48,47,48,48,47,47,
0,0,0,0,0,0,0,0,0,0,0,0,0,0,0,0,0,47,47,47,48,47,48,48,48,48,48,48,47,48,48,47,47,48,48,47,48,48,48,47,47,47,47,47,47,48,47,48,47,48,47,48,47,48,48,47,47,48,48,47,48,48,47,47,48,47,47,48,48,48,48,47,48,48,47,48,48,47,47,48,48,48,48,48,48,47,47,47,48,47,48,47,47,48,48,48,47,48,47,47,47,47,47,48,47,47,47,48,48,47,47,48,48,48,47,47,0,0,0,0,48,47,48,48,48,48,48,48,48,48,48,47,48,47,48,47,47,48,48,48,47,47,47,48,47,47,48,48,48,48,48,48,47,48,48,48,47,47,47,47,48,47,48,47,0,0,0,0,48,47,47,48,47,48,47,47,48,48,48,48,0,0,48,48,47,47,48,47,48,48,47,48,47,47,0,0,0,0,0,0,0,0,0,0,0,0,0,0,0,0,0,0,0,0,0,0,0,0,0,0,48,48,48,48,47,47,48,48,47,47,48,48,47,47,48,48,48,47,47,47,48,48,48,47,47,48,0,0,0,0,47,48,47,48,48,47,47,47,48,48,48,48,48,47,48,47,48,47,48,48,48,47,48,48,47,48,48,48,47,48,48,47,47,47,47,48,48,48,0,0,0,0,48,48,47,48,48,47,47,48,47,47,47,47,101,103,0,0,0,0,0,0,0,0,0,0,101,103,47,47,47,47,48,47,47,47,48,48,48,48,48,47,48,48,101,103,0,0,0,0,0,0,101,103,0,0,0,0,0,0,0,0,48,47,47,47,48,47,47,48,48,47,47,47,47,48,48,47,47,48,47,47,
0,0,0,0,0,0,0,0,0,0,0,0,0,0,0,0,0,0,47,48,47,48,47,48,47,48,48,47,48,48,48,47,47,48,47,47,47,47,48,47,48,47,48,47,48,47,48,48,47,47,48,48,47,48,47,47,47,47,48,48,47,47,47,48,48,47,47,47,48,47,48,48,48,48,48,47,47,48,48,47,48,47,47,48,48,47,48,48,47,47,48,47,48,48,47,47,47,47,48,47,47,48,48,47,47,48,48,47,48,47,48,47,47,48,48,48,0,0,0,0,47,48,48,48,48,48,48,47,48,48,47,48,47,47,47,47,47,47,48,47,47,47,47,47,48,47,47,48,47,47,47,48,48,47,47,48,47,48,47,48,48,48,48,47,0,0,0,0,47,47,47,47,47,47,48,48,48,48,47,48,0,0,48,47,48,47,47,48,47,47,48,47,48,47,0,0,0,0,0,0,0,0,0,0,0,0,0,0,0,0,0,0,0,0,0,0,0,0,0,0,48,47,47,48,48,48,48,48,47,48,47,48,48,47,47,48,47,47,47,47,47,47,48,48,48,48,0,0,0,0,47,48,47,48,47,48,48,47,47,48,47,47,47,47,47,48,48,47,47,47,47,47,48,48,48,48,47,47,47,48,47,48,47,47,47,47,47,48,0,0,0,0,47,48,48,48,48,47,48,48,48,47,48,48,0,0,0,0,0,0,0,0,0,0,0,0,0,0,47,48,48,47,47,47,48,47,47,47,47,47,48,47,47,47,0,0,0,0,0,0,0,0,0,0,0,0,0,0,0,0,0,0,48,47,47,48,47,47,47,48,48,48,47,48,48,48,47,48,48,47,47,48,
0,0,0,0,0,0,0,0,0,0,0,0,0,0,0,0,0,0,0,47,47,47,48,47,47,47,48,48,47,47,47,47,47,47,48,47,48,47,48,48,47,48,48,47,48,48,48,48,47,48,47,47,48,48,47,48,48,48,47,48,47,48,47,48,48,48,47,48,47,47,47,48,48,48,48,48,47,47,48,48,47,47,47,48,48,48,47,48,47,48,47,48,48,47,47,48,47,47,47,47,47,47,48,47,47,47,47,48,48,47,48,48,47,47,47,47,0,0,0,0,47,47,47,48,48,47,48,47,48,47,48,48,47,48,47,47,48,48,47,47,47,48,47,47,47,48,47,47,48,48,47,47,47,48,48,48,47,48,47,47,48,48,47,48,0,0,0,0,48,47,48,47,47,47,47,47,47,47,48,47,0,0,47,47,48,47,48,47,48,47,48,48,48,48,0,0,0,0,101,103,0,0,0,0,0,0,101,103,0,0,0,0,0,0,101,103,0,0,0,0,48,48,48,48,47,47,47,48,48,48,48,48,48,48,48,48,48,48,47,47,48,47,48,48,47,48,0,0,0,0,48,47,48,47,47,47,47,47,48,48,47,48,47,48,47,48,47,47,47,47,47,47,47,47,47,47,47,48,47,47,47,48,47,47,47,48,47,47,0,0,0,0,47,47,47,47,47,47,47,47,48,47,47,47,0,0,0,0,0,0,101,103,0,0,0,0,0,0,0,0,0,0,0,0,0,0,0,0,0,0,0,0,0,0,0,0,0,0,0,0,0,0,0,0,0,0,0,0,0,0,101,103,47,48,48,47,48,48,47,47,47,47,48,47,48,47,47,48,47,47,47,48,
0,0,0,0,0,0,0,0,0,0,0,0,0,0,0,0,0,0,0,0,47,47,48,48,48,47,48,47,48,47,47,48,48,47,48,48,48,47,48,48,47,48,47,47,47,47,48,48,47,47,47,48,48,47,48,47,47,47,47,47,47,48,47,48,48,48,47,47,47,48,48,48,47,47,48,48,48,48,47,48,48,48,47,48,47,47,48,47,47,48,48,48,47,47,48,48,47,48,47,48,47,48,48,47,48,47,47,48,47,47,48,48,47,48,48,47,0,0,0,0,47,47,47,48,48,47,47,47,47,47,47,48,47,47,47,47,47,48,47,47,47,47,47,48,48,47,48,47,47,47,47,48,48,48,47,48,47,47,47,47,47,48,48,48,0,0,0,0,48,48,48,47,48,48,47,48,47,48,48,48,0,0,47,47,48,47,48,47,48,47,47,47,47,47,0,0,0,0,0,0,0,0,0,0,0,0,0,0,0,0,0,0,0,0,0,0,0,0,0,0,47,48,48,48,48,48,47,47,48,48,48,48,48,47,47,48,48,48,47,48,47,47,47,47,48,47,0,0,0,0,48,47,48,48,48,48,47,47,47,48,47,47,47,48,48,47,47,47,48,48,48,47,48,47,48,48,47,48,47,47,47,48,48,48,48,47,47,48,0,0,0,0,48,47,48,48,47,48,47,47,47,48,47,47,0,0,0,0,0,0,0,0,0,0,0,0,0,0,0,0,0,0,0,0,0,0,0,0,0,0,0,0,0,0,0,0,0,0,0,0,0,0,0,0,0,0,0,0,0,0,0,0,48,47,48,48,47,48,48,48,48,48,48,47,47,48,48,47,47,48,48,47,
0,0,0,0,0,0,0,0,0,0,0,0,0,0,0,0,0,0,0,0,0,0,48,47,47,48,47,48,48,47,47,47,47,48,47,48,47,48,47,47,47,48,48,47,48,47,47,47,47,47,48,48,47,48,47,48,48,47,47,47,47,47,48,48,47,47,47,48,47,47,47,48,47,47,47,48,48,47,48,48,48,48,47,48,47,48,47,47,48,47,47,47,48,47,48,47,48,48,48,48,47,47,48,48,47,48,47,48,48,48,48,47,48,47,48,47,0,0,0,0,48,47,47,48,47,48,48,47,48,47,48,48,47,48,47,48,47,48,47,48,48,48,47,47,47,48,48,48,47,48,47,47,48,47,47,47,47,48,47,48,48,48,47,47,0,0,0,0,47,47,48,48,47,48,47,48,48,48,47,47,0,0,47,47,47,48,47,48,48,48,47,47,47,47,101,103,0,0,0,0,0,0,0,0,0,0,0,0,0,0,0,0,0,0,0,0,0,0,101,103,48,47,47,47,48,48,48,48,47,47,48,48,48,48,47,48,48,47,47,47,48,48,48,48,48,48,0,0,0,0,47,48,48,47,48,48,47,48,48,47,47,47,48,47,48,47,48,48,48,47,47,48,47,47,48,47,47,48,47,48,47,47,48,47,48,47,47,48,0,0,0,0,48,47,47,47,48,47,48,47,48,47,47,47,0,0,101,103,0,0,0,0,0,0,101,103,0,0,48,47,47,47,47,47,48,47,48,47,47,47,47,48,48,47,0,0,101,103,0,0,0,0,0,0,0,0,101,103,0,0,0,0,47,48,47,48,48,48,48,48,48,48,48,47,48,47,47,48,48,47,48,47,
0,0,0,0,0,0,0,0,0,0,0,0,0,0,0,0,0,0,0,0,0,0,0,0,47,47,48,48,48,47,48,47,47,47,47,47,47,47,48,47,47,47,48,47,48,48,48,47,48,47,48,48,48,48,48,47,48,48,48,48,48,48,47,48,47,47,48,47,48,47,47,47,47,48,48,47,48,47,48,47,47,48,48,48,47,47,47,48,48,47,47,48,47,47,47,48,47,47,48,48,47,47,48,47,47,48,48,48,47,47,48,48,47,48,47,47,0,0,0,0,47,47,47,47,47,48,47,47,47,47,47,47,47,47,47,48,47,47,47,47,48,47,47,47,48,48,47,48,48,48,47,48,48,48,47,48,48,48,47,47,48,47,47,48,0,0,0,0,48,48,47,48,47,47,47,48,48,47,47,47,0,0,47,48,47,48,48,47,48,48,48,48,48,47,0,0,0,0,0,0,0,0,0,0,0,0,0,0,0,0,0,0,0,0,0,0,0,0,0,0,47,48,47,47,47,47,48,48,48,48,48,47,47,48,48,48,48,48,48,48,47,48,47,47,47,47,0,0,0,0,48,47,47,48,48,47,47,47,47,48,48,48,48,48,47,48,48,47,47,47,47,48,47,48,47,47,48,48,48,48,48,48,47,48,48,47,48,48,0,0,0,0,47,47,47,48,47,47,47,48,48,47,47,48,0,0,0,0,0,0,0,0,0,0,0,0,0,0,47,48,47,48,48,47,48,48,47,48,48,48,47,48,47,47,0,0,0,0,0,0,0,0,0,0,0,0,0,0,0,0,0,0,48,48,47,48,47,47,48,47,48,48,47,47,48,48,48,48,48,48,47,48,
0,0,0,0,0,0,0,0,0,0,0,0,0,0,0,0,0,0,0,0,0,0,0,0,0,0,47,48,47,48,47,48,47,48,47,48,47,47,47,48,47,47,48,48,47,48,48,48,47,47,47,48,47,47,48,48,48,48,48,48,47,47,47,48,48,47,48,48,48,47,47,47,48,47,48,47,47,48,48,47,47,48,48,48,48,47,47,48,48,47,48,47,48,47,47,48,47,47,47,48,47,48,48,47,48,47,48,48,48,48,47,48,47,47,47,47,0,0,0,0,47,47,47,47,47,48,48,47,47,47,47,48,48,47,48,48,48,47,47,48,47,47,48,48,48,47,48,48,48,48,47,47,47,47,47,47,48,48,48,48,47,48,48,48,0,0,0,0,48,47,48,47,48,48,48,48,47,48,48,48,0,0,0,0,0,0,0,0,0,0,0,0,0,0,0,0,0,0,0,0,0,0,101,103,0,0,0,0,0,0,101,103,0,0,0,0,0,0,0,0,48,48,47,47,47,47,48,48,48,48,48,48,48,47,48,47,47,48,47,48,48,48,47,48,48,47,0,0,0,0,47,47,48,47,48,47,48,47,47,48,48,47,47,47,47,47,47,47,48,48,47,47,47,47,47,48,48,48,48,47,48,48,48,47,48,47,47,48,0,0,0,0,48,48,48,48,47,48,47,48,47,47,48,48,47,47,48,48,48,47,48,48,47,48,47,47,47,48,47,48,48,48,47,47,47,48,47,48,48,48,47,47,47,48,48,47,47,47,48,47,48,47,48,48,48,47,48,47,48,47,47,47,48,47,48,48,47,48,47,47,47,47,47,48,48,48,48,48,47,47,47,47,
0,0,0,0,0,0,0,0,0,0,0,0,0,0,0,0,0,0,0,0,0,0,0,0,0,0,0,0,47,47,47,48,47,48,47,47,48,47,48,48,48,48,48,48,48,48,48,48,47,47,47,48,48,48,47,47,47,48,48,47,48,47,48,47,48,47,47,47,47,48,48,48,48,47,48,48,48,47,48,48,47,48,48,47,47,48,48,48,47,48,48,47,48,48,47,48,47,47,47,47,48,48,47,48,47,48,47,48,48,47,47,48,47,48,48,48,0,0,0,0,48,47,48,48,48,48,47,47,47,47,48,48,47,47,47,48,47,48,48,48,47,48,47,47,47,47,48,48,47,47,47,47,47,47,47,47,47,47,48,48,47,47,48,48,0,0,0,0,48,47,47,48,48,48,47,48,48,48,48,47,0,0,0,0,0,0,0,0,0,0,0,0,0,0,0,0,0,0,0,0,0,0,0,0,0,0,0,0,0,0,0,0,0,0,0,0,0,0,0,0,48,48,48,48,48,48,47,47,47,47,48,48,47,48,48,48,47,48,47,48,48,47,47,47,48,47,0,0,0,0,47,48,48,48,48,47,48,47,47,48,48,47,48,47,48,47,47,48,48,47,47,48,47,48,47,48,47,47,47,48,47,48,47,47,47,47,48,48,0,0,0,0,48,48,47,47,47,48,48,47,47,47,48,47,47,47,48,48,47,47,48,47,48,48,48,48,48,48,47,48,47,48,47,48,48,47,47,47,47,47,47,48,47,48,48,48,47,48,48,48,48,47,48,47,47,48,47,48,47,48,47,47,47,48,48,48,47,48,47,48,48,48,48,47,47,47,48,47,48,47,47,47,
47,47,48,48,48,47,47,48,48,48,47,47,48,48,47,47,47,47,0,0,0,0,0,0,0,0,0,0,0,0,47,47,48,47,47,48,48,47,48,47,47,48,47,47,47,47,48,47,48,47,48,48,47,47,47,48,48,47,48,47,48,47,47,48,48,47,47,47,47,47,48,47,47,47,48,48,48,47,47,48,47,47,48,48,48,48,47,48,48,47,48,47,48,48,47,47,47,48,48,47,48,47,48,48,47,48,47,47,48,47,48,47,47,47,47,48,0,0,0,0,48,48,48,47,47,48,47,48,48,47,48,47,47,47,48,48,47,47,47,48,48,48,47,47,47,47,47,47,47,47,47,47,48,47,47,47,48,47,48,47,47,47,48,47,0,0,0,0,48,48,47,47,47,47,48,48,47,48,48,47,48,47,48,48,48,48,48,48,48,47,48,48,47,48,47,47,48,47,48,47,47,47,48,48,47,48,48,47,48,48,48,47,48,48,48,47,47,48,48,48,47,48,47,47,47,48,48,47,48,47,47,48,47,47,47,47,48,48,48,47,48,48,47,48,47,48,0,0,0,0,47,47,48,47,47,47,47,48,48,48,47,48,48,48,47,48,48,48,47,47,47,47,48,47,48,48,48,48,48,47,47,47,47,47,48,47,48,47,0,0,0,0,47,47,48,48,47,47,48,47,48,47,47,48,47,48,47,47,47,47,47,48,47,47,48,47,47,48,47,47,47,48,47,48,47,48,47,47,47,47,48,48,47,47,47,48,48,47,47,48,48,48,48,48,47,48,48,47,48,48,47,47,48,47,48,48,48,47,48,47,47,47,47,47,48,48,48,48,47,48,47,48,
47,47,48,47,47,48,48,48,47,48,47,48,48,48,48,47,47,47,0,0,0,0,0,0,0,0,0,0,0,0,0,0,47,47,47,48,48,47,48,47,47,47,48,47,48,47,48,48,48,48,47,48,47,48,48,47,47,48,48,48,48,47,48,47,47,48,48,48,48,48,48,48,48,48,48,48,48,48,47,47,47,47,48,47,48,47,47,47,48,47,47,47,47,47,48,48,48,48,48,47,48,47,47,47,47,48,48,48,48,47,48,47,48,47,48,47,0,0,0,0,48,48,47,47,47,48,48,48,47,48,48,47,48,47,48,48,47,47,48,47,47,48,47,48,48,48,48,47,48,48,47,47,48,47,47,48,47,48,48,48,48,47,48,48,0,0,0,0,48,48,48,48,47,48,47,48,48,47,48,47,47,47,48,47,47,47,48,48,47,48,48,47,48,48,47,48,47,47,48,48,48,47,48,48,48,48,48,48,47,47,48,47,48,48,48,47,47,47,47,48,48,48,47,47,48,47,48,48,47,48,47,48,48,48,47,47,47,47,48,47,48,48,47,47,48,48,0,0,0,0,48,48,48,47,47,48,47,48,48,48,48,48,47,48,48,47,48,47,47,48,47,47,48,48,48,48,47,47,48,47,47,47,47,47,47,47,48,48,0,0,0,0,48,47,48,47,47,48,47,48,48,47,48,47,47,47,47,47,47,47,47,48,48,48,48,48,48,47,48,47,47,48,48,48,47,48,47,48,48,48,47,48,47,48,48,48,48,47,47,47,47,48,47,48,47,47,48,47,47,47,48,48,47,48,48,48,47,48,48,47,47,48,48,47,48,47,48,48,48,47,48,47,
48,48,48,47,48,48,47,47,48,48,48,48,47,48,47,47,48,47,47,48,0,0,0,0,0,0,0,0,0,0,0,0,0,0,48,48,48,47,48,48,47,48,47,48,47,47,47,47,47,47,0,0,0,0,0,0,0,0,0,0,0,0,0,0,48,48,47,47,47,48,48,47,48,48,47,48,48,47,47,48,48,48,48,47,48,47,48,47,47,47,48,48,48,47,48,48,48,47,47,47,47,47,48,47,48,48,48,47,48,48,48,48,48,47,47,48,0,0,0,0,47,48,47,47,48,47,48,47,48,47,47,47,47,47,48,47,48,48,47,48,48,47,47,47,48,47,47,48,48,48,48,47,48,48,47,47,47,48,48,48,47,48,48,47,0,0,0,0,47,47,48,48,47,48,47,47,47,48,48,48,48,48,47,48,48,47,47,48,47,47,48,48,48,48,47,47,47,47,48,48,48,47,47,47,47,48,47,47,47,47,48,47,48,47,47,47,47,48,48,48,47,47,48,48,48,48,48,47,47,47,47,48,48,48,48,48,47,48,47,47,0,0,0,0,0,0,0,0,0,0,0,0,0,0,0,0,47,48,48,47,48,48,48,48,47,47,47,48,48,47,48,48,47,47,48,48,48,47,48,48,47,48,47,47,47,48,47,47,0,0,0,0,48,47,48,47,48,48,48,47,48,48,47,48,47,47,48,47,47,47,48,48,47,47,48,47,47,47,47,47,48,48,48,48,47,48,47,48,47,48,47,47,48,47,0,0,0,0,0,0,0,0,0,0,0,0,0,0,0,0,0,0,48,48,47,48,47,47,47,47,48,47,47,47,48,47,48,48,48,48,48,47,
48,48,47,48,47,47,48,48,48,47,48,47,48,47,48,48,47,47,47,47,0,0,0,0,0,0,0,0,0,0,0,0,0,0,0,0,47,48,47,48,48,48,48,47,47,47,48,48,48,47,0,0,0,0,0,0,0,0,0,0,0,0,0,0,47,48,48,47,48,47,48,48,48,47,48,47,48,48,48,47,48,48,48,47,48,47,47,47,48,48,48,48,47,47,48,47,48,47,47,48,47,47,47,48,48,48,47,47,48,47,47,48,48,47,48,47,0,0,0,0,47,48,47,48,48,48,48,47,47,48,47,47,47,47,48,47,47,48,47,47,47,47,48,47,47,47,48,47,47,48,48,47,47,48,48,48,48,48,47,47,48,47,47,47,0,0,0,0,47,48,47,47,47,47,48,47,48,47,48,47,48,48,48,47,48,47,48,48,48,48,48,47,48,48,47,48,47,48,47,47,48,47,48,48,47,48,48,47,48,47,48,48,48,48,47,48,48,48,48,47,48,48,47,48,48,48,48,48,48,47,47,47,48,48,48,48,47,47,48,48,0,0,0,0,0,0,0,0,0,0,0,0,0,0,0,0,47,48,48,47,47,47,48,47,48,47,47,48,47,47,47,47,47,48,48,47,47,48,47,48,48,48,47,47,47,47,48,47,0,0,0,0,47,48,47,47,48,47,47,48,48,48,48,47,47,48,48,47,47,48,48,48,47,47,47,47,48,48,47,48,48,48,47,47,47,48,48,47,47,48,48,47,47,48,0,0,0,0,0,0,0,0,0,0,0,0,0,0,0,0,0,0,48,48,48,47,48,48,48,48,47,47,48,47,47,48,48,48,47,47,47,48,
48,48,48,47,47,47,48,47,48,47,47,48,48,47,48,47,48,47,48,47,0,0,0,0,0,0,0,0,0,0,0,0,0,0,0,0,0,0,48,48,48,48,47,48,47,47,48,47,48,48,0,0,0,0,0,0,0,0,0,0,0,0,0,0,47,47,48,48,48,48,47,48,48,47,47,47,48,48,47,47,48,48,48,47,48,48,47,48,47,48,47,47,48,48,48,48,48,48,48,47,47,47,47,48,47,48,48,47,47,48,48,48,48,47,47,47,0,0,0,0,47,47,48,48,47,47,48,48,48,47,47,47,48,48,48,48,48,48,47,47,47,47,48,47,48,47,47,48,48,47,47,47,48,48,48,48,48,47,48,48,0,0,0,0,0,0,0,0,0,0,0,0,47,47,47,48,47,47,47,48,47,48,47,47,48,48,48,47,47,47,48,47,47,47,47,48,48,48,48,48,48,47,47,48,48,47,47,47,47,47,48,47,47,48,47,47,48,47,48,48,47,48,47,47,48,47,47,47,47,48,47,48,47,48,47,47,47,48,47,47,0,0,0,0,0,0,0,0,0,0,0,0,0,0,0,0,48,48,47,48,47,48,47,48,48,48,47,48,47,48,48,48,47,48,48,47,48,48,47,48,48,47,48,48,0,0,0,0,0,0,0,0,0,0,0,0,48,47,47,48,48,48,48,48,47,47,47,48,47,48,48,47,48,48,47,47,48,47,47,47,47,47,47,48,48,47,48,47,47,48,47,47,48,48,0,0,0,0,0,0,0,0,0,0,0,0,0,0,0,0,0,0,48,47,48,47,47,48,48,48,48,48,47,48,47,47,48,47,48,48,48,47,
48,48,47,48,47,47,47,48,47,47,47,48,47,47,47,48,47,47,47,48,0,0,0,0,0,0,0,0,0,0,0,0,0,0,0,0,0,0,0,0,48,48,47,48,48,47,47,47,47,47,0,0,0,0,0,0,0,0,0,0,0,0,0,0,48,48,48,47,48,47,47,47,47,47,47,48,47,47,47,48,47,47,48,48,47,47,48,48,47,47,48,48,48,48,47,48,47,48,47,48,47,48,47,47,48,47,48,47,48,47,48,47,48,48,48,48,0,0,0,0,48,47,47,47,47,48,47,47,48,47,47,48,47,47,47,47,48,48,47,47,48,48,48,47,48,48,47,47,48,48,47,47,48,48,47,47,48,47,47,48,0,0,0,0,0,0,0,0,0,0,0,0,48,47,48,47,48,48,47,47,47,47,48,47,48,48,47,48,48,47,47,48,47,47,47,48,48,48,47,48,48,48,47,48,48,48,47,47,48,48,48,47,48,48,47,48,47,48,47,47,47,48,48,48,48,48,48,48,48,48,48,47,47,48,47,47,48,47,48,47,0,0,0,0,0,0,0,0,0,0,0,0,0,0,0,0,48,47,47,48,47,47,48,48,47,48,47,47,47,47,48,48,48,48,47,47,48,47,47,48,47,47,47,48,0,0,0,0,0,0,0,0,0,0,0,0,47,48,47,47,48,47,48,48,47,47,47,48,47,47,48,47,48,47,47,48,48,48,47,48,47,47,48,47,48,48,47,47,47,47,47,48,48,47,0,0,0,0,0,0,0,0,0,0,0,0,0,0,0,0,0,0,48,47,47,48,48,47,47,47,48,47,48,47,47,47,48,48,48,48,47,47,
47,48,47,48,47,48,48,47,47,48,47,47,48,48,47,47,48,48,0,0,0,0,0,0,0,0,0,0,0,0,0,0,0,0,0,0,0,0,0,0,0,0,48,48,48,47,47,48,48,47,0,0,101,103,0,0,0,0,0,0,101,103,0,0,48,47,47,47,48,47,48,47,48,48,47,48,47,48,47,48,47,48,47,47,47,47,47,47,47,48,48,47,48,48,47,47,48,48,48,48,47,47,48,47,47,47,47,47,47,48,47,48,48,48,47,47,0,0,0,0,47,48,47,48,47,47,47,47,48,47,48,48,48,48,48,47,47,47,47,48,48,47,48,47,47,47,47,48,48,47,48,48,48,47,47,47,47,48,48,47,0,0,0,0,0,0,0,0,0,0,0,0,48,48,48,47,47,48,48,48,48,48,47,48,48,48,48,48,47,48,47,48,47,48,48,47,48,48,47,47,47,47,47,47,48,47,47,47,48,48,48,48,47,47,48,47,47,47,48,48,48,47,47,47,47,47,47,47,47,47,47,47,47,48,48,47,48,48,48,48,101,103,0,0,0,0,0,0,0,0,0,0,0,0,101,103,47,48,47,48,48,48,47,47,47,48,48,48,48,48,48,48,48,47,47,48,47,47,48,47,48,47,47,47,0,0,0,0,0,0,0,0,0,0,0,0,48,47,48,47,47,48,47,47,48,48,48,47,48,48,48,47,48,48,47,48,47,48,48,48,48,47,47,48,47,47,48,48,48,48,48,47,47,48,101,103,0,0,0,0,0,0,101,103,0,0,0,0,0,0,101,103,48,48,47,48,47,47,47,47,48,47,47,48,48,48,47,48,47,48,47,48,
47,48,48,48,47,47,47,48,47,48,48,48,47,47,47,47,48,47,0,0,0,0,0,0,0,0,0,0,0,0,0,0,0,0,0,0,0,0,0,0,0,0,0,0,47,47,48,47,47,48,0,0,0,0,0,0,0,0,0,0,0,0,0,0,48,47,47,48,48,48,48,47,47,48,47,48,47,48,47,47,47,47,47,48,48,48,48,48,47,47,48,48,47,48,48,47,47,47,48,48,48,48,48,47,48,48,47,47,48,48,48,47,47,47,48,48,0,0,0,0,47,48,48,48,47,47,48,47,47,47,47,48,48,47,48,48,47,48,48,47,48,48,47,48,48,47,48,48,48,47,47,48,48,48,48,48,47,48,48,48,0,0,0,0,0,0,0,0,0,0,0,0,48,47,48,47,48,48,48,47,47,48,47,48,47,47,47,48,47,48,48,47,48,47,48,48,48,48,47,47,47,48,48,47,48,48,48,47,48,47,47,48,48,47,47,48,47,48,47,48,48,47,47,48,48,47,48,47,47,47,48,47,47,47,48,48,48,47,47,48,0,0,0,0,0,0,0,0,0,0,0,0,0,0,0,0,48,47,48,47,48,48,47,47,48,47,48,47,47,47,48,48,48,48,47,47,48,48,47,47,47,47,47,48,0,0,0,0,0,0,0,0,0,0,0,0,48,47,48,48,47,48,47,48,48,48,47,47,47,47,48,47,48,48,47,48,47,47,47,47,48,48,48,47,48,48,47,47,48,48,48,48,47,47,0,0,0,0,0,0,0,0,0,0,0,0,0,0,0,0,0,0,47,48,48,48,47,48,47,47,47,47,47,48,47,48,48,47,47,48,48,47,
48,47,48,48,47,47,48,48,47,47,47,48,47,48,48,48,47,48,0,0,0,0,0,0,0,0,0,0,0,0,0,0,0,0,0,0,0,0,0,0,0,0,0,0,0,0,0,0,0,0,0,0,0,0,0,0,0,0,0,0,0,0,0,0,0,0,0,0,0,0,0,0,0,0,0,0,0,0,0,0,0,0,0,0,0,0,0,0,0,0,0,0,0,0,0,0,0,0,0,0,0,0,0,0,0,0,0,0,0,0,0,0,0,0,0,0,0,0,0,0,0,0,0,0,0,0,0,0,0,0,0,0,0,0,0,0,0,0,0,0,0,0,0,0,0,0,0,0,0,0,0,0,0,0,0,0,0,0,0,0,0,0,0,0,0,0,0,0,0,0,0,0,0,0,0,0,0,0,0,0,0,0,0,0,0,0,0,0,0,0,0,0,0,0,0,0,0,0,0,0,0,0,0,0,0,0,0,0,0,0,0,0,0,0,0,0,0,0,0,0,0,0,0,0,0,0,0,0,0,0,0,0,0,0,0,0,0,0,0,0,0,0,0,0,101,103,0,0,0,0,101,103,0,0,0,0,0,0,0,0,0,0,0,0,0,0,0,0,0,0,0,0,0,0,0,0,0,0,0,0,0,0,0,0,0,0,0,0,0,0,0,0,0,0,0,0,0,0,0,0,0,0,0,0,0,0,0,0,0,0,0,0,0,0,0,0,0,0,0,0,0,0,0,0,0,0,0,0,0,0,0,0,0,0,0,0,0,0,101,103,0,0,0,0,0,0,101,103,0,0,0,0,48,48,48,47,48,48,48,47,48,48,48,47,47,47,48,47,48,47,48,47,
47,47,47,47,47,47,48,48,48,47,48,48,48,48,47,48,47,48,0,0,0,0,0,0,0,0,0,0,0,0,0,0,0,0,0,0,0,0,0,0,0,0,0,0,0,0,0,0,0,0,0,0,0,0,0,0,0,0,0,0,0,0,0,0,0,0,0,0,0,0,0,0,0,0,0,0,0,0,0,0,0,0,0,0,0,0,0,0,0,0,0,0,0,0,0,0,0,0,0,0,0,0,0,0,0,0,0,0,0,0,0,0,0,0,0,0,0,0,0,0,0,0,0,0,0,0,0,0,0,0,0,0,0,0,0,0,0,0,0,0,0,0,0,0,0,0,0,0,0,0,0,0,0,0,0,0,0,0,0,0,0,0,0,0,0,0,0,0,0,0,0,0,0,0,0,0,0,0,0,0,0,0,0,0,0,0,0,0,0,0,0,0,0,0,0,0,0,0,0,0,0,0,0,0,0,0,0,0,0,0,0,0,0,0,0,0,0,0,0,0,0,0,0,0,0,0,0,0,0,0,0,0,0,0,0,0,0,0,0,0,0,0,0,0,0,0,0,0,0,0,0,0,0,0,0,0,0,0,0,0,0,0,0,0,0,0,0,0,0,0,0,0,0,0,0,0,0,0,0,0,0,0,0,0,0,0,0,0,0,0,0,0,0,0,0,0,0,0,0,0,0,0,0,0,0,0,0,0,0,0,0,0,0,0,0,0,0,0,0,0,0,0,0,0,0,0,0,0,0,0,0,0,0,0,0,0,0,0,0,0,0,0,0,0,0,0,0,0,0,0,0,0,48,47,48,47,47,48,48,47,47,47,47,47,48,48,47,47,48,48,48,47,
48,48,48,47,47,48,48,47,48,47,47,47,48,48,48,48,48,48,0,0,0,0,0,0,0,0,0,0,0,0,0,0,0,0,0,0,0,0,0,0,0,0,0,0,0,0,0,0,0,0,0,0,0,0,0,0,101,103,0,0,0,0,0,0,0,0,0,0,0,0,0,0,0,0,0,0,0,0,0,0,0,0,0,0,0,0,0,0,0,0,0,0,0,0,0,0,0,0,0,0,0,0,0,0,0,0,0,0,0,0,0,0,0,0,0,0,0,0,0,0,0,0,0,0,0,0,0,0,0,0,0,0,0,0,0,0,0,0,0,0,0,0,0,0,0,0,0,0,0,0,0,0,0,0,0,0,0,0,0,0,0,0,0,0,0,0,0,0,0,0,0,0,0,0,0,0,0,0,0,0,0,0,0,0,0,0,0,0,0,0,0,0,0,0,0,0,0,0,0,0,0,0,0,0,0,0,0,0,0,0,0,0,0,0,0,0,0,0,0,0,0,0,0,0,0,0,0,0,0,0,0,0,0,0,0,0,0,0,0,0,0,0,0,0,0,0,0,0,0,0,0,0,0,0,0,0,0,0,0,0,0,0,0,0,0,0,0,0,0,0,0,0,0,0,0,0,0,0,0,0,0,0,0,0,0,0,0,0,0,0,0,0,0,0,0,0,0,0,0,0,0,0,0,0,0,0,0,0,0,0,0,0,0,0,0,0,0,0,0,0,0,0,0,0,0,0,0,0,0,0,0,0,0,0,0,0,0,0,0,0,0,0,101,103,0,0,0,0,0,0,0,0,47,48,48,48,48,48,47,48,48,48,48,48,48,48,47,48,47,48,47,47,
48,47,48,47,48,47,48,48,47,47,47,48,47,47,48,47,47,47,0,0,0,0,0,0,0,0,0,0,0,0,0,0,0,0,0,0,0,0,0,0,0,0,0,0,0,0,0,0,0,0,0,0,0,0,0,0,0,0,0,0,0,0,0,0,0,0,0,0,0,0,0,0,0,0,0,0,0,0,0,0,0,0,0,0,0,0,0,0,0,0,0,0,0,0,0,0,0,0,0,0,0,0,0,0,0,0,0,0,0,0,0,0,0,0,0,0,0,0,0,0,0,0,0,0,0,0,0,0,0,0,0,0,0,0,0,0,0,0,0,0,0,0,0,0,0,0,0,0,0,0,0,0,0,0,0,0,0,0,0,0,0,0,0,0,0,0,0,0,0,0,0,0,0,0,0,0,0,0,0,0,0,0,0,0,0,0,0,0,0,0,0,0,0,0,0,0,0,0,0,0,0,0,0,0,0,0,0,0,0,0,0,0,0,0,0,0,0,0,0,0,0,0,0,0,0,0,0,0,0,0,0,0,0,0,0,0,0,0,0,0,0,0,0,0,0,0,0,0,0,0,0,0,0,0,0,0,0,0,0,0,0,0,0,0,0,0,0,0,0,0,0,0,0,0,0,0,0,0,0,0,0,0,0,0,0,0,0,0,0,0,0,0,0,0,0,0,0,0,0,0,0,0,0,0,0,0,0,0,0,0,0,0,0,0,0,0,0,0,0,0,0,0,0,0,0,0,0,0,0,0,0,0,0,0,0,0,0,0,0,0,0,0,0,0,0,0,0,0,0,0,0,0,48,47,48,48,47,47,47,48,48,48,47,47,47,48,47,47,47,47,48,48,
48,48,47,48,48,48,48,48,48,48,48,47,48,47,48,47,48,47,47,47,47,47,48,48,47,47,47,48,48,48,48,48,0,0,47,48,48,47,47,47,48,48,48,48,48,48,47,48,48,47,48,47,47,48,47,48,48,47,48,48,47,47,47,47,48,47,48,48,47,47,48,48,48,47,47,47,48,47,48,48,48,48,48,47,48,48,47,47,47,47,47,48,48,47,47,48,47,47,47,48,48,48,48,48,48,48,47,47,47,47,47,48,47,47,47,47,0,0,0,0,47,47,47,48,48,48,48,47,48,47,47,48,48,48,48,47,48,47,48,48,47,47,48,48,48,47,48,48,48,47,47,48,48,48,48,48,48,48,48,48,101,102,102,103,0,0,0,0,101,102,102,103,48,48,48,47,48,48,47,47,48,48,48,48,47,48,48,47,47,47,48,48,48,48,47,47,48,48,47,47,48,47,47,47,47,48,47,48,47,47,47,48,48,47,47,48,48,47,48,48,48,47,48,47,47,47,48,47,48,47,48,47,47,48,47,48,48,48,47,47,47,48,47,48,47,47,47,48,47,48,47,48,47,48,48,48,47,48,47,48,48,48,48,48,47,48,48,47,48,47,48,48,48,48,48,48,48,47,48,47,47,47,47,47,101,102,102,103,0,0,0,0,101,102,102,103,48,48,47,48,48,48,47,47,47,47,48,47,48,48,48,48,48,47,47,47,47,47,47,47,48,48,47,48,47,48,47,48,48,47,47,48,48,47,101,103,0,0,0,0,0,0,0,0,0,0,0,0,0,0,101,103,47,48,47,48,47,48,47,47,47,47,47,48,48,47,48,47,47,47,47,47,
47,48,47,47,47,48,48,47,48,48,48,48,48,47,48,48,48,48,48,48,48,48,47,48,48,48,47,47,48,47,48,47,0,0,47,48,47,48,48,47,48,48,48,47,48,48,48,48,47,48,47,48,48,47,47,47,47,47,47,48,47,48,47,48,47,47,47,47,48,47,47,48,48,48,47,48,47,48,48,48,47,47,48,48,47,47,47,48,47,47,48,48,47,48,48,48,47,48,48,48,48,48,48,47,47,47,47,47,47,48,47,48,48,48,48,48,0,0,0,0,47,47,47,48,47,48,47,48,48,47,47,48,47,48,47,48,47,48,47,48,47,48,47,47,47,47,48,47,48,47,47,47,48,48,47,48,48,48,48,48,0,0,0,0,0,0,0,0,0,0,0,0,48,47,48,47,48,47,48,47,48,48,48,47,48,48,47,47,47,48,47,47,47,47,48,48,47,47,47,48,47,47,48,47,48,47,48,48,47,47,48,48,48,47,47,47,47,48,47,48,48,47,47,48,47,48,48,47,47,47,47,48,48,48,48,47,47,48,48,47,47,48,48,47,48,47,48,48,48,48,47,48,47,48,48,47,47,47,47,48,47,47,47,47,48,47,47,48,48,48,47,47,47,47,47,48,47,48,48,47,48,48,48,47,0,0,0,0,0,0,0,0,0,0,0,0,48,48,47,48,48,48,47,48,48,48,47,48,48,47,47,47,48,48,48,47,48,47,48,48,48,48,48,47,47,47,47,47,48,48,48,47,47,47,0,0,0,0,0,0,0,0,0,0,0,0,0,0,0,0,0,0,47,48,47,47,48,47,48,47,47,47,47,47,48,48,47,48,47,48,47,48,
48,48,47,48,48,48,47,47,47,47,47,47,47,48,48,48,48,47,48,48,48,47,48,47,48,47,48,48,48,48,47,0,0,0,0,48,48,48,47,47,48,48,48,47,48,47,48,47,48,48,48,47,48,47,47,47,47,47,48,48,47,48,48,48,47,47,48,47,48,47,48,47,48,47,48,47,48,47,48,47,47,48,48,48,47,47,47,47,47,48,47,48,48,48,48,48,48,47,48,48,48,47,48,48,47,48,48,48,47,47,48,48,48,48,47,47,0,0,0,0,47,47,48,48,48,48,48,47,47,47,47,47,48,48,47,47,47,47,47,48,47,48,48,47,48,48,47,47,47,47,48,47,48,48,47,47,48,48,47,48,0,0,0,0,0,0,0,0,0,0,0,0,47,47,48,48,47,48,48,47,48,47,47,47,48,48,48,47,47,47,47,47,48,48,48,47,47,47,48,48,48,48,48,47,48,48,48,48,47,47,47,48,47,47,48,47,48,47,47,47,48,48,47,48,48,47,47,47,47,48,48,47,48,48,48,47,47,48,48,48,48,48,47,48,47,47,47,47,47,47,48,48,48,47,48,47,47,48,48,47,48,48,47,48,48,48,48,48,47,48,48,47,48,48,48,47,47,47,48,48,48,47,47,48,0,0,0,0,0,0,0,0,0,0,0,0,48,47,47,48,47,47,48,48,48,48,48,48,48,47,48,47,47,48,48,47,47,47,48,48,48,47,47,48,47,47,47,48,48,47,48,47,48,47,0,0,0,0,0,0,0,0,101,103,0,0,0,0,0,0,0,0,47,47,48,47,47,48,47,47,48,48,47,47,48,48,48,47,48,47,47,47,
47,48,48,47,48,47,47,48,47,48,48,48,48,47,48,47,48,47,47,47,47,47,47,47,47,47,48,48,47,47,48,0,0,0,0,0,48,48,48,48,48,48,48,47,47,47,47,47,48,48,47,47,47,47,48,47,48,47,48,48,48,47,48,47,47,48,47,47,48,47,47,47,47,47,48,48,48,48,48,48,47,48,47,48,47,47,47,48,47,47,47,47,48,47,47,48,48,48,48,47,47,48,48,48,48,47,47,48,48,47,48,47,47,48,48,47,0,0,0,0,47,48,48,47,48,47,47,48,47,48,47,48,47,47,48,48,47,48,47,48,47,48,47,47,47,47,47,48,48,48,48,47,47,47,48,48,48,47,48,47,0,0,0,0,0,0,0,0,0,0,0,0,47,47,48,48,47,47,47,47,48,48,47,47,47,47,47,48,47,48,47,48,48,47,48,47,47,47,47,47,47,48,47,48,47,47,47,48,47,48,48,48,48,47,48,48,47,47,47,47,47,47,48,47,47,48,47,47,48,48,47,48,47,47,47,47,47,47,48,48,47,48,47,47,48,47,47,48,47,47,48,47,47,48,48,48,48,47,48,47,47,47,48,48,48,48,47,47,48,47,48,48,48,48,48,48,47,47,48,47,48,48,48,48,0,0,0,0,0,0,0,0,0,0,0,0,48,48,48,48,47,47,48,47,48,48,48,47,48,47,47,47,47,48,48,48,48,47,47,47,48,48,47,48,47,47,47,48,48,47,48,48,47,47,0,0,0,0,0,0,0,0,0,0,0,0,0,0,0,0,0,0,48,47,48,47,48,47,47,48,48,48,47,48,48,48,47,47,48,47,48,48,
48,48,48,48,48,47,48,48,47,48,47,47,47,47,48,47,47,47,47,47,48,47,48,47,48,48,48,48,48,48,0,0,0,0,0,0,0,0,48,48,47,48,47,47,47,48,48,48,48,47,48,47,47,48,48,47,47,47,47,48,48,48,48,47,47,48,48,47,47,47,48,48,48,47,47,47,48,47,48,47,48,48,48,47,47,48,47,47,48,47,48,47,47,48,48,48,47,47,47,47,47,47,48,47,48,47,48,47,47,47,48,48,48,48,48,47,0,0,0,0,47,47,48,47,48,48,47,47,48,48,48,48,47,48,48,47,48,48,48,48,48,47,48,47,47,47,47,47,48,48,47,48,48,47,48,48,48,48,48,47,47,48,48,47,0,0,0,0,47,48,48,48,48,48,48,48,48,48,48,48,47,47,48,48,47,47,47,47,47,47,47,47,47,47,47,48,48,47,48,48,47,48,48,48,48,48,47,48,48,47,47,48,48,47,47,47,47,48,48,48,48,48,48,48,48,47,47,47,48,47,47,48,47,47,48,47,48,47,48,47,47,47,47,47,47,48,48,47,47,47,47,47,47,48,48,47,47,47,47,47,47,48,48,47,47,48,48,47,48,47,47,48,47,47,48,48,48,47,47,48,48,47,48,47,48,47,47,47,0,0,0,0,48,47,47,47,47,47,48,47,47,48,47,47,47,47,47,48,47,48,48,48,47,48,47,48,47,48,48,48,47,48,47,48,47,47,48,47,47,47,47,48,47,48,0,0,0,0,101,103,0,0,0,0,0,0,101,103,0,0,0,0,47,48,48,48,47,47,47,47,48,48,47,47,48,48,48,47,48,47,48,47,
48,48,47,47,48,48,48,47,47,47,48,47,47,48,48,47,47,48,47,48,47,48,48,47,48,48,48,48,48,0,0,0,0,0,0,0,0,0,0,0,47,48,47,48,48,47,47,48,47,48,48,47,47,48,47,48,48,48,47,47,47,48,47,47,48,48,48,48,47,47,48,48,47,47,47,48,47,47,48,47,48,47,47,48,47,48,47,47,47,47,48,47,48,48,47,47,47,47,47,47,47,48,47,48,47,48,47,47,48,47,48,48,48,47,47,47,0,0,0,0,47,48,48,47,47,47,48,47,47,47,48,48,48,48,47,47,48,47,48,47,47,48,47,48,47,48,47,47,47,48,48,48,47,48,48,47,47,47,47,48,48,47,48,48,0,0,0,0,47,48,47,47,48,47,47,48,48,48,47,47,48,48,48,48,48,47,48,47,47,48,48,48,48,47,48,47,48,48,48,48,48,47,48,48,47,48,48,47,47,47,48,47,47,48,48,48,48,48,48,48,48,48,48,48,48,47,48,47,48,47,47,48,47,48,47,47,48,48,48,48,48,48,47,48,48,48,47,47,47,47,48,47,48,48,47,48,47,48,48,47,48,47,48,48,48,47,48,48,47,48,48,47,48,47,48,47,48,48,47,47,47,48,48,47,48,47,47,47,0,0,0,0,48,47,47,47,47,48,48,47,47,47,48,48,47,48,48,47,48,47,48,47,47,48,47,47,48,48,47,48,47,47,48,48,48,47,48,48,47,47,48,48,47,47,0,0,0,0,0,0,0,0,0,0,0,0,0,0,0,0,0,0,48,48,48,48,48,48,48,48,47,48,48,47,47,48,48,48,47,47,47,47,
47,47,47,48,47,47,48,48,47,47,47,48,47,48,48,47,47,48,47,47,47,48,47,48,47,47,47,47,0,0,0,0,0,0,0,0,0,0,0,0,0,0,48,47,48,48,48,48,48,48,47,48,48,48,47,47,47,47,48,48,48,47,47,47,48,48,47,47,48,47,48,47,47,47,48,47,47,47,48,48,48,48,48,47,47,48,47,47,48,48,48,48,48,48,47,48,47,47,47,48,48,48,47,47,47,47,48,48,48,48,48,47,47,47,48,47,0,0,0,0,47,48,47,47,47,48,48,48,48,47,48,47,47,48,48,48,48,48,47,47,48,47,48,47,48,48,47,47,47,47,47,47,48,48,48,48,48,47,47,48,48,48,48,47,0,0,0,0,47,47,47,47,48,47,47,48,48,48,48,48,47,48,47,48,47,48,47,47,47,48,48,48,48,47,48,48,47,47,47,47,0,0,0,0,0,0,0,0,0,0,0,0,0,0,0,0,0,0,47,47,47,48,47,48,47,47,48,47,47,48,47,47,47,48,48,47,47,48,48,48,47,47,47,47,47,48,0,0,0,0,0,0,0,0,0,0,0,0,0,0,47,47,47,47,48,47,47,48,47,47,48,48,47,48,48,48,48,48,47,47,47,48,47,48,47,47,48,48,0,0,0,0,47,47,47,48,48,48,48,48,47,48,47,47,48,47,47,47,48,48,47,48,47,48,48,47,47,47,48,47,48,48,47,48,47,48,48,47,48,48,47,48,48,47,47,47,48,48,48,48,48,48,48,48,48,48,48,48,48,48,47,47,47,48,48,48,48,47,48,47,48,47,47,48,48,48,48,47,48,48,47,47,
47,47,48,47,48,47,47,47,47,47,47,47,48,47,48,47,48,48,47,47,47,47,47,47,48,47,48,0,0,0,0,0,0,0,0,0,0,0,0,0,0,0,0,0,47,48,47,47,47,47,47,47,47,48,48,47,47,48,47,48,47,47,47,48,48,48,47,47,47,47,48,48,48,48,47,47,47,47,47,47,48,47,48,48,47,48,48,47,47,48,47,47,48,48,48,48,47,48,47,48,47,48,47,47,48,47,48,47,47,48,47,47,47,47,47,47,0,0,0,0,48,47,48,47,47,48,47,47,47,48,47,47,47,48,48,48,47,48,47,48,47,47,47,48,48,47,48,48,48,47,48,48,48,48,48,47,48,47,47,47,47,48,47,47,0,0,0,0,47,47,47,47,48,47,47,48,48,48,47,47,47,47,47,48,47,48,47,47,48,47,48,48,47,48,47,48,47,47,47,47,0,0,0,0,0,0,0,0,0,0,0,0,0,0,0,0,0,0,48,47,48,47,47,47,48,48,47,47,48,48,47,47,47,48,48,48,48,48,48,47,48,48,47,48,47,48,0,0,0,0,0,0,0,0,0,0,0,0,0,0,48,48,48,48,47,47,48,47,48,48,47,48,48,48,48,47,47,48,47,47,47,47,47,48,47,48,47,48,0,0,0,0,47,48,48,48,47,47,47,48,47,48,48,47,48,47,48,47,48,47,47,48,47,47,48,47,47,47,47,48,48,48,48,48,47,47,47,47,47,48,47,47,48,47,47,47,47,47,47,47,47,48,48,48,48,48,48,47,47,48,47,47,48,48,48,48,48,47,48,48,47,47,48,47,48,48,48,48,48,48,47,47,
47,47,48,47,47,47,47,47,48,47,47,47,48,47,48,48,48,48,47,47,47,48,48,47,47,0,0,0,0,0,0,0,0,0,0,0,0,0,0,0,0,0,0,0,0,47,48,48,47,48,48,47,47,47,48,47,48,47,48,47,48,48,47,47,47,48,47,47,47,47,47,47,47,47,48,47,48,47,48,47,47,47,47,48,47,47,47,47,47,48,48,47,48,48,47,48,47,48,48,48,47,47,47,48,48,48,47,48,48,48,47,48,47,47,48,48,0,0,0,0,47,47,47,48,47,48,47,48,48,47,47,47,47,47,47,48,47,47,48,47,47,48,48,48,48,47,47,48,48,48,47,47,47,48,47,47,47,48,47,48,48,48,48,48,0,0,0,0,47,48,48,48,48,48,47,48,47,48,48,47,0,0,0,0,0,0,0,0,0,0,0,0,0,0,0,0,0,0,0,0,0,0,0,0,0,0,0,0,0,0,0,0,0,0,0,0,0,0,48,47,47,48,47,47,47,47,47,48,48,48,47,48,48,47,47,48,48,47,48,47,47,47,47,48,48,48,0,0,0,0,0,0,0,0,0,0,0,0,0,0,47,47,47,48,48,47,48,47,48,48,47,48,47,47,47,48,47,47,47,48,47,48,47,47,47,48,47,48,0,0,0,0,48,48,48,48,47,47,48,47,48,47,47,47,48,47,47,48,47,47,47,48,47,47,48,47,48,48,48,47,47,47,48,47,48,48,47,48,48,47,47,47,47,48,48,48,48,48,47,48,48,47,47,47,47,48,47,47,47,48,48,48,47,47,47,48,48,48,47,47,48,47,48,48,47,48,47,47,48,47,47,47,
48,47,47,48,48,47,47,48,47,48,47,48,48,48,47,47,47,48,48,48,47,48,47,0,0,0,0,0,0,0,0,0,0,0,0,0,0,0,0,0,0,0,0,0,0,0,48,47,48,47,48,47,48,48,47,47,48,48,47,48,47,48,48,47,47,48,48,47,47,47,48,48,48,48,47,47,47,48,47,47,47,47,47,47,48,47,47,47,47,47,48,47,48,48,47,47,48,48,47,48,48,47,47,47,47,47,48,47,48,48,48,48,48,47,47,47,0,0,0,0,48,48,47,47,47,48,47,47,47,48,48,47,48,48,48,47,47,47,48,48,47,48,48,48,47,48,48,48,48,48,48,48,48,48,47,48,47,48,47,47,47,48,48,48,0,0,0,0,47,48,47,48,48,48,47,48,48,47,47,48,0,0,0,0,0,0,0,0,0,0,0,0,0,0,0,0,0,0,0,0,0,0,0,0,0,0,0,0,0,0,0,0,0,0,0,0,0,0,47,47,48,47,47,48,48,48,47,48,47,47,48,48,48,47,48,47,47,47,47,47,47,48,48,47,48,48,0,0,0,0,0,0,0,0,0,0,0,0,0,0,47,47,48,48,47,47,48,47,48,48,48,48,48,48,47,47,47,47,47,48,48,47,48,47,47,47,48,47,0,0,0,0,47,47,48,47,47,48,48,47,48,47,48,48,48,48,47,47,48,47,48,48,47,48,48,47,48,48,47,47,47,48,47,47,48,48,47,48,48,47,48,47,48,47,48,47,47,47,48,47,47,48,47,47,48,47,48,47,47,48,47,48,48,47,48,47,47,47,47,48,48,47,48,47,48,48,48,48,48,47,48,47,
0,0,0,0,0,0,0,0,0,0,0,0,0,0,0,0,0,0,0,0,0,0,0,0,0,0,0,0,0,0,0,0,0,0,0,0,0,0,0,0,0,0,0,0,0,0,0,48,48,47,48,47,47,47,47,47,47,47,47,47,48,48,48,47,48,48,47,47,48,48,48,48,48,48,48,48,47,47,48,48,48,47,47,48,48,48,48,47,48,48,47,48,47,47,47,47,47,48,48,48,47,48,48,48,47,47,47,48,48,47,48,47,47,47,48,47,0,0,0,0,48,48,48,48,48,47,47,47,47,47,47,47,47,47,47,47,47,47,48,48,47,48,47,47,48,47,47,47,48,47,47,47,48,48,47,47,47,47,48,48,48,47,47,48,0,0,0,0,47,47,48,47,47,48,47,48,47,47,47,48,0,0,47,47,47,48,48,47,48,48,47,48,48,47,48,48,47,47,47,48,101,103,0,0,0,0,0,0,101,103,0,0,0,0,0,0,101,103,48,47,48,48,47,47,47,48,48,47,48,48,48,47,48,47,47,47,47,47,48,48,47,48,47,48,47,47,101,103,0,0,0,0,0,0,0,0,0,0,101,103,48,48,47,48,47,48,47,47,47,47,48,47,48,48,47,48,48,48,47,47,47,47,47,48,47,47,47,47,0,0,0,0,47,48,48,48,47,48,47,47,48,48,48,47,48,47,48,47,47,48,47,48,48,47,47,48,48,48,48,48,0,0,0,0,0,0,0,0,0,0,0,0,0,0,48,48,47,48,48,48,48,47,48,47,48,48,47,48,48,47,48,48,47,47,48,47,48,47,47,47,48,48,47,47,48,47,48,48,48,48,47,47,
0,0,0,0,0,0,0,0,0,0,0,0,0,0,0,0,0,0,0,0,0,0,0,0,0,0,0,0,0,0,0,0,0,0,0,0,0,0,0,0,0,0,0,0,0,0,0,0,48,48,48,48,48,48,47,47,47,48,47,48,47,48,48,48,47,47,47,47,47,48,47,48,48,48,48,48,47,48,48,48,48,48,47,47,47,48,48,47,47,47,48,48,47,47,47,47,48,47,47,47,47,47,47,47,47,48,47,48,47,47,47,47,47,47,48,47,0,0,0,0,47,48,47,48,47,48,48,48,48,48,47,47,47,47,47,48,48,48,48,47,47,47,48,48,47,47,48,48,48,47,47,48,47,48,47,47,48,48,48,47,48,47,48,48,0,0,0,0,47,48,48,47,47,47,48,48,47,48,48,47,0,0,48,48,48,48,47,47,47,47,48,48,47,47,47,48,48,48,48,48,0,0,0,0,0,0,0,0,0,0,0,0,0,0,0,0,0,0,47,47,47,48,47,47,48,48,47,48,47,47,48,47,48,48,48,47,48,47,47,47,47,47,48,48,47,47,0,0,0,0,0,0,0,0,0,0,0,0,0,0,48,48,48,48,47,47,48,47,48,47,47,48,48,47,48,48,48,47,48,48,47,48,47,48,47,47,48,47,0,0,0,0,48,48,48,47,47,48,47,48,48,47,48,48,48,47,48,47,47,48,48,48,47,48,48,48,48,48,47,48,0,0,0,0,0,0,0,0,0,0,0,0,0,0,48,47,48,47,47,48,47,48,48,47,47,47,48,48,48,47,47,48,47,48,47,48,48,48,47,47,47,48,48,48,47,48,48,48,47,47,48,48,
0,0,0,0,0,0,0,0,0,0,0,0,0,0,0,0,0,0,0,0,0,0,0,0,0,0,0,0,0,0,0,0,0,0,0,0,0,0,0,0,0,0,0,0,0,0,0,0,0,48,48,48,47,47,48,47,48,48,48,48,48,47,47,48,47,47,48,48,47,47,48,48,48,48,47,47,48,47,48,48,48,48,47,47,48,47,47,48,48,47,47,47,47,47,47,47,48,47,48,48,47,47,47,47,47,48,48,48,47,47,48,47,47,48,47,48,0,0,0,0,48,47,47,47,47,47,47,48,47,48,47,48,48,47,48,48,48,47,47,47,47,47,47,48,48,48,47,48,47,47,47,48,48,48,47,47,47,48,47,48,48,47,48,48,0,0,0,0,48,48,48,47,47,48,48,47,47,47,48,48,0,0,48,48,47,47,48,47,48,47,48,48,47,48,47,47,48,47,47,47,0,0,0,0,101,103,0,0,0,0,0,0,101,103,0,0,0,0,0,0,0,0,0,0,0,0,0,0,0,0,0,0,0,0,0,0,0,0,0,0,0,0,0,0,0,0,0,0,0,0,101,103,0,0,101,103,0,0,0,0,0,0,0,0,0,0,0,0,0,0,0,0,0,0,48,48,48,47,48,48,48,48,47,48,47,48,47,47,0,0,0,0,47,48,48,47,47,47,47,48,47,47,48,48,48,48,48,48,48,47,47,47,48,48,47,47,48,47,48,47,0,0,0,0,0,0,0,0,0,0,0,0,0,0,47,47,47,48,48,48,48,48,47,48,48,48,48,47,48,48,47,47,48,48,47,47,48,48,48,48,47,48,47,47,48,47,48,47,47,48,48,48,
0,0,0,0,0,0,0,0,0,0,0,0,0,0,0,0,0,0,0,0,0,0,0,0,0,0,0,0,0,0,0,0,0,0,0,0,0,0,0,0,0,0,0,0,0,0,0,0,0,47,48,47,47,48,47,47,48,47,48,48,47,48,48,48,47,48,47,47,47,47,47,48,47,47,47,47,48,48,47,48,48,48,47,47,47,47,47,47,47,48,48,47,48,47,48,47,47,48,47,48,47,47,48,48,48,48,48,47,48,47,47,48,47,47,47,48,0,0,0,0,47,47,47,48,48,47,48,48,48,48,48,47,47,47,47,48,48,48,47,47,47,47,47,48,47,47,47,48,48,48,48,48,48,47,48,47,47,48,48,48,48,47,47,47,0,0,0,0,47,47,47,48,47,47,47,47,47,48,48,48,0,0,48,47,48,48,47,48,48,48,48,48,48,47,48,47,48,48,48,48,0,0,0,0,0,0,0,0,0,0,0,0,0,0,0,0,0,0,0,0,0,0,0,0,0,0,0,0,0,0,0,0,0,0,0,0,0,0,0,0,0,0,0,0,0,0,0,0,0,0,0,0,0,0,0,0,0,0,0,0,0,0,0,0,0,0,0,0,0,0,0,0,0,0,48,48,48,48,48,48,48,47,47,48,47,48,47,47,0,0,0,0,48,48,47,48,47,48,48,48,48,47,47,48,47,48,47,47,47,48,47,47,47,48,47,48,47,48,48,47,0,0,0,0,0,0,0,0,0,0,0,0,0,0,47,47,48,48,47,48,47,48,47,48,47,47,48,47,48,48,48,47,47,47,47,48,48,48,48,47,48,48,47,47,48,48,48,48,48,47,48,47,
0,0,0,0,0,0,0,0,0,0,0,0,0,0,0,0,0,0,0,0,0,0,0,0,0,0,0,0,0,0,0,0,0,0,0,0,0,0,0,0,0,0,0,0,0,0,0,0,0,0,47,48,48,48,47,47,47,48,47,48,47,47,48,47,48,48,48,47,47,48,48,48,48,47,47,47,47,48,47,48,48,48,48,48,48,48,47,47,48,48,48,48,47,47,48,47,48,47,48,48,48,47,48,48,48,48,47,47,47,47,48,47,47,47,48,47,0,0,0,0,47,48,47,48,47,47,48,48,48,47,47,48,48,47,48,48,48,48,47,48,48,48,47,47,48,47,48,47,48,47,47,48,47,48,48,47,47,48,48,48,48,48,47,48,0,0,0,0,47,48,47,48,48,48,48,47,48,48,48,47,0,0,48,48,48,48,47,47,47,47,47,48,47,47,47,48,48,47,48,47,0,0,0,0,0,0,0,0,101,103,0,0,0,0,0,0,0,0,47,47,47,48,48,47,47,47,48,48,48,48,0,0,48,47,47,47,47,48,48,48,48,48,48,47,48,47,0,0,0,0,0,0,0,0,0,0,0,0,0,0,48,47,47,47,47,48,48,47,47,48,48,47,0,0,48,47,48,48,47,47,48,48,48,48,48,48,48,48,0,0,0,0,48,47,47,48,48,48,48,48,47,47,47,47,48,48,48,47,47,48,47,47,47,47,48,48,47,47,47,48,101,103,0,0,0,0,0,0,0,0,0,0,101,103,47,48,47,48,48,48,48,47,48,47,48,48,0,0,0,0,0,0,0,0,0,0,0,0,0,0,47,48,48,48,47,48,47,47,47,48,48,48,
0,0,0,0,0,0,0,0,0,0,0,0,0,0,0,0,0,0,0,0,0,0,0,0,0,0,0,0,0,0,0,0,0,0,0,0,0,0,0,0,0,0,0,0,0,0,0,0,0,0,48,47,48,48,48,47,47,48,48,47,48,47,48,47,47,47,48,47,47,48,48,48,47,48,48,48,47,48,48,47,48,47,47,48,48,47,47,47,47,47,48,47,48,47,47,47,47,48,48,48,47,48,47,47,48,47,47,47,48,48,48,48,48,47,48,48,0,0,0,0,47,47,48,48,48,47,48,48,48,48,47,48,48,47,47,48,47,48,48,48,47,47,47,48,47,48,47,48,47,48,47,48,47,48,47,48,48,47,47,48,48,48,48,48,0,0,0,0,48,48,47,48,48,48,47,48,48,47,48,47,0,0,48,48,47,47,47,48,48,47,47,48,48,48,48,47,48,47,47,48,0,0,0,0,0,0,0,0,0,0,0,0,0,0,0,0,0,0,47,48,48,47,47,48,47,48,47,48,48,47,0,0,47,47,47,47,48,47,48,47,48,47,48,48,48,48,0,0,0,0,0,0,0,0,0,0,0,0,0,0,48,47,47,47,48,47,47,48,48,47,47,48,0,0,48,47,48,48,48,48,48,47,47,47,47,48,47,48,0,0,0,0,47,47,47,47,47,48,47,47,48,48,48,48,47,47,47,47,48,47,47,47,47,48,47,47,47,47,47,48,0,0,0,0,0,0,0,0,0,0,0,0,0,0,47,48,48,47,47,48,47,48,47,47,47,48,0,0,0,0,0,0,0,0,0,0,0,0,0,0,47,47,48,48,48,48,48,47,48,47,48,47,
0,0,0,0,0,0,0,0,0,0,0,0,0,0,0,0,0,0,0,0,0,0,0,0,0,0,0,0,0,0,0,0,0,0,0,0,0,0,0,0,0,0,0,0,0,0,0,0,0,0,0,47,47,48,48,47,48,48,48,48,47,47,47,48,48,48,47,48,47,47,48,48,47,47,47,47,48,47,47,48,48,47,48,48,48,48,47,47,48,48,48,48,47,48,47,47,48,48,48,48,48,48,48,48,48,47,48,48,48,47,47,47,47,47,48,48,0,0,0,0,48,47,47,48,48,47,47,48,47,48,48,47,47,47,47,47,47,47,47,47,48,47,47,48,48,47,48,48,48,48,47,47,48,48,47,47,48,47,48,47,47,48,47,48,0,0,0,0,48,48,47,48,48,47,48,47,47,47,48,48,0,0,47,48,47,48,48,48,48,47,48,47,48,47,47,48,48,47,47,47,48,47,48,48,47,48,47,48,48,48,47,47,47,48,47,48,47,48,47,47,47,48,47,48,48,48,48,47,47,47,0,0,48,48,47,48,47,47,47,48,48,48,48,47,47,47,48,47,47,47,47,47,47,47,47,48,48,47,47,48,48,48,47,47,47,47,48,48,47,48,48,47,0,0,47,48,47,48,47,48,48,47,48,47,48,48,47,48,0,0,0,0,48,48,48,48,47,47,48,47,48,48,47,48,0,0,0,0,47,48,47,47,48,48,47,48,47,48,48,47,0,0,0,0,0,0,101,103,0,0,0,0,0,0,0,0,0,0,0,0,0,0,0,0,0,0,0,0,0,0,0,0,0,0,0,0,0,0,0,0,48,48,47,48,47,48,47,48,47,47,48,47,
0,0,0,0,0,0,0,0,0,0,0,0,0,0,0,0,0,0,0,0,0,0,0,0,0,0,0,0,0,0,0,0,0,0,0,0,0,0,0,0,0,0,0,0,0,0,0,0,0,0,0,47,47,47,47,48,47,48,48,47,48,48,47,48,48,48,47,48,47,47,47,47,48,47,47,48,47,48,47,47,47,48,48,47,48,48,48,48,47,47,48,47,48,48,47,48,47,47,48,47,48,48,47,47,47,47,47,48,48,48,48,47,48,47,47,48,0,0,0,0,47,48,48,47,47,47,47,47,48,48,47,48,47,47,47,48,47,48,47,48,48,47,48,47,48,47,47,47,47,47,48,48,48,48,47,48,47,47,48,47,48,47,47,48,0,0,0,0,48,48,47,47,48,47,48,48,47,47,48,48,0,0,47,48,47,47,48,47,47,47,48,48,48,48,47,48,47,47,48,48,48,48,47,48,47,47,47,47,47,47,47,48,48,47,48,47,48,47,48,47,47,47,47,47,48,48,48,47,48,48,0,0,48,47,48,48,48,47,48,48,48,47,48,47,47,48,47,48,47,48,48,47,48,47,48,48,48,48,47,48,48,48,47,47,48,48,48,48,48,48,47,47,0,0,47,48,48,48,47,47,47,48,48,48,48,47,47,48,0,0,0,0,48,48,47,47,48,47,47,47,47,48,47,47,0,0,0,0,47,48,48,47,47,47,47,48,47,48,47,48,0,0,0,0,0,0,0,0,0,0,0,0,0,0,0,0,0,0,0,0,0,0,0,0,0,0,0,0,0,0,0,0,0,0,0,0,0,0,0,0,47,47,47,48,47,47,47,48,48,47,48,47,
0,0,0,0,0,0,0,0,0,0,0,0,0,0,0,0,0,0,0,0,0,0,0,0,0,0,0,0,0,0,0,0,0,0,0,0,0,0,0,0,0,0,0,0,0,0,0,0,0,0,0,0,48,47,47,47,47,48,48,47,47,48,47,47,47,48,48,47,48,48,48,47,48,48,48,48,48,48,48,47,0,0,0,0,0,0,0,0,0,0,0,0,0,0,0,0,0,0,0,0,47,48,47,48,47,47,47,47,47,47,48,47,47,47,47,47,0,0,0,0,48,47,48,48,47,48,48,47,48,48,47,48,47,47,47,48,48,48,47,47,47,48,48,48,47,48,48,48,48,47,47,48,47,47,47,47,47,47,47,48,48,47,48,48,0,0,0,0,48,47,48,47,47,47,47,47,48,48,48,48,0,0,47,47,47,48,48,47,47,48,47,48,47,47,48,47,48,48,48,47,48,48,47,47,47,47,48,47,47,48,48,48,48,47,47,48,48,47,47,47,48,48,48,48,48,48,48,47,48,47,0,0,47,47,48,47,48,47,48,48,47,48,47,47,47,48,47,47,48,47,48,47,48,48,47,47,47,47,47,48,47,48,47,48,47,48,47,47,47,48,48,48,0,0,47,47,48,48,48,47,48,47,48,47,47,47,48,48,0,0,0,0,48,47,48,47,48,48,47,48,48,47,47,48,0,0,0,0,0,0,0,0,0,0,0,0,0,0,0,0,0,0,0,0,0,0,0,0,0,0,0,0,0,0,47,48,47,48,47,47,48,47,47,48,47,47,101,103,0,0,0,0,0,0,0,0,0,0,101,103,48,47,47,47,48,48,48,47,47,47,48,48,
0,0,0,0,0,0,0,0,0,0,0,0,0,0,0,0,0,0,0,0,0,0,0,0,0,0,0,0,0,0,0,0,0,0,0,0,0,0,0,0,0,0,0,0,0,0,0,0,0,0,0,0,48,47,48,47,47,47,48,47,47,48,47,47,47,48,47,47,48,47,47,47,47,47,48,48,47,47,48,48,0,0,0,0,0,0,0,0,0,0,0,0,0,0,0,0,0,0,0,0,48,47,47,47,48,48,47,47,48,48,47,48,48,48,48,47,0,0,0,0,47,48,48,47,48,47,47,48,47,47,47,48,47,47,48,47,47,47,47,48,47,48,47,47,47,47,48,48,47,47,48,48,48,47,47,47,47,47,47,47,48,48,47,47,0,0,0,0,47,48,47,47,47,47,47,47,48,48,47,48,0,0,48,47,47,48,47,48,48,47,48,47,47,47,48,48,47,48,47,47,47,47,47,47,47,47,47,47,48,48,48,48,48,47,47,47,47,47,47,48,48,48,47,47,48,48,47,47,48,47,0,0,48,47,47,47,48,47,47,47,48,47,47,47,48,48,48,47,48,48,48,48,47,48,47,48,48,47,47,48,48,47,47,47,48,47,47,47,48,48,48,47,0,0,48,48,48,48,48,48,47,48,47,48,48,48,47,47,0,0,0,0,48,48,47,47,48,47,47,47,47,47,48,47,0,0,0,0,0,0,0,0,0,0,0,0,0,0,0,0,0,0,0,0,0,0,0,0,0,0,0,0,0,0,48,48,48,47,47,47,48,48,48,47,47,47,0,0,0,0,0,0,0,0,0,0,0,0,0,0,48,48,48,48,47,47,47,48,47,47,47,48,
0,0,0,0,0,0,0,0,0,0,0,0,0,0,0,0,0,0,0,0,0,0,0,0,0,0,0,0,0,0,0,0,0,0,0,0,0,0,0,0,0,0,0,0,0,0,0,0,0,0,0,0,0,48,47,47,48,47,47,47,47,47,47,47,47,47,48,48,48,48,47,48,47,48,48,47,48,48,48,48,0,0,48,48,48,47,48,47,101,103,0,0,0,0,0,0,0,0,0,0,47,48,48,48,47,47,47,48,48,48,48,48,47,48,47,48,0,0,0,0,48,47,47,47,47,47,48,47,47,48,48,48,48,48,48,47,48,48,47,48,47,47,47,48,48,47,47,47,48,48,48,47,48,48,48,47,47,47,48,48,47,48,48,48,0,0,0,0,47,47,47,47,47,48,47,48,48,48,48,48,0,0,47,48,48,48,47,48,47,48,47,47,48,47,48,48,47,48,48,48,48,48,47,48,47,47,47,47,47,47,47,48,48,48,48,48,48,48,48,47,48,47,47,47,47,47,48,48,47,47,0,0,48,48,47,47,48,48,47,48,47,47,47,47,47,47,48,48,47,48,48,48,48,47,47,48,48,47,47,47,48,47,48,47,47,48,48,47,47,47,48,47,0,0,47,48,48,48,48,47,48,47,48,48,48,47,47,48,0,0,0,0,48,48,48,47,48,48,48,47,47,48,48,47,47,48,48,47,47,47,48,48,47,47,48,48,48,48,48,47,47,47,47,48,48,48,48,48,48,48,48,48,47,47,48,48,47,47,48,48,47,47,48,47,48,47,0,0,0,0,0,0,101,103,0,0,0,0,0,0,47,47,48,47,48,48,47,47,48,47,48,48,
0,0,0,0,0,0,0,0,0,0,0,0,0,0,0,0,0,0,0,0,0,0,0,0,0,0,0,0,0,0,0,0,0,0,0,0,0,0,0,0,0,0,0,0,0,0,0,0,0,0,0,0,0,48,47,47,48,48,47,47,47,48,48,47,47,48,48,47,48,47,47,48,48,47,48,47,48,48,47,48,0,0,48,47,48,47,48,48,0,0,0,0,0,0,0,0,0,0,0,0,47,48,47,47,47,47,48,47,48,47,47,48,48,48,48,47,0,0,0,0,47,48,48,47,47,47,47,47,48,47,48,48,48,47,47,47,48,47,48,48,47,48,48,48,48,47,48,47,47,48,47,47,48,48,48,48,48,48,48,48,48,48,47,48,0,0,0,0,48,48,47,48,47,47,48,48,47,47,47,47,0,0,47,47,47,47,48,48,47,47,47,48,48,47,48,48,48,48,47,48,47,48,48,48,47,47,48,48,47,47,47,48,48,47,48,47,47,47,48,48,47,47,48,47,47,47,47,48,48,47,0,0,48,48,47,48,48,48,47,47,48,47,48,47,48,48,48,47,47,47,48,48,48,47,47,48,48,48,47,48,48,47,48,48,47,48,48,47,47,47,48,48,0,0,47,47,47,48,48,47,47,47,48,47,47,47,47,48,0,0,0,0,47,47,47,47,48,47,47,47,48,48,48,47,47,47,48,48,48,47,47,47,47,47,48,48,47,47,47,47,48,47,47,47,48,47,47,48,48,48,47,47,48,48,47,48,47,47,48,47,47,47,47,48,47,47,0,0,0,0,0,0,0,0,0,0,0,0,0,0,47,48,48,48,47,48,48,48,48,47,47,48,
0,0,0,0,0,0,0,0,0,0,0,0,0,0,0,0,0,0,0,0,0,0,0,0,0,0,0,0,0,0,0,0,0,0,0,0,0,0,0,0,0,0,0,0,0,0,0,0,0,0,0,0,0,0,47,47,48,47,47,48,47,47,48,48,48,48,48,48,48,47,48,47,48,48,48,48,47,48,48,48,0,0,47,48,47,48,47,47,0,0,0,0,101,103,0,0,0,0,0,0,48,48,47,47,48,48,47,47,47,47,48,47,47,47,47,47,0,0,0,0,48,47,47,48,48,48,48,48,48,47,47,48,47,47,48,48,48,48,47,47,48,47,48,48,47,47,48,48,47,48,48,47,48,47,47,48,47,47,48,48,47,47,48,47,0,0,0,0,48,47,48,47,48,47,48,47,47,47,48,48,0,0,48,48,48,47,47,48,48,47,48,47,48,48,48,48,48,47,48,47,48,47,0,0,0,0,0,0,0,0,0,0,0,0,0,0,0,0,47,48,47,47,47,48,47,48,48,48,47,48,0,0,48,47,47,47,47,48,48,48,47,47,47,47,47,47,47,48,47,47,48,47,48,47,47,47,47,48,47,47,48,48,48,48,47,47,48,47,47,47,47,48,0,0,47,48,47,47,48,47,47,47,48,48,48,47,48,48,0,0,0,0,47,48,47,47,47,48,47,48,48,47,47,47,47,48,48,47,47,47,48,48,47,48,47,48,47,47,48,47,47,47,48,48,47,47,48,47,48,47,48,47,47,48,47,48,47,48,48,47,48,47,47,48,47,48,0,0,0,0,0,0,0,0,0,0,0,0,0,0,48,48,47,48,47,47,47,47,48,47,48,47,
0,0,0,0,0,0,0,0,0,0,0,0,0,0,0,0,0,0,0,0,0,0,0,0,0,0,0,0,0,0,0,0,0,0,0,0,0,0,0,0,0,0,0,0,0,0,0,0,0,0,0,0,0,0,47,47,48,48,47,48,47,48,48,47,48,48,48,48,48,48,47,47,47,48,47,47,48,48,47,47,0,0,47,47,47,48,47,48,0,0,0,0,0,0,0,0,0,0,0,0,48,48,47,47,47,47,48,48,48,48,48,48,47,47,47,48,0,0,0,0,48,48,47,47,47,48,48,47,48,48,48,48,48,47,47,48,47,47,47,48,47,48,47,47,48,47,47,48,47,47,47,48,48,48,48,48,47,47,48,47,47,47,47,48,0,0,0,0,47,48,48,48,48,47,47,48,48,48,47,48,0,0,47,47,48,47,48,47,48,47,48,47,47,47,48,47,48,47,47,47,47,48,0,0,0,0,0,0,0,0,0,0,0,0,0,0,0,0,48,47,47,47,48,47,47,47,47,47,47,47,0,0,47,48,47,47,47,47,48,48,47,47,47,48,48,47,47,47,48,47,48,47,48,48,47,47,48,48,48,47,47,48,47,47,47,47,47,48,47,48,47,48,0,0,48,48,47,47,47,48,48,48,47,48,47,47,47,48,0,0,0,0,47,47,47,47,48,47,48,47,47,48,48,47,47,48,47,48,48,47,47,47,48,47,47,48,48,47,48,47,48,47,47,48,48,47,47,47,48,47,47,47,48,48,48,48,47,47,48,48,47,48,47,47,48,47,0,0,0,0,0,0,0,0,0,0,0,0,0,0,48,48,48,48,48,47,47,48,47,48,48,47,
0,0,0,0,0,0,0,0,0,0,0,0,0,0,0,0,0,0,0,0,0,0,0,0,0,0,0,0,0,0,0,0,0,0,0,0,0,0,0,0,0,0,0,0,0,0,0,0,0,0,0,0,0,0,0,47,48,48,47,48,47,48,48,47,48,47,47,47,48,47,48,47,47,47,47,47,47,48,48,47,0,0,47,48,47,48,48,47,0,0,0,0,0,0,0,0,101,103,0,0,48,48,48,47,47,47,47,48,47,48,48,48,47,47,47,47,0,0,0,0,47,47,47,48,48,48,48,47,48,48,48,48,48,48,48,48,47,47,47,47,47,47,47,47,47,47,48,47,48,48,48,47,48,48,47,47,48,47,47,47,48,48,47,47,0,0,0,0,47,48,47,48,47,47,47,47,47,47,47,47,0,0,48,48,48,47,47,48,48,47,48,48,47,48,48,48,48,48,47,48,48,47,0,0,0,0,0,0,0,0,0,0,0,0,0,0,0,0,0,0,0,0,0,0,0,0,0,0,0,0,0,0,48,47,47,48,48,47,48,47,47,48,47,47,47,47,48,47,0,0,0,0,0,0,0,0,0,0,0,0,0,0,47,48,48,48,48,48,47,48,47,47,0,0,47,47,47,47,48,48,48,48,47,47,48,48,48,47,0,0,0,0,48,48,47,47,48,47,47,47,47,48,48,48,47,48,47,47,48,48,48,47,47,48,48,47,47,47,48,47,48,47,47,47,47,47,47,47,48,48,47,47,47,48,48,48,48,47,47,48,48,47,48,48,47,48,101,103,0,0,0,0,0,0,0,0,0,0,101,103,48,47,47,48,48,48,48,48,47,47,48,48,
0,0,0,0,0,0,0,0,0,0,0,0,0,0,0,0,0,0,0,0,0,0,0,0,0,0,0,0,0,0,0,0,0,0,0,0,0,0,0,0,0,0,0,0,0,0,0,0,0,0,0,0,0,0,0,48,48,48,47,47,48,47,48,48,47,47,47,47,47,48,47,47,47,47,48,48,48,47,48,47,0,0,48,48,47,48,48,47,0,0,0,0,0,0,0,0,0,0,0,0,47,48,47,48,48,48,48,48,47,47,47,48,47,47,47,47,0,0,0,0,48,48,47,47,47,47,48,48,48,48,47,48,47,47,47,47,47,47,47,47,47,47,48,47,47,47,47,48,47,48,47,48,48,47,47,47,48,48,48,48,48,47,47,47,0,0,0,0,47,48,48,47,48,48,48,47,47,48,47,47,0,0,48,48,47,47,47,48,48,47,47,47,47,47,48,48,48,47,47,47,47,48,0,0,0,0,0,0,0,0,0,0,0,0,0,0,0,0,0,0,0,0,0,0,0,0,0,0,0,0,0,0,48,47,48,47,47,48,48,48,48,48,47,48,47,47,47,47,0,0,0,0,0,0,0,0,0,0,0,0,0,0,47,48,48,47,47,47,48,48,48,48,0,0,47,48,48,47,47,48,48,47,47,48,47,47,47,48,0,0,0,0,47,47,47,48,47,48,47,47,48,48,48,48,48,48,48,47,48,48,48,48,48,48,48,47,47,48,48,47,48,48,47,48,48,47,48,47,47,47,48,48,47,47,47,47,48,47,48,48,48,48,47,48,48,47,0,0,0,0,0,0,0,0,0,0,0,0,0,0,47,47,48,47,48,47,47,48,47,47,47,48,
0,0,0,0,0,0,0,0,0,0,0,0,0,0,0,0,0,0,0,0,0,0,0,0,0,0,0,0,0,0,0,0,0,0,0,0,0,0,0,0,0,0,0,0,0,0,0,0,0,0,0,0,0,0,0,0,47,48,48,47,47,47,48,48,48,48,47,47,48,48,48,48,47,48,48,48,48,48,48,48,0,0,48,47,47,47,47,48,101,103,0,0,0,0,0,0,0,0,0,0,47,48,47,47,48,48,48,47,48,48,47,48,48,48,47,47,0,0,0,0,47,48,48,47,47,47,48,48,47,48,48,48,48,47,48,48,47,47,0,0,0,0,0,0,0,0,0,0,0,0,0,0,47,48,47,47,48,48,47,48,48,48,48,48,0,0,0,0,47,47,48,48,47,47,48,48,48,47,48,48,0,0,48,47,48,48,48,47,47,48,48,47,48,47,47,47,48,48,48,48,47,47,0,0,0,0,0,0,0,0,101,103,0,0,0,0,101,103,48,47,48,48,47,47,47,48,48,47,48,48,47,48,47,48,47,47,48,47,48,47,48,47,48,47,48,47,47,48,0,0,0,0,0,0,0,0,0,0,0,0,0,0,48,48,48,48,48,48,48,48,47,47,0,0,47,47,47,48,48,47,47,48,48,48,47,48,48,48,0,0,0,0,47,47,47,48,47,47,48,48,47,47,47,47,48,48,48,48,48,47,47,47,48,48,48,47,47,47,47,48,48,48,48,48,47,47,47,48,48,47,47,48,47,47,47,47,47,47,48,47,48,47,47,48,48,47,0,0,0,0,0,0,0,0,0,0,0,0,0,0,47,48,48,48,47,48,47,47,48,47,48,48,
0,0,0,0,0,0,0,0,0,0,0,0,0,0,0,0,0,0,0,0,0,0,0,0,0,0,0,0,0,0,0,0,0,0,0,0,0,0,0,0,0,0,0,0,0,0,0,0,0,0,0,0,0,0,0,0,47,47,48,47,48,47,47,47,47,47,47,48,47,48,47,48,47,47,47,48,47,47,48,47,0,0,47,48,48,47,47,47,0,0,0,0,0,0,0,0,0,0,0,0,48,48,47,47,48,47,47,48,48,47,47,48,47,47,48,48,0,0,0,0,47,47,47,48,48,47,48,48,48,48,48,48,48,48,47,47,47,47,0,0,0,0,0,0,0,0,0,0,0,0,0,0,48,48,48,48,48,47,47,48,48,48,47,48,0,0,0,0,48,47,48,48,47,48,47,48,48,47,47,48,0,0,48,48,48,47,47,47,48,48,47,48,47,47,47,48,48,48,48,48,48,47,0,0,0,0,0,0,0,0,0,0,0,0,0,0,0,0,48,48,48,48,48,48,48,47,48,48,47,48,48,48,47,48,48,48,47,48,48,48,47,47,48,48,47,48,47,47,0,0,0,0,0,0,0,0,0,0,0,0,0,0,47,47,47,47,47,48,47,47,47,48,0,0,48,47,47,48,47,48,48,48,48,47,48,47,48,47,0,0,0,0,47,48,48,47,47,47,48,48,48,47,48,48,47,48,48,48,47,48,48,47,48,47,48,47,47,48,47,48,47,48,48,48,48,47,47,47,48,48,47,47,48,48,47,48,48,47,48,48,48,47,48,48,48,48,0,0,0,0,0,0,0,0,0,0,0,0,0,0,48,47,48,48,47,47,48,47,48,47,47,47,
0,0,0,0,0,0,0,0,0,0,0,0,0,0,0,0,0,0,0,0,0,0,0,0,0,0,0,0,0,0,0,0,0,0,0,0,0,0,0,0,0,0,0,0,0,0,0,0,0,0,0,0,0,0,0,0,0,47,48,48,47,48,48,48,48,48,47,47,48,47,47,47,47,48,47,47,47,47,48,47,0,0,47,48,48,48,48,48,0,0,0,0,0,0,0,0,0,0,0,0,48,48,47,48,48,47,48,48,47,47,48,47,48,47,47,48,0,0,0,0,47,47,47,48,48,47,47,48,47,48,48,47,48,47,48,47,48,48,0,0,0,0,0,0,0,0,0,0,0,0,0,0,48,48,48,47,47,47,48,47,47,48,47,47,0,0,0,0,48,48,48,47,48,48,48,47,0,0,0,0,0,0,0,0,0,0,0,0,0,0,47,48,48,48,47,47,48,47,48,48,47,47,0,0,101,103,0,0,0,0,0,0,0,0,0,0,0,0,48,48,47,48,48,48,47,47,48,47,47,47,48,48,47,47,48,47,48,47,48,48,48,48,47,47,48,47,48,47,0,0,0,0,101,103,0,0,0,0,0,0,101,103,47,47,48,48,47,48,48,48,48,47,0,0,48,47,47,47,47,47,47,47,48,48,48,47,47,48,0,0,0,0,47,48,48,48,48,48,48,48,47,47,48,48,0,0,0,0,0,0,0,0,0,0,0,0,0,0,47,47,48,48,47,48,48,47,48,48,47,47,48,47,48,48,48,47,48,48,47,47,47,47,48,48,48,47,0,0,0,0,0,0,101,103,0,0,0,0,0,0,47,47,47,47,48,48,47,47,48,48,47,48,
0,0,0,0,0,0,0,0,0,0,0,0,0,0,0,0,0,0,0,0,0,0,0,0,0,0,0,0,0,0,0,0,0,0,0,0,0,0,0,0,0,0,0,0,0,0,0,0,0,0,0,0,0,0,0,0,0,48,48,47,47,48,47,48,47,47,48,47,48,48,47,47,47,47,48,47,47,48,47,47,0,0,48,47,48,47,48,47,0,0,0,0,0,0,0,0,0,0,0,0,48,47,47,48,47,48,48,48,47,47,47,47,47,47,47,47,0,0,0,0,47,48,48,48,48,48,47,47,48,47,47,48,47,48,48,48,47,47,0,0,0,0,0,0,0,0,0,0,0,0,0,0,47,48,47,48,48,47,48,48,47,48,48,47,0,0,0,0,47,48,47,47,47,48,48,48,0,0,0,0,0,0,0,0,0,0,0,0,0,0,48,47,48,47,47,48,47,47,47,48,48,47,0,0,0,0,0,0,0,0,0,0,0,0,0,0,0,0,47,48,48,47,47,47,47,48,47,47,47,47,47,48,47,48,48,47,47,47,47,47,47,48,48,47,48,48,48,47,0,0,0,0,0,0,0,0,0,0,0,0,0,0,47,48,48,48,48,48,48,47,47,47,0,0,47,47,48,48,47,48,47,48,47,48,47,48,47,47,0,0,0,0,48,48,47,48,48,48,47,48,48,47,48,48,0,0,0,0,0,0,0,0,0,0,0,0,0,0,47,47,48,48,47,48,48,47,47,47,48,47,48,48,48,48,48,48,47,47,48,48,48,47,47,47,48,47,0,0,0,0,0,0,0,0,0,0,0,0,0,0,48,48,47,47,47,48,48,48,48,48,48,47,
0,0,0,0,0,0,0,0,0,0,0,0,0,0,0,0,0,0,0,0,0,0,0,0,0,0,0,0,0,0,0,0,0,0,0,0,0,0,0,0,0,0,0,0,0,0,0,0,0,0,0,0,0,0,0,0,0,0,47,47,48,48,47,47,48,48,48,48,47,47,47,47,48,47,48,48,48,48,48,48,0,0,48,48,48,48,47,47,0,0,0,0,101,103,0,0,0,0,0,0,48,48,47,48,48,47,48,47,48,48,47,47,48,48,47,47,0,0,0,0,47,47,47,47,48,48,48,47,48,47,48,48,48,47,47,47,48,48,0,0,0,0,0,0,101,103,0,0,0,0,0,0,0,0,0,0,0,0,0,0,0,0,0,0,0,0,0,0,0,0,0,0,0,0,0,0,0,0,0,0,0,0,0,0,0,0,0,0,0,0,0,0,0,0,0,0,0,0,0,0,0,0,0,0,0,0,0,0,101,103,0,0,0,0,0,0,0,0,48,48,47,47,48,47,47,48,48,48,48,48,48,47,47,47,48,47,48,48,48,48,47,47,48,48,47,47,47,48,101,103,0,0,0,0,0,0,101,103,0,0,0,0,0,0,0,0,0,0,0,0,0,0,0,0,0,0,0,0,0,0,0,0,0,0,0,0,0,0,0,0,0,0,0,0,0,0,0,0,0,0,0,0,0,0,0,0,0,0,0,0,0,0,0,0,0,0,0,0,0,0,0,0,0,0,0,0,0,0,0,0,0,0,0,0,0,0,0,0,0,0,0,0,0,0,0,0,0,0,0,0,0,0,0,0,0,0,0,0,0,0,48,47,47,47,47,48,47,48,48,48,47,48,
0,0,0,0,0,0,0,0,0,0,0,0,0,0,0,0,0,0,0,0,0,0,0,0,0,0,0,0,0,0,0,0,0,0,0,0,0,0,0,0,0,0,0,0,0,0,0,0,0,0,0,0,0,0,0,0,0,0,47,47,48,48,47,48,48,47,47,48,47,48,47,48,47,47,48,48,47,47,47,47,0,0,48,47,47,47,48,48,0,0,0,0,0,0,0,0,0,0,0,0,48,47,48,47,48,47,48,48,47,47,47,47,48,47,47,47,0,0,0,0,47,48,48,48,47,48,47,48,47,47,48,47,47,48,48,47,47,48,0,0,0,0,0,0,0,0,0,0,0,0,0,0,0,0,0,0,0,0,0,0,0,0,0,0,0,0,0,0,0,0,0,0,0,0,0,0,0,0,0,0,0,0,0,0,0,0,0,0,0,0,0,0,0,0,0,0,0,0,0,0,0,0,0,0,0,0,0,0,0,0,0,0,0,0,0,0,0,0,47,47,47,47,48,47,47,48,48,47,47,48,47,48,48,47,47,47,47,47,47,47,47,47,47,47,47,48,48,47,0,0,0,0,0,0,0,0,0,0,0,0,0,0,0,0,0,0,0,0,0,0,0,0,0,0,0,0,0,0,0,0,0,0,0,0,0,0,0,0,0,0,0,0,0,0,0,0,0,0,0,0,0,0,0,0,0,0,0,0,0,0,0,0,0,0,0,0,0,0,0,0,0,0,0,0,0,0,0,0,0,0,0,0,0,0,0,0,0,0,0,0,0,0,0,0,0,0,0,0,0,0,0,0,0,0,0,0,0,0,0,0,48,48,47,47,47,48,47,47,47,47,48,48,
0,0,0,0,0,0,0,0,0,0,0,0,0,0,0,0,0,0,0,0,0,0,0,0,0,0,0,0,0,0,0,0,0,0,0,0,0,0,0,0,0,0,0,0,0,0,0,0,0,0,0,0,0,0,0,0,0,0,0,48,48,48,48,47,48,47,48,47,47,48,47,47,47,48,48,47,48,47,48,47,0,0,0,0,0,0,47,47,0,0,0,0,0,0,0,0,101,103,0,0,47,48,48,47,47,48,47,47,48,48,47,47,48,48,47,47,0,0,0,0,47,48,48,48,47,47,48,48,48,48,47,48,48,48,48,47,47,47,101,103,0,0,0,0,0,0,0,0,0,0,101,103,48,48,48,47,47,47,48,47,48,48,47,47,0,0,0,0,48,48,47,47,48,48,47,47,101,103,0,0,0,0,0,0,0,0,0,0,101,103,47,48,48,48,47,47,47,47,47,48,47,47,101,103,0,0,0,0,0,0,0,0,0,0,101,103,0,0,47,47,48,47,48,48,47,48,48,47,48,47,48,48,47,47,47,48,48,48,47,48,48,48,48,47,47,47,48,48,0,0,0,0,0,0,0,0,0,0,0,0,101,103,48,48,47,47,47,47,47,47,47,47,47,47,47,48,48,47,48,48,48,48,48,48,47,48,48,48,0,0,0,0,47,47,47,48,48,48,48,47,47,48,48,47,101,103,0,0,0,0,0,0,0,0,0,0,101,103,48,48,48,48,47,48,48,47,48,48,47,47,48,47,47,47,48,48,48,47,47,48,48,48,47,48,48,47,101,103,0,0,0,0,0,0,0,0,0,0,101,103,48,47,48,47,48,48,47,48,47,48,47,48,
0,0,0,0,0,0,0,0,0,0,0,0,0,0,0,0,0,0,0,0,0,0,0,0,0,0,0,0,0,0,0,0,0,0,0,0,0,0,0,0,0,0,0,0,0,0,0,0,0,0,0,0,0,0,0,0,0,0,0,0,48,47,48,47,48,47,47,48,48,47,48,47,48,48,48,47,47,48,48,48,0,0,0,0,0,0,48,48,0,0,0,0,0,0,0,0,0,0,0,0,48,47,47,48,47,48,48,48,48,47,47,48,48,47,47,48,0,0,0,0,48,48,48,47,48,48,47,48,48,48,48,47,48,47,47,47,48,47,0,0,0,0,0,0,0,0,0,0,0,0,0,0,48,48,47,47,47,48,47,47,47,47,47,48,0,0,0,0,48,48,47,48,48,47,47,48,0,0,0,0,0,0,0,0,0,0,0,0,0,0,47,48,47,48,47,47,48,47,48,48,47,47,0,0,0,0,0,0,0,0,0,0,0,0,0,0,0,0,48,48,47,48,48,48,47,48,47,48,48,48,47,47,47,47,48,48,47,47,48,48,48,48,47,47,48,47,47,47,0,0,0,0,0,0,0,0,0,0,0,0,0,0,47,47,47,48,48,47,48,47,48,48,47,47,48,48,47,48,48,48,47,47,48,47,47,48,48,48,0,0,0,0,48,48,47,47,48,48,48,48,47,47,47,47,0,0,0,0,0,0,0,0,0,0,0,0,0,0,47,47,47,47,48,47,47,47,48,47,48,48,47,48,47,47,48,48,47,47,48,47,48,47,47,47,48,47,0,0,0,0,0,0,0,0,0,0,0,0,0,0,48,47,48,48,47,48,48,47,47,48,47,48,
0,0,0,0,0,0,0,0,0,0,0,0,0,0,0,0,0,0,0,0,0,0,0,0,0,0,0,0,0,0,0,0,0,0,0,0,0,0,0,0,0,0,0,0,0,0,0,0,0,0,0,0,0,0,0,0,0,0,0,0,0,48,47,48,48,47,47,48,48,48,48,48,47,47,48,48,47,47,48,48,0,0,0,0,0,0,0,0,0,0,0,0,0,0,0,0,0,0,0,0,0,0,0,0,0,0,0,0,0,0,0,0,0,0,0,0,0,0,0,0,0,0,0,0,0,0,0,0,0,0,0,0,0,0,0,0,0,0,0,0,0,0,0,0,0,0,0,0,0,0,0,0,48,48,48,48,47,48,48,48,48,48,48,48,0,0,0,0,47,48,48,47,47,48,48,48,0,0,0,0,0,0,101,103,0,0,0,0,0,0,48,48,47,48,47,47,47,47,48,48,48,47,0,0,0,0,0,0,0,0,0,0,0,0,0,0,0,0,47,48,48,47,47,47,47,47,48,48,48,48,47,48,48,47,48,47,48,48,47,47,47,47,47,48,48,47,47,48,0,0,101,103,0,0,0,0,101,103,0,0,0,0,48,47,48,47,48,47,48,47,47,47,47,47,47,48,48,47,47,47,48,48,48,47,47,48,47,48,0,0,0,0,47,47,47,48,47,48,48,48,47,48,47,48,0,0,0,0,0,0,101,103,0,0,0,0,0,0,47,47,48,48,48,48,47,48,47,48,48,47,47,47,48,47,47,47,47,48,47,48,47,47,47,48,48,47,0,0,0,0,0,0,0,0,0,0,0,0,0,0,47,47,48,48,48,47,48,48,47,47,48,48,
0,0,0,0,0,0,0,0,0,0,0,0,0,0,0,0,0,0,0,0,0,0,0,0,0,0,0,0,0,0,0,0,0,0,0,0,0,0,0,0,0,0,0,0,0,0,0,0,0,0,0,0,0,0,0,0,0,0,0,0,0,0,47,47,48,47,47,48,48,47,47,47,48,48,48,47,47,47,47,47,0,0,0,0,0,0,0,0,0,0,0,0,0,0,0,0,0,0,0,0,0,0,0,0,0,0,0,0,0,0,0,0,0,0,0,0,0,0,0,0,0,0,0,0,0,0,0,0,0,0,0,0,0,0,0,0,0,0,0,0,0,0,0,0,0,0,0,0,0,0,0,0,47,47,48,47,47,48,47,48,47,47,48,47,0,0,0,0,47,47,48,47,47,48,47,47,0,0,0,0,0,0,0,0,0,0,0,0,0,0,48,48,48,47,47,47,48,47,48,48,48,47,0,0,0,0,0,0,0,0,0,0,0,0,0,0,0,0,48,48,47,47,47,48,48,48,47,47,48,47,48,48,48,48,48,47,47,47,48,47,48,47,48,48,47,47,48,47,0,0,0,0,0,0,0,0,0,0,0,0,0,0,48,47,48,48,47,47,48,48,48,48,47,47,47,47,48,47,48,48,47,47,47,48,48,47,47,47,0,0,0,0,47,47,48,47,47,47,48,47,47,47,48,47,0,0,0,0,0,0,0,0,0,0,0,0,0,0,47,48,47,47,48,47,48,47,48,47,48,48,48,47,47,48,48,48,47,48,47,47,47,47,48,47,47,47,0,0,0,0,0,0,0,0,0,0,0,0,0,0,47,48,48,47,48,47,47,47,47,48,48,48,
0,0,0,0,0,0,0,0,0,0,0,0,0,0,0,0,0,0,0,0,0,0,0,0,0,0,0,0,0,0,0,0,0,0,0,0,0,0,0,0,0,0,0,0,0,0,0,0,0,0,0,0,0,0,0,0,0,0,0,0,0,0,0,47,47,47,47,48,47,47,47,47,47,47,48,47,48,48,48,48,48,48,47,48,48,48,47,48,48,47,47,47,47,48,47,47,48,47,48,48,48,47,47,47,48,47,48,48,48,47,47,48,48,48,48,48,47,47,47,47,47,47,48,47,47,47,48,47,47,47,48,47,48,47,48,48,48,48,48,47,47,47,47,48,48,48,47,47,48,48,47,48,48,48,47,47,48,48,48,47,48,47,48,48,0,0,0,0,47,48,48,48,47,48,48,47,0,0,101,103,0,0,0,0,0,0,101,103,0,0,47,47,48,47,48,47,47,48,47,47,47,47,0,0,0,0,101,103,0,0,101,103,0,0,0,0,0,0,0,0,0,0,0,0,0,0,0,0,0,0,0,0,0,0,0,0,0,0,0,0,0,0,0,0,0,0,0,0,0,0,0,0,0,0,0,0,0,0,0,0,0,0,48,48,48,48,48,48,48,47,47,47,48,47,47,47,47,48,47,48,48,48,47,48,47,47,47,48,0,0,0,0,47,48,48,47,47,47,47,47,48,48,48,47,0,0,0,0,0,0,0,0,0,0,0,0,0,0,48,48,48,47,48,48,47,48,47,48,48,48,47,48,48,48,48,47,48,47,48,47,47,48,47,47,47,47,0,0,0,0,0,0,101,103,0,0,0,0,0,0,47,48,47,48,48,47,48,47,47,47,48,47,
0,0,0,0,0,0,0,0,0,0,0,0,0,0,0,0,0,0,0,0,0,0,0,0,0,0,0,0,0,0,0,0,0,0,0,0,0,0,0,0,0,0,0,0,0,0,0,0,0,0,0,0,0,0,0,0,0,0,0,0,0,0,0,0,47,48,48,48,47,48,48,47,48,47,47,47,48,47,48,48,47,47,48,48,47,47,47,47,48,48,47,47,47,47,47,47,48,47,48,48,48,47,48,47,48,47,47,48,47,47,47,48,47,48,48,47,48,47,48,47,47,48,48,48,47,47,48,48,47,47,48,48,47,48,48,47,47,47,48,47,47,47,47,47,47,48,48,48,47,48,47,47,47,47,48,47,47,47,47,48,48,47,47,48,0,0,0,0,48,47,48,48,47,47,47,47,0,0,0,0,0,0,0,0,0,0,0,0,0,0,47,48,47,48,47,47,47,48,48,48,48,47,0,0,0,0,0,0,0,0,0,0,0,0,0,0,0,0,0,0,0,0,0,0,0,0,0,0,0,0,0,0,0,0,0,0,0,0,0,0,0,0,0,0,0,0,0,0,0,0,0,0,0,0,0,0,0,0,0,0,0,0,47,48,48,47,48,48,48,48,48,48,47,48,47,47,48,47,48,47,48,48,48,48,48,48,48,47,0,0,0,0,47,47,47,48,48,47,48,47,47,47,48,47,0,0,0,0,0,0,0,0,0,0,0,0,0,0,48,48,47,48,47,48,48,47,48,47,48,48,47,48,48,47,48,48,48,47,48,48,48,47,47,48,48,48,0,0,0,0,0,0,0,0,0,0,0,0,0,0,48,48,48,47,47,48,48,48,47,47,48,48,
0,0,0,0,0,0,0,0,0,0,0,0,0,0,0,0,0,0,0,0,0,0,0,0,0,0,0,0,0,0,0,0,0,0,0,0,0,0,0,0,0,0,0,0,0,0,0,0,0,0,0,0,0,0,0,0,0,0,0,0,0,0,0,0,0,47,48,48,47,47,47,47,48,48,48,47,47,47,47,48,48,48,47,48,48,48,47,47,47,47,47,48,48,48,48,48,48,48,48,48,47,47,47,47,47,48,48,48,48,47,47,48,48,47,47,47,47,47,48,47,47,48,47,48,47,48,48,48,47,48,47,48,47,48,47,47,47,48,48,47,47,48,47,47,47,47,47,48,48,48,47,48,48,48,47,47,47,48,48,48,48,48,48,47,0,0,0,0,48,47,48,47,47,47,47,47,48,48,47,48,48,48,48,47,47,47,47,48,47,47,47,48,47,48,48,48,47,47,47,47,47,48,0,0,0,0,0,0,0,0,0,0,0,0,0,0,0,0,48,47,48,48,47,48,47,48,47,47,48,47,47,47,47,47,47,48,47,48,47,48,48,48,48,48,47,47,48,48,47,48,48,47,48,48,47,48,48,48,48,47,48,47,47,47,47,48,48,47,48,47,47,47,47,47,48,47,47,48,47,48,47,47,47,47,47,47,48,47,0,0,0,0,47,48,48,48,48,48,48,47,47,47,47,47,47,48,48,48,48,47,48,47,48,48,47,47,48,47,47,47,47,48,47,47,48,48,48,48,47,48,47,48,47,47,48,48,47,48,47,48,47,48,47,47,48,47,0,0,0,0,0,0,0,0,0,0,0,0,0,0,48,48,47,47,48,47,48,48,48,48,47,47,
0,0,0,0,0,0,0,0,0,0,0,0,0,0,0,0,0,0,0,0,0,0,0,0,0,0,0,0,0,0,0,0,0,0,0,0,0,0,0,0,0,0,0,0,0,0,0,0,0,0,0,0,0,0,0,0,0,0,0,0,0,0,0,0,0,0,48,47,47,47,47,48,48,47,48,48,48,47,47,47,48,47,47,47,48,47,48,48,48,47,47,48,47,48,48,47,47,47,48,48,47,47,47,48,47,47,47,48,48,48,47,47,48,47,48,48,48,47,48,47,48,47,48,47,47,48,47,47,48,47,47,48,47,48,47,47,48,47,47,47,48,47,48,47,47,47,48,48,48,48,47,47,48,48,47,48,47,48,47,47,47,48,48,47,0,0,0,0,47,48,48,47,48,48,47,47,47,48,48,48,48,47,48,47,48,48,47,47,47,47,48,48,47,48,47,48,47,47,47,47,48,47,0,0,0,0,0,0,0,0,0,0,0,0,0,0,0,0,48,47,47,47,47,47,48,48,47,47,48,48,47,47,47,48,47,47,48,48,48,47,48,47,47,47,48,47,47,47,48,48,47,48,47,48,48,48,48,47,48,48,48,48,48,47,48,47,47,47,47,47,48,47,47,47,48,47,47,48,47,47,48,48,48,47,47,48,48,48,0,0,0,0,47,47,47,47,48,48,48,47,48,48,47,47,48,47,47,47,47,48,47,47,48,47,48,47,48,47,47,47,47,47,47,48,47,47,48,48,47,47,48,48,47,48,47,48,48,48,48,48,47,47,48,48,48,47,0,0,0,0,0,0,0,0,0,0,0,0,0,0,47,47,48,48,48,47,48,48,48,48,47,47,
0,0,0,0,0,0,0,0,0,0,0,0,0,0,0,0,0,0,0,0,0,0,0,0,0,0,0,0,0,0,0,0,0,0,0,0,0,0,0,0,0,0,0,0,0,0,0,0,0,0,0,0,0,0,0,0,0,0,0,0,0,0,0,0,0,0,0,0,47,48,48,47,48,47,48,47,47,47,48,47,47,47,48,48,48,48,48,48,47,47,47,47,48,47,47,47,48,47,48,47,47,48,47,48,48,48,48,47,47,47,48,48,47,47,48,48,47,47,48,47,47,47,48,48,47,48,48,48,47,47,48,48,47,47,47,48,47,47,48,48,47,47,48,48,48,47,48,48,48,48,48,48,47,47,47,47,48,47,47,47,48,47,48,47,0,0,0,0,48,48,48,47,47,47,47,48,48,48,48,47,47,47,48,47,47,48,48,47,47,47,47,47,47,47,47,47,48,47,48,47,47,48,47,48,47,48,48,48,48,48,47,48,48,47,47,47,48,47,47,48,47,47,47,47,47,47,48,48,47,47,48,47,48,48,48,48,47,47,47,48,48,47,47,48,48,48,47,47,48,47,47,48,47,48,48,48,48,48,48,47,47,47,47,48,47,48,48,48,47,47,48,48,48,47,47,47,47,48,47,47,47,48,48,47,48,48,47,48,0,0,0,0,47,48,47,47,47,47,47,47,48,47,47,48,48,47,48,48,48,47,48,47,48,48,48,47,48,47,48,48,48,47,47,47,48,48,48,47,47,48,47,48,47,47,47,48,48,48,47,48,48,47,47,48,48,47,48,48,48,47,47,47,48,48,48,47,47,48,47,48,47,47,48,48,48,48,47,47,48,48,47,47,
0,0,0,0,0,0,0,0,0,0,0,0,0,0,0,0,0,0,0,0,0,0,0,0,0,0,0,0,0,0,0,0,0,0,0,0,0,0,0,0,0,0,0,0,0,0,0,0,0,0,0,0,0,0,0,0,0,0,0,0,0,0,0,0,0,0,0,0,0,0,47,48,47,48,48,47,48,48,47,48,48,47,47,47,48,47,47,47,48,47,47,48,48,47,48,47,47,48,48,48,47,48,48,47,48,47,48,48,48,47,47,48,47,47,48,47,47,48,48,47,47,48,47,47,47,48,47,47,47,48,47,47,47,47,47,48,48,47,47,48,48,47,48,47,48,48,47,48,47,47,48,48,48,47,47,47,48,48,48,48,48,47,47,48,0,0,0,0,48,47,48,48,48,48,48,47,48,48,48,47,47,47,48,47,48,47,48,48,48,47,47,48,47,47,48,47,47,48,47,47,48,47,47,48,47,47,48,48,47,47,47,47,47,47,47,48,48,47,47,48,47,47,47,48,47,48,47,48,48,47,48,47,47,47,48,48,47,47,48,48,47,48,47,47,47,48,47,47,47,48,47,47,47,48,47,47,48,48,47,48,48,47,47,48,47,48,47,47,48,47,48,47,48,48,47,48,47,48,48,48,47,47,47,47,47,47,47,47,0,0,0,0,48,48,47,48,48,47,47,48,48,48,48,47,48,47,47,48,48,48,48,47,48,48,48,47,48,47,47,47,47,47,47,48,47,47,47,47,48,48,47,48,48,48,48,48,48,48,47,48,48,47,48,47,48,48,48,48,48,47,48,48,48,47,47,47,47,47,48,48,47,47,47,48,48,48,47,48,47,47,47,47,
0,0,0,0,0,0,0,0,0,0,0,0,0,0,0,0,0,0,0,0,0,0,0,0,0,0,0,0,0,0,0,0,0,0,0,0,0,0,0,0,0,0,0,0,0,0,0,0,0,0,0,0,0,0,0,0,0,0,0,0,0,0,0,0,0,0,0,0,0,0,0,0,48,47,48,47,48,47,48,48,47,48,47,48,47,47,47,48,47,47,47,48,48,47,47,48,48,47,48,47,47,48,47,47,48,47,47,47,47,48,47,47,48,48,47,48,48,47,47,47,47,48,48,48,47,48,48,47,47,48,47,48,48,48,48,48,48,48,48,48,48,48,48,47,48,48,47,47,48,47,48,47,47,47,48,47,48,48,48,47,47,47,47,48,0,0,0,0,47,47,48,47,48,47,47,47,47,47,47,47,48,48,47,47,47,48,47,47,48,47,47,48,47,48,48,47,48,47,48,47,47,48,48,48,47,48,47,48,47,48,47,48,48,48,48,47,47,48,48,48,48,48,47,48,48,47,47,47,47,48,47,47,48,47,47,48,47,48,48,48,47,48,48,47,47,47,47,48,48,47,47,48,47,48,48,47,48,48,48,48,48,47,48,47,47,47,47,48,48,47,47,47,47,48,47,48,47,48,47,47,48,48,47,48,47,47,48,47,0,0,0,0,47,47,47,48,47,48,48,48,47,47,48,47,48,48,48,47,47,48,48,48,47,47,48,48,47,48,47,47,47,48,47,47,47,48,47,47,48,47,47,47,48,48,47,47,48,48,48,48,48,48,48,48,48,47,48,48,47,47,47,47,47,48,48,47,47,47,48,47,48,48,47,47,48,47,47,47,48,48,48,48,
0,0,0,0,0,0,0,0,0,0,0,0,0,0,0,0,0,0,0,0,0,0,0,0,0,0,0,0,0,0,0,0,0,0,0,0,0,0,0,0,0,0,0,0,0,0,0,0,0,0,0,0,0,0,0,0,0,0,0,0,0,0,0,0,0,0,0,0,0,0,0,0,0,0,48,47,47,48,48,48,47,48,47,47,47,48,47,48,48,48,47,47,47,48,47,48,47,47,47,47,48,48,48,48,48,48,47,48,48,47,47,48,47,48,47,48,48,48,47,48,47,47,48,47,47,48,48,47,48,48,48,47,47,48,48,48,48,47,47,48,48,48,47,48,47,47,47,47,48,48,47,47,48,47,48,48,47,48,47,48,48,47,47,47,0,0,0,0,47,47,48,47,48,47,47,48,47,48,47,47,48,47,47,48,48,48,47,47,48,48,48,48,47,47,48,48,47,48,47,48,47,47,47,48,48,48,48,47,48,48,47,47,48,48,48,47,47,47,48,47,47,47,48,47,48,47,47,48,47,48,48,48,48,48,47,48,47,47,47,48,48,48,48,47,47,47,48,47,48,47,47,48,47,48,48,47,48,48,47,48,47,47,48,47,47,48,48,48,48,48,47,48,48,47,47,48,47,48,48,47,47,47,47,47,48,48,48,48,0,0,0,0,47,47,47,47,47,48,47,47,47,48,47,47,48,48,48,47,47,48,47,48,47,47,47,47,48,47,48,48,47,47,47,48,48,48,47,47,48,47,47,48,48,47,47,48,47,48,47,48,48,48,48,47,48,47,48,47,48,48,48,48,48,47,48,47,47,48,48,47,47,47,47,48,47,48,48,48,48,47,48,48,
0,0,0,0,0,0,0,0,0,0,0,0,0,0,0,0,0,0,0,0,0,0,0,0,0,0,0,0,0,0,0,0,0,0,0,0,0,0,0,0,0,0,0,0,0,0,0,0,0,0,0,0,0,0,0,0,0,0,0,0,0,0,0,0,0,0,0,0,0,0,0,0,0,0,0,0,0,0,0,0,0,0,0,0,0,0,0,0,0,0,0,0,0,0,0,0,0,0,0,0,0,0,0,0,0,0,0,0,0,0,0,0,0,0,0,0,0,0,0,0,0,0,0,0,0,0,0,0,0,0,0,0,0,0,0,0,0,0,0,0,0,0,0,0,0,0,0,0,0,0,0,0,0,0,0,0,0,0,0,0,0,0,0,0,0,0,0,0,0,0,0,0,0,0,0,0,0,0,0,0,0,0,0,0,0,0,0,0,0,0,0,0,0,0,0,0,0,0,0,0,0,0,0,0,0,0,0,0,0,0,0,0,0,0,0,0,0,0,0,0,0,0,0,0,0,0,0,0,0,0,0,0,0,0,0,0,0,0,0,0,0,0,0,0,0,0,0,0,0,0,0,0,0,0,0,0,0,0,0,0,0,0,0,0,0,0,0,0,0,0,0,0,0,0,0,0,0,0,0,0,0,0,0,0,0,0,0,0,0,0,0,0,0,0,0,0,0,0,0,0,0,0,0,0,0,0,0,0,0,0,0,0,0,0,0,0,0,0,0,0,0,0,0,0,0,0,0,0,0,0,0,0,0,0,0,0,0,0,0,0,0,0,0,0,0,0,0,0,0,0,0,0,0,0,0,0,0,0,0,0,0,0,0,0,0,0,0,0,0,0,0,0,
0,0,0,0,0,0,0,0,0,0,0,0,0,0,0,0,0,0,0,0,0,0,0,0,0,0,0,0,0,0,0,0,0,0,0,0,0,0,0,0,0,0,0,0,0,0,0,0,0,0,0,0,0,0,0,0,0,0,0,0,0,0,0,0,0,0,0,0,0,0,0,0,0,0,0,0,0,0,0,0,0,0,0,0,0,0,0,0,0,0,0,0,0,0,0,0,0,0,0,0,0,0,0,0,0,0,0,0,0,0,0,0,0,0,0,0,0,0,0,0,0,0,0,0,0,0,0,0,0,0,0,0,0,0,0,0,0,0,0,0,0,0,0,0,0,0,0,0,0,0,0,0,0,0,0,0,0,0,0,0,0,0,0,0,0,0,0,0,0,0,0,0,0,0,0,0,0,0,0,0,0,0,0,0,0,0,0,0,0,0,0,0,0,0,0,0,0,0,0,0,0,0,0,0,0,0,0,0,0,0,0,0,0,0,0,0,0,0,0,0,0,0,0,0,0,0,0,0,0,0,0,0,0,0,0,0,0,0,0,0,0,0,0,0,0,0,0,0,0,0,0,0,0,0,0,0,0,0,0,0,0,0,0,0,0,0,0,0,0,0,0,0,0,0,0,0,0,0,0,0,0,0,0,0,0,0,0,0,0,0,0,0,0,0,0,0,0,0,0,0,0,0,0,0,0,0,0,0,0,0,0,0,0,0,0,0,0,0,0,0,0,0,0,0,0,0,0,0,0,0,0,0,0,0,0,0,0,0,0,0,0,0,0,0,0,0,0,0,0,0,0,0,0,0,0,0,0,0,0,0,0,0,0,0,0,0,0,0,0,0,0,0,
0,0,0,0,0,0,0,0,0,0,0,0,0,0,0,0,0,0,0,0,0,0,0,0,0,0,0,0,0,0,0,0,0,0,0,0,0,0,0,0,0,0,0,0,0,0,0,0,0,0,0,0,0,0,0,0,0,0,0,0,0,0,0,0,0,0,0,0,0,0,0,0,0,0,0,0,0,0,0,0,0,0,0,0,0,0,0,0,0,0,0,0,0,0,0,0,0,0,0,0,0,0,0,0,0,0,0,0,0,0,0,0,0,0,0,0,0,0,0,0,0,0,0,0,0,0,0,0,0,0,0,0,0,0,0,0,0,0,0,0,0,0,0,0,0,0,0,0,0,0,0,0,0,0,0,0,0,0,0,0,0,0,0,0,0,0,0,0,0,0,0,0,0,0,0,0,0,0,0,0,0,0,0,0,0,0,0,0,0,0,0,0,0,0,0,0,0,0,0,0,0,0,0,0,0,0,0,0,0,0,0,0,0,0,0,0,0,0,0,0,0,0,0,0,0,0,0,0,0,0,0,0,0,0,0,0,0,0,0,0,0,0,0,0,0,0,0,0,0,0,0,0,0,0,0,0,0,0,0,0,0,0,0,0,0,0,0,0,0,0,0,0,0,0,0,0,0,0,0,0,0,0,0,0,0,0,0,0,0,0,0,0,0,0,0,0,0,0,0,0,0,0,0,0,0,0,0,0,0,0,0,0,0,0,0,0,0,0,0,0,0,0,0,0,0,0,0,0,0,0,0,0,0,0,0,0,0,0,0,0,0,0,0,0,0,0,0,0,0,0,0,0,0,0,0,0,0,0,0,0,0,0,0,0,0,0,0,0,0,0,0,0,
0,0,0,0,0,0,0,0,0,0,0,0,0,0,0,0,0,0,0,0,0,0,0,0,0,0,0,0,0,0,0,0,0,0,0,0,0,0,0,0,0,0,0,0,0,0,0,0,0,0,0,0,0,0,0,0,0,0,0,0,0,0,0,0,0,0,0,0,0,0,0,0,0,0,0,0,0,0,0,0,0,0,0,0,0,0,0,0,0,0,0,0,0,0,0,0,0,0,0,0,0,0,0,0,0,0,0,0,0,0,0,0,0,0,0,0,0,0,0,0,0,0,0,0,0,0,0,0,0,0,0,0,0,0,0,0,0,0,0,0,0,0,0,0,0,0,0,0,0,0,0,0,0,0,0,0,0,0,0,0,0,0,0,0,0,0,0,0,0,0,0,0,0,0,0,0,0,0,0,0,0,0,0,0,0,0,0,0,0,0,0,0,0,0,0,0,0,0,0,0,0,0,0,0,0,0,0,0,0,0,0,0,0,0,0,0,0,0,0,0,0,0,0,0,0,0,0,0,0,0,0,0,0,0,0,0,0,0,0,0,0,0,0,0,0,0,0,0,0,0,0,0,0,0,0,0,0,0,0,0,0,0,0,0,0,0,0,0,0,0,0,0,0,0,0,0,0,0,0,0,0,0,0,0,0,0,0,0,0,0,0,0,0,0,0,0,0,0,0,0,0,0,0,0,0,0,0,0,0,0,0,0,0,0,0,0,0,0,0,0,0,0,0,0,0,0,0,0,0,0,0,0,0,0,0,0,0,0,0,0,0,0,0,0,0,0,0,0,0,0,0,0,0,0,0,0,0,0,0,0,0,0,0,0,0,0,0,0,0,0,0,0,
0,0,0,0,0,0,0,0,0,0,0,0,0,0,0,0,0,0,0,0,0,0,0,0,0,0,0,0,0,0,0,0,0,0,0,0,0,0,0,0,0,0,0,0,0,0,0,0,0,0,0,0,0,0,0,0,0,0,0,0,0,0,0,0,0,0,0,0,0,0,0,0,0,0,0,0,0,0,0,0,0,0,0,0,0,0,0,0,0,0,0,0,0,0,0,0,0,0,0,0,0,0,0,0,0,0,0,0,0,0,0,0,0,0,0,0,0,0,0,0,0,0,0,0,0,0,0,0,0,0,0,0,0,0,0,0,0,0,0,0,0,0,0,0,0,0,0,0,0,0,0,0,0,0,0,0,0,0,0,0,0,0,0,0,0,0,0,0,0,0,0,0,0,0,0,0,0,0,0,0,0,0,0,0,0,0,0,0,0,0,0,0,0,0,0,0,0,0,0,0,0,0,0,0,0,0,0,0,0,0,0,0,0,0,0,0,0,0,0,0,0,0,0,0,0,0,0,0,0,0,0,0,0,0,0,0,0,0,0,0,0,0,0,0,0,0,0,0,0,0,0,0,0,0,0,0,0,0,0,0,0,0,0,0,0,0,0,0,0,0,0,0,0,0,0,0,0,0,0,0,0,0,0,0,0,0,0,0,0,0,0,0,0,0,0,0,0,0,0,0,0,0,0,0,0,0,0,0,0,0,0,0,0,0,0,0,0,0,0,0,0,0,0,0,0,0,0,0,0,0,0,0,0,0,0,0,0,0,0,0,0,0,0,0,0,0,0,0,0,0,0,0,0,0,0,0,0,0,0,0,0,0,0,0,0,0,0,0,0,0,0,0,
0,0,0,0,0,0,0,0,0,0,0,0,0,0,0,0,0,0,0,0,0,0,0,0,0,0,0,0,0,0,0,0,0,0,0,0,0,0,0,0,0,0,0,0,0,0,0,0,0,0,0,0,0,0,0,0,0,0,0,0,0,0,0,0,0,0,0,0,0,0,0,0,0,0,0,0,0,0,0,0,0,0,0,0,0,0,0,0,0,0,0,0,0,0,0,0,0,0,0,0,0,0,0,0,0,0,0,0,0,0,0,0,0,0,0,0,0,0,0,0,0,0,0,0,0,0,0,0,0,0,0,0,0,0,0,0,0,0,0,0,0,0,0,0,0,0,0,0,0,0,0,0,0,0,0,0,0,0,0,47,0,0,0,0,0,0,0,0,0,0,0,0,47,0,0,0,0,0,0,0,0,0,0,0,0,0,0,0,0,0,0,0,0,0,0,0,0,0,0,0,0,0,0,0,0,0,0,0,0,0,0,0,0,0,0,0,0,0,0,0,0,0,0,0,0,0,0,0,0,0,0,0,0,0,0,0,0,0,0,0,0,0,0,0,0,0,0,0,0,0,0,0,0,0,0,0,0,0,0,0,0,0,0,0,0,0,0,0,0,0,0,0,0,0,0,0,0,0,0,0,0,0,0,48,0,0,0,0,0,0,0,0,0,0,0,0,48,0,0,0,0,0,0,0,0,0,0,0,0,0,0,0,0,0,0,0,0,0,0,0,0,0,0,0,0,0,0,0,0,0,0,0,0,0,0,0,0,0,0,0,0,0,0,0,0,0,0,0,0,0,0,0,0,0,0,0,0,0,0,0,0,0,0,0,0,0,0,0,0,0,0,0,
0,0,0,0,0,0,0,0,0,0,0,0,0,0,0,0,0,0,0,0,0,0,0,0,0,0,0,0,0,0,0,0,0,0,0,0,0,0,0,0,0,0,0,0,0,0,0,0,0,0,0,0,0,0,0,0,0,0,0,0,0,0,0,0,0,0,0,0,0,0,0,0,0,0,0,0,0,0,0,0,0,0,0,0,0,0,0,0,0,0,0,0,0,0,0,0,0,0,0,0,0,0,0,0,0,0,0,0,0,0,0,0,0,0,0,0,0,0,0,0,0,0,0,0,0,0,0,0,0,0,0,0,0,0,0,0,0,0,0,0,0,0,0,0,0,0,0,0,0,0,0,0,0,0,0,0,0,0,0,48,48,47,47,48,48,47,48,47,48,47,48,48,48,0,0,0,0,0,0,0,0,0,0,0,0,0,0,0,0,0,0,0,0,0,0,0,0,0,0,0,0,0,0,0,0,0,0,0,0,0,0,0,0,0,0,0,0,0,0,0,0,0,0,0,0,0,0,0,0,0,0,0,0,0,0,0,0,0,0,0,0,0,0,0,0,0,0,0,0,0,0,0,0,0,0,0,0,0,0,0,0,0,0,0,0,0,0,0,0,0,0,0,0,0,0,0,0,0,0,0,0,0,0,47,47,48,47,48,48,48,47,48,48,48,47,48,47,0,0,0,0,0,0,0,0,0,0,0,0,0,0,0,0,0,0,0,0,0,0,0,0,0,0,0,0,0,0,0,0,0,0,0,0,0,0,0,0,0,0,0,0,0,0,0,0,0,0,0,0,0,0,0,0,0,0,0,0,0,0,0,0,0,0,0,0,0,0,0,0,0,0,0,
0,0,0,0,0,0,0,0,0,0,0,0,0,0,0,0,0,0,0,0,0,0,0,0,0,0,0,0,0,0,0,0,0,0,0,0,0,0,0,0,0,0,0,0,0,0,0,0,0,0,0,0,0,0,0,0,0,0,0,0,0,0,0,0,0,0,0,0,0,0,0,0,0,0,0,0,0,0,0,0,0,0,0,0,0,0,0,0,0,0,0,0,0,0,0,0,0,0,0,0,0,0,0,0,0,0,0,0,0,0,0,0,0,0,0,0,0,0,0,0,0,0,0,0,0,0,0,0,0,0,0,0,0,0,0,0,0,0,0,0,0,0,0,0,0,0,0,0,0,0,0,0,0,0,0,0,0,0,0,0,0,0,0,0,0,0,0,0,0,0,0,0,0,0,0,0,0,0,0,0,0,0,0,0,0,0,0,0,0,0,0,0,0,0,0,0,0,0,0,0,0,0,0,0,0,0,0,0,0,0,0,0,0,0,0,0,0,0,0,0,0,0,0,0,0,0,0,0,0,0,0,0,0,0,0,0,0,0,0,0,0,0,0,0,0,0,0,0,0,0,0,0,0,0,0,0,0,0,0,0,0,0,0,0,0,0,0,0,0,0,0,0,0,0,0,0,0,0,0,0,0,0,0,0,0,0,0,0,0,0,0,0,0,0,0,0,0,0,0,0,0,0,0,0,0,0,0,0,0,0,0,0,0,0,0,0,0,0,0,0,0,0,0,0,0,0,0,0,0,0,0,0,0,0,0,0,0,0,0,0,0,0,0,0,0,0,0,0,0,0,0,0,0,0,0,0,0,0,0,0,0,0,0,0,0,0,0,0,0,0,0,0
</data>
 </layer>
 <objectgroup id="5" name="Collider" visible="0">
  <object id="556" x="1536" y="1184" width="320" height="352"/>
  <object id="557" x="1024" y="1248" width="576" height="288"/>
  <object id="558" x="1664" y="640" width="192" height="512"/>
  <object id="561" x="1120" y="864" width="640" height="192"/>
  <object id="562" x="1024" y="384" width="832" height="160"/>
  <object id="563" x="640" y="288" width="864" height="32"/>
  <object id="564" x="640" y="0" width="32" height="320"/>
  <object id="565" x="1184" y="304" width="32" height="48"/>
  <object id="567" x="1664" y="384" width="192" height="224"/>
  <object id="568" x="1920" y="384" width="256" height="224"/>
  <object id="569" x="1920" y="640" width="192" height="512"/>
  <object id="570" x="2032" y="640" width="144" height="416"/>
  <object id="571" x="2432" y="832" width="192" height="320"/>
  <object id="572" x="2368" y="896" width="160" height="256"/>
  <object id="573" x="2032" y="864" width="496" height="192"/>
  <object id="574" x="2432" y="416" width="192" height="384"/>
  <object id="575" x="2080" y="416" width="480" height="160"/>
  <object id="576" x="2144" y="400" width="96" height="32"/>
  <object id="577" x="2144" y="384" width="64" height="48"/>
  <object id="578" x="1536" y="864" width="224" height="288"/>
  <object id="579" x="1152" y="1024" width="96" height="128"/>
  <object id="580" x="1280" y="480" width="96" height="320"/>
  <object id="581" x="1168" y="704" width="144" height="64"/>
  <object id="582" x="704" y="1344" width="96" height="192"/>
  <object id="583" x="544" y="1600" width="1312" height="32"/>
  <object id="589" x="704" y="1344" width="416" height="96"/>
  <object id="590" x="1600" y="1600" width="256" height="544"/>
  <object id="591" x="1312" y="1920" width="96" height="192"/>
  <object id="592" x="1376" y="1920" width="32" height="224"/>
  <object id="593" x="2432" y="2112" width="192" height="192"/>
  <object id="594" x="2432" y="1664" width="192" height="416"/>
  <object id="595" x="1920" y="1600" width="640" height="416"/>
  <object id="598" x="1920" y="1600" width="288" height="544"/>
  <object id="599" x="1184" y="1600" width="96" height="704"/>
  <object id="600" x="1184" y="1600" width="576" height="288"/>
  <object id="601" x="1184" y="2176" width="1328" height="128"/>
  <object id="619" x="2560" y="288" width="32" height="64"/>
  <object id="621" x="2720" y="288" width="32" height="64"/>
  <object id="622" x="2560" y="288" width="192" height="32"/>
  <object id="623" x="3680" y="288" width="32" height="64"/>
  <object id="624" x="3680" y="288" width="832" height="32"/>
  <object id="625" x="4768" y="96" width="32" height="256"/>
  <object id="626" x="4320" y="0" width="480" height="320"/>
  <object id="634" x="1168" y="736" width="48" height="144"/>
  <object id="635" x="1168" y="832" width="208" height="48"/>
  <object id="636" x="1056" y="1056" width="128" height="64"/>
  <object id="637" x="1056" y="1056" width="32" height="160"/>
  <object id="638" x="1056" y="1184" width="192" height="32"/>
  <object id="669" x="2368" y="1184" width="256" height="288"/>
  <object id="670" x="1920" y="1184" width="192" height="352"/>
  <object id="671" x="2080" y="1280" width="480" height="256"/>
  <object id="672" x="1216" y="1184" width="32" height="96"/>
  <object id="694" x="5568" y="0" width="384" height="352"/>
  <object id="725" x="2544" y="2400" width="224" height="16"/>
  <object id="728" x="2752" y="2384" width="16" height="32"/>
  <object id="729" x="2544" y="2384" width="16" height="32"/>
  <object id="730" x="4528" y="2384" width="16" height="32"/>
  <object id="731" x="4528" y="2400" width="224" height="16"/>
  <object id="732" x="4736" y="2384" width="16" height="32"/>
  <object id="733" x="672" y="1440" width="64" height="80"/>
  <object id="734" x="640" y="1440" width="96" height="64"/>
  <object id="735" x="608" y="1440" width="128" height="48"/>
  <object id="738" x="576" y="1440" width="160" height="32"/>
  <object id="898" x="2688" y="416" width="192" height="384"/>
  <object id="899" x="2848" y="416" width="256" height="128"/>
  <object id="900" x="3072" y="416" width="864" height="64"/>
  <object id="902" x="3392" y="448" width="256" height="96"/>
  <object id="903" x="3616" y="416" width="320" height="192"/>
  <object id="904" x="4000" y="416" width="192" height="192"/>
  <object id="905" x="4000" y="416" width="288" height="128"/>
  <object id="906" x="4352" y="416" width="256" height="128"/>
  <object id="907" x="4448" y="416" width="160" height="320"/>
  <object id="908" x="5760" y="416" width="192" height="1888"/>
  <object id="909" x="5632" y="416" width="176" height="1408"/>
  <object id="910" x="4672" y="416" width="1008" height="128"/>
  <object id="911" x="5152" y="512" width="192" height="64"/>
  <object id="912" x="4672" y="512" width="192" height="736"/>
  <object id="913" x="5024" y="608" width="320" height="128"/>
  <object id="914" x="5024" y="768" width="320" height="160"/>
  <object id="915" x="5088" y="960" width="256" height="352"/>
  <object id="916" x="5024" y="960" width="96" height="256"/>
  <object id="917" x="4832" y="992" width="224" height="224"/>
  <object id="918" x="4672" y="1280" width="192" height="192"/>
  <object id="919" x="4736" y="1376" width="608" height="160"/>
  <object id="920" x="5088" y="1344" width="256" height="64"/>
  <object id="921" x="5312" y="1376" width="352" height="64"/>
  <object id="922" x="5568" y="512" width="96" height="384"/>
  <object id="923" x="5312" y="800" width="288" height="96"/>
  <object id="924" x="2912" y="576" width="192" height="800"/>
  <object id="925" x="2688" y="832" width="256" height="320"/>
  <object id="926" x="2688" y="1184" width="192" height="288"/>
  <object id="927" x="2752" y="1408" width="1088" height="128"/>
  <object id="928" x="3520" y="1088" width="192" height="352"/>
  <object id="929" x="3664" y="1184" width="272" height="256"/>
  <object id="930" x="3744" y="640" width="192" height="512"/>
  <object id="932" x="3392" y="576" width="192" height="384"/>
  <object id="933" x="3520" y="928" width="96" height="128"/>
  <object id="934" x="3680" y="928" width="96" height="128"/>
  <object id="935" x="3552" y="640" width="224" height="384"/>
  <object id="936" x="3072" y="800" width="352" height="160"/>
  <object id="937" x="4000" y="640" width="192" height="512"/>
  <object id="938" x="4480" y="768" width="128" height="480"/>
  <object id="939" x="4448" y="768" width="64" height="256"/>
  <object id="940" x="4160" y="800" width="96" height="352"/>
  <object id="942" x="4224" y="800" width="256" height="224"/>
  <object id="944" x="4000" y="1184" width="256" height="256"/>
  <object id="945" x="4096" y="1280" width="448" height="256"/>
  <object id="946" x="4512" y="1280" width="96" height="192"/>
  <object id="947" x="5344" y="1696" width="192" height="160"/>
  <object id="948" x="5344" y="1696" width="320" height="128"/>
  <object id="949" x="4736" y="1600" width="608" height="160"/>
  <object id="950" x="4672" y="1664" width="192" height="416"/>
  <object id="951" x="4928" y="1728" width="192" height="160"/>
  <object id="952" x="4832" y="1728" width="128" height="128"/>
  <object id="953" x="4832" y="1920" width="704" height="128"/>
  <object id="954" x="5344" y="1888" width="192" height="192"/>
  <object id="955" x="5088" y="2016" width="288" height="64"/>
  <object id="956" x="4672" y="2112" width="192" height="192"/>
  <object id="957" x="5088" y="2112" width="448" height="192"/>
  <object id="958" x="4832" y="2208" width="288" height="96"/>
  <object id="959" x="5504" y="2240" width="288" height="64"/>
  <object id="960" x="3488" y="2016" width="480" height="160"/>
  <object id="961" x="3712" y="1824" width="224" height="224"/>
  <object id="962" x="3904" y="1856" width="64" height="192"/>
  <object id="963" x="4160" y="1824" width="192" height="160"/>
  <object id="964" x="4192" y="1952" width="160" height="128"/>
  <object id="965" x="3936" y="1856" width="256" height="128"/>
  <object id="966" x="2752" y="1600" width="448" height="128"/>
  <object id="967" x="2688" y="1664" width="128" height="416"/>
  <object id="971" x="2784" y="1696" width="96" height="352"/>
  <object id="972" x="2688" y="2112" width="128" height="192"/>
  <object id="973" x="3040" y="2112" width="192" height="192"/>
  <object id="974" x="2784" y="2208" width="288" height="96"/>
  <object id="975" x="4192" y="2112" width="416" height="192"/>
  <object id="976" x="3488" y="2208" width="736" height="96"/>
  <object id="977" x="3200" y="2240" width="320" height="64"/>
  <object id="978" x="4384" y="1664" width="224" height="416"/>
  <object id="979" x="4160" y="1600" width="384" height="192"/>
  <object id="980" x="3168" y="1600" width="1024" height="96"/>
  <object id="981" x="3488" y="1664" width="448" height="128"/>
  <object id="982" x="3488" y="1824" width="192" height="160"/>
  <object id="983" x="2912" y="1760" width="288" height="288"/>
  <object id="984" x="3040" y="1856" width="192" height="224"/>
  <object id="985" x="3200" y="1856" width="320" height="96"/>
  <object id="986" x="4832" y="512" width="256" height="192"/>
  <object id="987" x="1024" y="288" width="96" height="128"/>
  <object id="993" x="256" y="1440" width="64" height="64"/>
  <object id="994" x="0" y="1408" width="288" height="352"/>
  <object id="995" x="256" y="1600" width="256" height="32"/>
  <object id="997" x="432" y="1600" width="64" height="64"/>
  <object id="1005" x="416" y="1616" width="64" height="64"/>
  <object id="1006" x="400" y="1632" width="64" height="64"/>
  <object id="1007" x="384" y="1648" width="64" height="64"/>
  <object id="1008" x="352" y="1664" width="80" height="64"/>
  <object id="1009" x="320" y="1680" width="80" height="64"/>
  <object id="1010" x="256" y="1696" width="112" height="64"/>
 </objectgroup>
 <objectgroup id="9" name="Move" visible="0">
  <object id="885" name="350" type="UP" x="3680" y="1824" width="32" height="192"/>
 </objectgroup>
 <objectgroup id="6" name="PassThrough" visible="0">
  <object id="120" x="832" y="1504" width="32" height="16"/>
  <object id="121" x="960" y="1504" width="32" height="16"/>
  <object id="122" x="896" y="1568" width="32" height="16"/>
  <object id="123" x="1248" y="1184" width="32" height="16"/>
  <object id="124" x="1312" y="1120" width="32" height="16"/>
  <object id="125" x="1376" y="1184" width="32" height="16"/>
  <object id="126" x="1440" y="1120" width="32" height="16"/>
  <object id="127" x="1504" y="1184" width="32" height="16"/>
  <object id="128" x="768" y="224" width="96" height="16"/>
  <object id="129" x="896" y="240" width="64" height="16"/>
  <object id="130" x="832" y="160" width="192" height="16"/>
  <object id="131" x="992" y="224" width="128" height="16"/>
  <object id="132" x="1104" y="240" width="112" height="16"/>
  <object id="133" x="1184" y="192" width="96" height="16"/>
  <object id="137" x="1248" y="144" width="128" height="16"/>
  <object id="138" x="1312" y="224" width="128" height="16"/>
  <object id="139" x="1536" y="288" width="32" height="16"/>
  <object id="140" x="1632" y="256" width="32" height="16"/>
  <object id="141" x="1696" y="224" width="32" height="16"/>
  <object id="143" x="1760" y="288" width="32" height="16"/>
  <object id="144" x="1824" y="352" width="32" height="16"/>
  <object id="145" x="2752" y="320" width="32" height="16"/>
  <object id="146" x="2816" y="352" width="32" height="16"/>
  <object id="147" x="3104" y="368" width="64" height="16"/>
  <object id="148" x="3200" y="368" width="80" height="16"/>
  <object id="149" x="3264" y="320" width="192" height="16"/>
  <object id="150" x="3360" y="368" width="192" height="16"/>
  <object id="152" x="3152" y="256" width="144" height="16"/>
  <object id="153" x="3280" y="192" width="144" height="16"/>
  <object id="154" x="3392" y="224" width="128" height="16"/>
  <object id="155" x="3504" y="288" width="176" height="16"/>
  <object id="156" x="3584" y="240" width="64" height="16"/>
  <object id="157" x="3712" y="192" width="128" height="16"/>
  <object id="158" x="3824" y="224" width="96" height="16"/>
  <object id="159" x="3904" y="160" width="112" height="16"/>
  <object id="160" x="4000" y="208" width="96" height="16"/>
  <object id="161" x="4240" y="128" width="80" height="16"/>
  <object id="162" x="4256" y="240" width="64" height="16"/>
  <object id="163" x="4080" y="224" width="128" height="16"/>
  <object id="1166" x="4160" y="176" width="128" height="16"/>
  <object id="164" x="3904" y="240" width="64" height="16"/>
  <object id="165" x="1408" y="736" width="32" height="16"/>
  <object id="166" x="1440" y="640" width="32" height="16"/>
  <object id="167" x="1536" y="608" width="32" height="16"/>
  <object id="169" x="1632" y="640" width="32" height="16"/>
  <object id="170" x="1504" y="672" width="32" height="16"/>
  <object id="171" x="1568" y="704" width="32" height="16"/>
  <object id="172" x="1632" y="736" width="32" height="16"/>
  <object id="173" x="1568" y="800" width="32" height="16"/>
  <object id="174" x="1504" y="768" width="32" height="16"/>
  <object id="175" x="1440" y="800" width="32" height="16"/>
  <object id="176" x="2178" y="641.333" width="30" height="14.6667"/>
  <object id="177" x="2240" y="640" width="32" height="16"/>
  <object id="178" x="2240" y="736" width="32" height="16"/>
  <object id="179" x="2336" y="704" width="32" height="16"/>
  <object id="180" x="2368" y="768" width="32" height="16"/>
  <object id="181" x="2400" y="832" width="32" height="16"/>
  <object id="182" x="2304" y="800" width="32" height="16"/>
  <object id="183" x="2208" y="832" width="32" height="16"/>
  <object id="184" x="2176" y="768" width="32" height="16"/>
  <object id="185" x="3200" y="544" width="32" height="16"/>
  <object id="186" x="3264" y="544" width="32" height="16"/>
  <object id="187" x="3360" y="576" width="32" height="16"/>
  <object id="188" x="3232" y="608" width="32" height="16"/>
  <object id="189" x="3104" y="576" width="32" height="16"/>
  <object id="190" x="3136" y="640" width="32" height="16"/>
  <object id="191" x="3136" y="736" width="32" height="16"/>
  <object id="192" x="3200" y="672" width="32" height="16"/>
  <object id="193" x="3264" y="672" width="32" height="16"/>
  <object id="194" x="3328" y="640" width="32" height="16"/>
  <object id="195" x="3328" y="736" width="32" height="16"/>
  <object id="196" x="1408" y="1920" width="32" height="16"/>
  <object id="197" x="1472" y="1952" width="32" height="16"/>
  <object id="198" x="1536" y="1984" width="32" height="16"/>
  <object id="199" x="1408" y="2016" width="32" height="16"/>
  <object id="200" x="1472" y="2080" width="32" height="16"/>
  <object id="201" x="1536" y="2112" width="32" height="16"/>
  <object id="202" x="2208" y="2112" width="32" height="16"/>
  <object id="203" x="2304" y="2080" width="32" height="16"/>
  <object id="204" x="2400" y="2112" width="32" height="16"/>
  <object id="206" x="2112" y="1184" width="32" height="16"/>
  <object id="207" x="2176" y="1120" width="32" height="16"/>
  <object id="208" x="2176" y="1216" width="32" height="16"/>
  <object id="209" x="2272" y="1216" width="32" height="16"/>
  <object id="210" x="2336" y="1184" width="32" height="16"/>
  <object id="211" x="2272" y="1120" width="32" height="16"/>
  <object id="212" x="3104" y="1088" width="32" height="16"/>
  <object id="213" x="3200" y="1056" width="32" height="16"/>
  <object id="214" x="3296" y="1024" width="32" height="16"/>
  <object id="215" x="3392" y="1056" width="32" height="16"/>
  <object id="216" x="3488" y="1088" width="32" height="16"/>
  <object id="217" x="3296" y="1088" width="32" height="16"/>
  <object id="218" x="3232" y="1152" width="32" height="16"/>
  <object id="219" x="3360" y="1152" width="32" height="16"/>
  <object id="220" x="3456" y="1184" width="32" height="16"/>
  <object id="221" x="3296" y="1184" width="32" height="16"/>
  <object id="222" x="3392" y="1248" width="32" height="16"/>
  <object id="223" x="3424" y="1312" width="32" height="16"/>
  <object id="224" x="3488" y="1344" width="32" height="16"/>
  <object id="225" x="3360" y="1376" width="32" height="16"/>
  <object id="226" x="3232" y="1376" width="32" height="16"/>
  <object id="227" x="3104" y="1344" width="32" height="16"/>
  <object id="228" x="3168" y="1312" width="32" height="16"/>
  <object id="229" x="3136" y="1184" width="32" height="16"/>
  <object id="230" x="3200" y="1248" width="32" height="16"/>
  <object id="231" x="3296" y="1312" width="32" height="16"/>
  <object id="232" x="4192" y="640" width="32" height="16"/>
  <object id="233" x="4256" y="704" width="32" height="16"/>
  <object id="234" x="4224" y="768" width="32" height="16"/>
  <object id="235" x="4320" y="736" width="32" height="16"/>
  <object id="1158" x="4384" y="768" width="32" height="16"/>
  <object id="236" x="4352" y="672" width="32" height="16"/>
  <object id="237" x="4384" y="608" width="32" height="16"/>
  <object id="238" x="4960" y="768" width="32" height="16"/>
  <object id="239" x="4992" y="832" width="32" height="16"/>
  <object id="240" x="4928" y="864" width="32" height="16"/>
  <object id="241" x="4896" y="800" width="32" height="16"/>
  <object id="242" x="4864" y="896" width="32" height="16"/>
  <object id="244" x="4896" y="960" width="32" height="16"/>
  <object id="245" x="4960" y="928" width="32" height="16"/>
  <object id="246" x="5344" y="960" width="32" height="16"/>
  <object id="247" x="5408" y="960" width="32" height="16"/>
  <object id="248" x="5472" y="960" width="32" height="16"/>
  <object id="249" x="5568" y="992" width="32" height="16"/>
  <object id="250" x="5504" y="1056" width="32" height="16"/>
  <object id="251" x="5408" y="1056" width="32" height="16"/>
  <object id="252" x="5344" y="1088" width="32" height="16"/>
  <object id="253" x="5472" y="1120" width="32" height="16"/>
  <object id="254" x="5568" y="1088" width="32" height="16"/>
  <object id="255" x="5376" y="1152" width="32" height="16"/>
  <object id="256" x="5440" y="1184" width="32" height="16"/>
  <object id="257" x="5504" y="1216" width="32" height="16"/>
  <object id="258" x="5568" y="1152" width="32" height="16"/>
  <object id="259" x="5600" y="1216" width="32" height="16"/>
  <object id="260" x="5568" y="1248" width="32" height="16"/>
  <object id="261" x="5600" y="1312" width="32" height="16"/>
  <object id="262" x="5536" y="1344" width="32" height="16"/>
  <object id="263" x="5472" y="1280" width="32" height="16"/>
  <object id="264" x="5408" y="1248" width="32" height="16"/>
  <object id="265" x="5344" y="1280" width="32" height="16"/>
  <object id="266" x="5376" y="1344" width="32" height="16"/>
  <object id="267" x="5344" y="608" width="32" height="16"/>
  <object id="268" x="5440" y="608" width="32" height="16"/>
  <object id="269" x="5536" y="608" width="32" height="16"/>
  <object id="270" x="5536" y="704" width="32" height="16"/>
  <object id="271" x="5472" y="672" width="32" height="16"/>
  <object id="272" x="5408" y="672" width="32" height="16"/>
  <object id="273" x="5344" y="704" width="32" height="16"/>
  <object id="274" x="5376" y="768" width="32" height="16"/>
  <object id="275" x="5440" y="736" width="32" height="16"/>
  <object id="276" x="5504" y="768" width="32" height="16"/>
  <object id="278" x="4896" y="1344" width="32" height="16"/>
  <object id="279" x="4960" y="1312" width="32" height="16"/>
  <object id="280" x="5024" y="1344" width="32" height="16"/>
  <object id="281" x="5056" y="1280" width="32" height="16"/>
  <object id="282" x="4864" y="1280" width="32" height="16"/>
  <object id="283" x="4416" y="1248" width="32" height="16"/>
  <object id="284" x="4352" y="1216" width="32" height="16"/>
  <object id="285" x="4448" y="1184" width="32" height="16"/>
  <object id="286" x="4448" y="1088" width="32" height="16"/>
  <object id="287" x="4384" y="1120" width="32" height="16"/>
  <object id="288" x="4320" y="1120" width="32" height="16"/>
  <object id="290" x="4256" y="1088" width="32" height="16"/>
  <object id="291" x="4256" y="1184" width="32" height="16"/>
  <object id="292" x="4288" y="1248" width="32" height="16"/>
  <object id="293" x="2560" y="1600" width="64" height="16"/>
  <object id="297" x="2688" y="1600" width="64" height="16"/>
  <object id="298" x="3840" y="1504" width="32" height="16"/>
  <object id="299" x="3904" y="1536" width="32" height="16"/>
  <object id="300" x="4000" y="1536" width="32" height="16"/>
  <object id="301" x="4064" y="1504" width="32" height="16"/>
  <object id="302" x="4544" y="1600" width="64" height="16"/>
  <object id="304" x="4672" y="1600" width="64" height="16"/>
  <object id="305" x="5344" y="1600" width="32" height="16"/>
  <object id="306" x="5600" y="1600" width="32" height="16"/>
  <object id="307" x="5472" y="1632" width="32" height="16"/>
  <object id="308" x="5408" y="1664" width="32" height="16"/>
  <object id="309" x="5536" y="1664" width="32" height="16"/>
  <object id="310" x="5472" y="1568" width="32" height="16"/>
  <object id="311" x="5536" y="1536" width="32" height="16"/>
  <object id="312" x="5600" y="1504" width="32" height="16"/>
  <object id="313" x="5472" y="1504" width="32" height="16"/>
  <object id="314" x="5408" y="1536" width="32" height="16"/>
  <object id="315" x="5344" y="1504" width="32" height="16"/>
  <object id="501" x="3200" y="1760" width="32" height="16"/>
  <object id="502" x="3264" y="1792" width="32" height="16"/>
  <object id="503" x="3328" y="1760" width="32" height="16"/>
  <object id="504" x="3392" y="1792" width="32" height="16"/>
  <object id="505" x="3328" y="1824" width="32" height="16"/>
  <object id="507" x="3264" y="2048" width="32" height="16"/>
  <object id="508" x="3232" y="2112" width="32" height="16"/>
  <object id="509" x="3328" y="2080" width="32" height="16"/>
  <object id="510" x="3360" y="2016" width="32" height="16"/>
  <object id="511" x="3424" y="2112" width="32" height="16"/>
  <object id="512" x="3456" y="2016" width="32" height="16"/>
  <object id="513" x="3360" y="2176" width="32" height="16"/>
  <object id="515" x="3296" y="2176" width="32" height="16"/>
  <object id="516" x="2816" y="2112" width="32" height="16"/>
  <object id="517" x="2912" y="2144" width="32" height="16"/>
  <object id="518" x="2976" y="2176" width="32" height="16"/>
  <object id="519" x="3008" y="2112" width="32" height="16"/>
  <object id="520" x="2848" y="2176" width="32" height="16"/>
  <object id="521" x="3968" y="2080" width="32" height="16"/>
  <object id="522" x="4032" y="2048" width="32" height="16"/>
  <object id="523" x="4096" y="2080" width="32" height="16"/>
  <object id="524" x="4160" y="2048" width="32" height="16"/>
  <object id="525" x="4160" y="2112" width="32" height="16"/>
  <object id="526" x="4096" y="2144" width="32" height="16"/>
  <object id="529" x="4000" y="2144" width="32" height="16"/>
  <object id="530" x="3456" y="1760" width="32" height="16"/>
  <object id="531" x="3936" y="1760" width="32" height="16"/>
  <object id="532" x="4000" y="1792" width="32" height="16"/>
  <object id="533" x="4064" y="1792" width="32" height="16"/>
  <object id="534" x="4128" y="1760" width="32" height="16"/>
  <object id="535" x="5120" y="1824" width="32" height="16"/>
  <object id="536" x="5216" y="1856" width="32" height="16"/>
  <object id="537" x="5312" y="1824" width="32" height="16"/>
  <object id="539" x="5536" y="1888" width="32" height="16"/>
  <object id="540" x="5632" y="1920" width="32" height="16"/>
  <object id="541" x="5728" y="1888" width="32" height="16"/>
  <object id="543" x="5728" y="1984" width="32" height="16"/>
  <object id="544" x="5632" y="2048" width="32" height="16"/>
  <object id="545" x="5536" y="1984" width="32" height="16"/>
  <object id="547" x="5536" y="2112" width="32" height="16"/>
  <object id="548" x="5632" y="2176" width="32" height="16"/>
  <object id="549" x="5728" y="2112" width="32" height="16"/>
  <object id="550" x="5056" y="2112" width="32" height="16"/>
  <object id="551" x="4864" y="2112" width="32" height="16"/>
  <object id="552" x="4960" y="2144" width="32" height="16"/>
  <object id="886" x="3680" y="1824" width="32" height="16"/>
  <object id="1156" x="4800" y="336" width="96" height="16"/>
  <object id="1157" x="5472" y="336" width="96" height="16"/>
 </objectgroup>
 <objectgroup id="7" name="Point">
  <object id="554" type="SpawnPlayer" x="320" y="1600">
   <point/>
  </object>
  <object id="786" type="Box" x="2608" y="1152">
   <point/>
  </object>
  <object id="787" type="Box" x="2608" y="1168">
   <point/>
  </object>
  <object id="788" type="Box" x="2688" y="1152">
   <point/>
  </object>
  <object id="789" type="Box" x="2688" y="1168">
   <point/>
  </object>
  <object id="790" type="Box" x="2688" y="800">
   <point/>
  </object>
  <object id="791" type="Box" x="2688" y="816">
   <point/>
  </object>
  <object id="794" type="Box" x="2608" y="800">
   <point/>
  </object>
  <object id="795" type="Box" x="2608" y="816">
   <point/>
  </object>
  <object id="796" type="Box" x="3920" y="608">
   <point/>
  </object>
  <object id="797" type="Box" x="3920" y="624">
   <point/>
  </object>
  <object id="798" type="Box" x="4000" y="608">
   <point/>
  </object>
  <object id="799" type="Box" x="4000" y="624">
   <point/>
  </object>
  <object id="800" type="Box" x="3920" y="1152">
   <point/>
  </object>
  <object id="801" type="Box" x="3920" y="1168">
   <point/>
  </object>
  <object id="802" type="Box" x="4000" y="1152">
   <point/>
  </object>
  <object id="803" type="Box" x="4000" y="1168">
   <point/>
  </object>
  <object id="804" type="Box" x="4592" y="1248">
   <point/>
  </object>
  <object id="805" type="Box" x="4592" y="1264">
   <point/>
  </object>
  <object id="806" type="Box" x="4672" y="1248">
   <point/>
  </object>
  <object id="807" type="Box" x="4672" y="1264">
   <point/>
  </object>
  <object id="808" type="Box" x="4592" y="736">
   <point/>
  </object>
  <object id="809" type="Box" x="4592" y="752">
   <point/>
  </object>
  <object id="810" type="Box" x="4032" y="384">
   <point/>
  </object>
  <object id="811" type="Box" x="4032" y="400">
   <point/>
  </object>
  <object id="813" type="Box" x="4048" y="400">
   <point/>
  </object>
  <object id="814" type="Box" x="4288" y="384">
   <point/>
  </object>
  <object id="815" type="Box" x="4288" y="400">
   <point/>
  </object>
  <object id="816" type="Box" x="4304" y="384">
   <point/>
  </object>
  <object id="817" type="Box" x="4304" y="400">
   <point/>
  </object>
  <object id="820" type="Box" x="4320" y="384">
   <point/>
  </object>
  <object id="821" type="Box" x="4320" y="400">
   <point/>
  </object>
  <object id="822" type="Box" x="4272" y="400">
   <point/>
  </object>
  <object id="823" type="Box" x="4336" y="400">
   <point/>
  </object>
  <object id="824" type="Box" x="2608" y="2080">
   <point/>
  </object>
  <object id="992" type="Box" x="4592" y="2080">
   <point/>
  </object>
  <object id="825" type="Box" x="2608" y="2096">
   <point/>
  </object>
  <object id="990" type="Box" x="4592" y="2096">
   <point/>
  </object>
  <object id="826" type="Box" x="2688" y="2080">
   <point/>
  </object>
  <object id="991" type="Box" x="4672" y="2080">
   <point/>
  </object>
  <object id="827" type="Box" x="2688" y="2096">
   <point/>
  </object>
  <object id="989" type="Box" x="4672" y="2096">
   <point/>
  </object>
  <object id="828" type="Box" x="1840" y="1152">
   <point/>
  </object>
  <object id="829" type="Box" x="1840" y="1168">
   <point/>
  </object>
  <object id="832" type="Box" x="1920" y="1152">
   <point/>
  </object>
  <object id="833" type="Box" x="1920" y="1168">
   <point/>
  </object>
  <object id="834" type="Box" x="1840" y="608">
   <point/>
  </object>
  <object id="835" type="Box" x="1840" y="624">
   <point/>
  </object>
  <object id="836" type="Box" x="1920" y="608">
   <point/>
  </object>
  <object id="837" type="Box" x="1920" y="624">
   <point/>
  </object>
  <object id="838" type="Box" x="1840" y="368">
   <point/>
  </object>
  <object id="839" type="Box" x="1824" y="368">
   <point/>
  </object>
  <object id="840" type="Box" x="400" y="1584">
   <point/>
  </object>
  <object id="841" type="Box" x="384" y="1584">
   <point/>
  </object>
  <object id="843" type="Box" x="384" y="1568">
   <point/>
  </object>
  <object id="844" type="Box" x="2048" y="352">
   <point/>
  </object>
  <object id="845" type="Box" x="2048" y="368">
   <point/>
  </object>
  <object id="846" type="Box" x="2032" y="352">
   <point/>
  </object>
  <object id="847" type="Box" x="2032" y="368">
   <point/>
  </object>
  <object id="848" type="Box" x="2064" y="352">
   <point/>
  </object>
  <object id="849" type="Box" x="2064" y="368">
   <point/>
  </object>
  <object id="850" type="Box" x="2080" y="352">
   <point/>
  </object>
  <object id="851" type="Box" x="2080" y="368">
   <point/>
  </object>
  <object id="852" type="Box" x="2096" y="352">
   <point/>
  </object>
  <object id="853" type="Box" x="2096" y="368">
   <point/>
  </object>
  <object id="854" type="Box" x="2064" y="336">
   <point/>
  </object>
  <object id="855" type="Box" x="2112" y="368">
   <point/>
  </object>
  <object id="858" type="Box" x="2080" y="336">
   <point/>
  </object>
  <object id="860" type="Box" x="2096" y="336">
   <point/>
  </object>
  <object id="862" type="Box" x="2368" y="400">
   <point/>
  </object>
  <object id="863" type="Box" x="2368" y="400">
   <point/>
  </object>
  <object id="864" type="Box" x="2368" y="384">
   <point/>
  </object>
  <object id="865" type="Box" x="2368" y="384">
   <point/>
  </object>
  <object id="866" type="Box" x="2384" y="400">
   <point/>
  </object>
  <object id="867" type="Box" x="2384" y="400">
   <point/>
  </object>
  <object id="868" type="Box" x="2384" y="384">
   <point/>
  </object>
  <object id="869" type="Box" x="2384" y="384">
   <point/>
  </object>
  <object id="870" type="Box" x="2400" y="400">
   <point/>
  </object>
  <object id="871" type="Box" x="2400" y="400">
   <point/>
  </object>
  <object id="872" type="Box" x="2400" y="384">
   <point/>
  </object>
  <object id="873" type="Box" x="2352" y="400">
   <point/>
  </object>
  <object id="874" type="Box" x="2752" y="304">
   <point/>
  </object>
  <object id="875" type="Box" x="2752" y="304">
   <point/>
  </object>
  <object id="876" type="Box" x="2752" y="288">
   <point/>
  </object>
  <object id="877" type="Box" x="2752" y="288">
   <point/>
  </object>
  <object id="878" type="Box" x="2816" y="336">
   <point/>
  </object>
  <object id="879" type="Box" x="2768" y="304">
   <point/>
  </object>
  <object id="1011" name="1" type="Bonus" x="1104" y="1168">
   <point/>
  </object>
  <object id="1013" name="2" type="Bonus" x="1232" y="816">
   <point/>
  </object>
  <object id="1014" name="3" type="Bonus" x="1136" y="368">
   <point/>
  </object>
  <object id="1015" name="4" type="Bonus" x="1328" y="2160">
   <point/>
  </object>
  <object id="1016" name="5" type="Bonus" x="3664" y="1072">
   <point/>
  </object>
  <object id="1017" name="6" type="Bonus" x="5104" y="592">
   <point/>
  </object>
  <object id="1018" name="7" type="Bonus" x="4896" y="1904">
   <point/>
  </object>
  <object id="1019" type="Boss" x="5408" y="288">
   <point/>
  </object>
  <object id="1020" type="TpPlayer" x="4960" y="320">
   <point/>
  </object>
  <object id="1167" name="6" type="Enemy" x="976" y="1504">
   <point/>
  </object>
  <object id="1172" name="4" type="Enemy" x="1456" y="1120">
   <point/>
  </object>
  <object id="1177" name="4" type="Enemy" x="1456" y="1248">
   <point/>
  </object>
  <object id="1168" name="6" type="Enemy" x="848" y="1504">
   <point/>
  </object>
  <object id="1171" name="4" type="Enemy" x="1328" y="1120">
   <point/>
  </object>
  <object id="1178" name="4" type="Enemy" x="1328" y="1248">
   <point/>
  </object>
  <object id="1169" name="7" type="Enemy" x="912" y="1568">
   <point/>
  </object>
  <object id="1170" name="7" type="Enemy" x="1392" y="1184">
   <point/>
  </object>
  <object id="1173" name="3" type="Enemy" x="1264" y="1184">
   <point/>
  </object>
  <object id="1174" name="3" type="Enemy" x="1520" y="1184">
   <point/>
  </object>
  <object id="1179" name="6" type="Enemy" x="1584" y="704">
   <point/>
  </object>
  <object id="1184" name="6" type="Enemy" x="1648" y="864">
   <point/>
  </object>
  <object id="1185" name="6" type="Enemy" x="1424" y="736">
   <point/>
  </object>
  <object id="1186" name="6" type="Enemy" x="1424" y="736">
   <point/>
  </object>
  <object id="1180" name="4" type="Enemy" x="1456" y="640">
   <point/>
  </object>
  <object id="1181" name="7" type="Enemy" x="1456" y="800">
   <point/>
  </object>
  <object id="1182" name="3" type="Enemy" x="1648" y="736">
   <point/>
  </object>
  <object id="1190" name="3" type="Enemy" x="1648" y="640">
   <point/>
  </object>
  <object id="1191" name="3" type="Enemy" x="1536" y="864">
   <point/>
  </object>
  <object id="1192" name="2" type="Enemy" x="1408" y="608">
   <point/>
  </object>
  <object id="1183" name="4" type="Enemy" x="1584" y="800">
   <point/>
  </object>
  <object id="1187" name="4" type="Enemy" x="1520" y="768">
   <point/>
  </object>
  <object id="1188" name="4" type="Enemy" x="1552" y="608">
   <point/>
  </object>
  <object id="1189" name="4" type="Enemy" x="1520" y="672">
   <point/>
  </object>
  <object id="1194" name="5" type="Enemy" x="1344" y="384">
   <point/>
  </object>
  <object id="1196" name="5" type="Enemy" x="1312" y="384">
   <point/>
  </object>
  <object id="1197" name="5" type="Enemy" x="1280" y="384">
   <point/>
  </object>
  <object id="1198" name="5" type="Enemy" x="1248" y="384">
   <point/>
  </object>
  <object id="1199" name="3" type="Enemy" x="1024" y="224">
   <point/>
  </object>
  <object id="1200" name="3" type="Enemy" x="800" y="224">
   <point/>
  </object>
  <object id="1201" name="3" type="Enemy" x="1168" y="240">
   <point/>
  </object>
  <object id="1202" name="3" type="Enemy" x="928" y="240">
   <point/>
  </object>
  <object id="1203" name="3" type="Enemy" x="1232" y="192">
   <point/>
  </object>
  <object id="1204" name="3" type="Enemy" x="1344" y="224">
   <point/>
  </object>
  <object id="1205" name="3" type="Enemy" x="1408" y="224">
   <point/>
  </object>
  <object id="1206" name="3" type="Enemy" x="1088" y="224">
   <point/>
  </object>
  <object id="1207" name="3" type="Enemy" x="880" y="160">
   <point/>
  </object>
  <object id="1208" name="3" type="Enemy" x="960" y="160">
   <point/>
  </object>
  <object id="1209" name="3" type="Enemy" x="1280" y="144">
   <point/>
  </object>
  <object id="1210" name="3" type="Enemy" x="1344" y="144">
   <point/>
  </object>
  <object id="1211" name="3" type="Enemy" x="1392" y="288">
   <point/>
  </object>
  <object id="1212" name="3" type="Enemy" x="1276" y="283">
   <point/>
  </object>
  <object id="1213" name="3" type="Enemy" x="1056" y="288">
   <point/>
  </object>
  <object id="1214" name="3" type="Enemy" x="832" y="288">
   <point/>
  </object>
  <object id="1215" name="3" type="Enemy" x="1168" y="128">
   <point/>
  </object>
  <object id="1217" name="3" type="Enemy" x="1104" y="96">
   <point/>
  </object>
  <object id="1216" name="3" type="Enemy" x="1024" y="112">
   <point/>
  </object>
  <object id="1218" name="3" type="Enemy" x="816" y="96">
   <point/>
  </object>
  <object id="1219" name="3" type="Enemy" x="736" y="160">
   <point/>
  </object>
  <object id="1221" name="4" type="Enemy" x="976" y="1600">
   <point/>
  </object>
  <object id="1222" name="4" type="Enemy" x="848" y="1600">
   <point/>
  </object>
  <object id="1223" name="3" type="Enemy" x="1488" y="2080">
   <point/>
  </object>
  <object id="1224" name="3" type="Enemy" x="1552" y="2112">
   <point/>
  </object>
  <object id="1225" name="3" type="Enemy" x="1424" y="2016">
   <point/>
  </object>
  <object id="1226" name="7" type="Enemy" x="1552" y="1984">
   <point/>
  </object>
  <object id="1227" name="1" type="Enemy" x="1488" y="2016">
   <point/>
  </object>
  <object id="1228" name="3" type="Enemy" x="1440" y="2176">
   <point/>
  </object>
  <object id="1229" name="3" type="Enemy" x="1520" y="2176">
   <point/>
  </object>
  <object id="1230" name="6" type="Enemy" x="1488" y="1952">
   <point/>
  </object>
  <object id="1231" name="3" type="Enemy" x="2224" y="2112">
   <point/>
  </object>
  <object id="1232" name="3" type="Enemy" x="2416" y="2112">
   <point/>
  </object>
  <object id="1233" name="3" type="Enemy" x="2368" y="2176">
   <point/>
  </object>
  <object id="1234" name="3" type="Enemy" x="2288" y="2176">
   <point/>
  </object>
  <object id="1235" name="6" type="Enemy" x="2320" y="2080">
   <point/>
  </object>
  <object id="1236" name="0" type="Enemy" x="2272" y="2048">
   <point/>
  </object>
  <object id="1237" name="0" type="Enemy" x="2368" y="2048">
   <point/>
  </object>
  <object id="1238" name="3" type="Enemy" x="2832" y="2112">
   <point/>
  </object>
  <object id="1239" name="3" type="Enemy" x="3024" y="2112">
   <point/>
  </object>
  <object id="1240" name="7" type="Enemy" x="2928" y="2144">
   <point/>
  </object>
  <object id="1241" name="3" type="Enemy" x="2864" y="2176">
   <point/>
  </object>
  <object id="1242" name="3" type="Enemy" x="2992" y="2176">
   <point/>
  </object>
  <object id="1243" name="2" type="Enemy" x="2976" y="2080">
   <point/>
  </object>
  <object id="1244" name="1" type="Enemy" x="2880" y="2080">
   <point/>
  </object>
  <object id="1245" name="3" type="Enemy" x="2928" y="2208">
   <point/>
  </object>
  <object id="1246" name="3" type="Enemy" x="3216" y="1760">
   <point/>
  </object>
  <object id="1247" name="4" type="Enemy" x="3280" y="1792">
   <point/>
  </object>
  <object id="1248" name="7" type="Enemy" x="3344" y="1760">
   <point/>
  </object>
  <object id="1249" name="4" type="Enemy" x="3408" y="1792">
   <point/>
  </object>
  <object id="1250" name="3" type="Enemy" x="3472" y="1760">
   <point/>
  </object>
  <object id="1251" name="6" type="Enemy" x="3344" y="1824">
   <point/>
  </object>
  <object id="1252" name="3" type="Enemy" x="3424" y="1856">
   <point/>
  </object>
  <object id="1253" name="3" type="Enemy" x="3264" y="1856">
   <point/>
  </object>
  <object id="1254" name="1" type="Enemy" x="3280" y="1728">
   <point/>
  </object>
  <object id="1255" name="1" type="Enemy" x="3408" y="1728">
   <point/>
  </object>
  <object id="1256" name="3" type="Enemy" x="4016" y="1792">
   <point/>
  </object>
  <object id="1257" name="3" type="Enemy" x="4080" y="1792">
   <point/>
  </object>
  <object id="1258" name="7" type="Enemy" x="4144" y="1760">
   <point/>
  </object>
  <object id="1259" name="7" type="Enemy" x="3952" y="1760">
   <point/>
  </object>
  <object id="1260" name="0" type="Enemy" x="4016" y="1744">
   <point/>
  </object>
  <object id="1261" name="0" type="Enemy" x="4080" y="1744">
   <point/>
  </object>
  <object id="1262" name="3" type="Enemy" x="4128" y="1856">
   <point/>
  </object>
  <object id="1263" name="3" type="Enemy" x="3968" y="1856">
   <point/>
  </object>
  <object id="1264" name="3" type="Enemy" x="4032" y="1856">
   <point/>
  </object>
  <object id="1265" name="3" type="Enemy" x="4064" y="1856">
   <point/>
  </object>
  <object id="1266" name="1" type="Enemy" x="4048" y="1728">
   <point/>
  </object>
  <object id="1267" name="6" type="Enemy" x="5136" y="1824">
   <point/>
  </object>
  <object id="1292" name="6" type="Enemy" x="4880" y="2112">
   <point/>
  </object>
  <object id="1268" name="3" type="Enemy" x="5232" y="1856">
   <point/>
  </object>
  <object id="1288" name="3" type="Enemy" x="4976" y="2144">
   <point/>
  </object>
  <object id="1269" name="6" type="Enemy" x="5328" y="1824">
   <point/>
  </object>
  <object id="1291" name="6" type="Enemy" x="5072" y="2112">
   <point/>
  </object>
  <object id="1270" name="3" type="Enemy" x="5296" y="1920">
   <point/>
  </object>
  <object id="1287" name="3" type="Enemy" x="5040" y="2208">
   <point/>
  </object>
  <object id="1272" name="3" type="Enemy" x="5248" y="1920">
   <point/>
  </object>
  <object id="1273" name="3" type="Enemy" x="5216" y="1920">
   <point/>
  </object>
  <object id="1274" name="3" type="Enemy" x="5168" y="1920">
   <point/>
  </object>
  <object id="1284" name="3" type="Enemy" x="4912" y="2208">
   <point/>
  </object>
  <object id="1275" name="1" type="Enemy" x="5184" y="1792">
   <point/>
  </object>
  <object id="1276" name="1" type="Enemy" x="5280" y="1792">
   <point/>
  </object>
  <object id="1277" name="0" type="Enemy" x="5248" y="1824">
   <point/>
  </object>
  <object id="1278" name="0" type="Enemy" x="5216" y="1824">
   <point/>
  </object>
  <object id="1279" name="2" type="Enemy" x="5232" y="1792">
   <point/>
  </object>
  <object id="1293" name="2" type="Enemy" x="4976" y="2080">
   <point/>
  </object>
  <object id="1280" name="3" type="Enemy" x="5328" y="1920">
   <point/>
  </object>
  <object id="1281" name="3" type="Enemy" x="5136" y="1920">
   <point/>
  </object>
  <object id="1297" name="4" type="Enemy" x="2128" y="1184">
   <point/>
  </object>
  <object id="1298" name="3" type="Enemy" x="2192" y="1216">
   <point/>
  </object>
  <object id="1299" name="3" type="Enemy" x="2192" y="1120">
   <point/>
  </object>
  <object id="1300" name="3" type="Enemy" x="2288" y="1120">
   <point/>
  </object>
  <object id="1301" name="4" type="Enemy" x="2352" y="1184">
   <point/>
  </object>
  <object id="1302" name="3" type="Enemy" x="2288" y="1216">
   <point/>
  </object>
  <object id="1303" name="7" type="Enemy" x="2336" y="1280">
   <point/>
  </object>
  <object id="1304" name="3" type="Enemy" x="2288" y="1280">
   <point/>
  </object>
  <object id="1305" name="3" type="Enemy" x="2192" y="1280">
   <point/>
  </object>
  <object id="1306" name="7" type="Enemy" x="2144" y="1280">
   <point/>
  </object>
  <object id="1307" name="4" type="Enemy" x="2240" y="1280">
   <point/>
  </object>
  <object id="1308" name="1" type="Enemy" x="2208" y="1168">
   <point/>
  </object>
  <object id="1309" name="1" type="Enemy" x="2272" y="1168">
   <point/>
  </object>
  <object id="1310" name="2" type="Enemy" x="2240" y="1088">
   <point/>
  </object>
  <object id="1311" name="1" type="Enemy" x="2144" y="1104">
   <point/>
  </object>
  <object id="1312" name="1" type="Enemy" x="2336" y="1104">
   <point/>
  </object>
  <object id="1313" name="3" type="Enemy" x="3984" y="2080">
   <point/>
  </object>
  <object id="1314" name="5" type="Enemy" x="4048" y="2048">
   <point/>
  </object>
  <object id="1315" name="3" type="Enemy" x="4112" y="2080">
   <point/>
  </object>
  <object id="1316" name="6" type="Enemy" x="4176" y="2048">
   <point/>
  </object>
  <object id="1317" name="3" type="Enemy" x="4176" y="2112">
   <point/>
  </object>
  <object id="1318" name="4" type="Enemy" x="4112" y="2144">
   <point/>
  </object>
  <object id="1319" name="4" type="Enemy" x="4016" y="2144">
   <point/>
  </object>
  <object id="1320" name="1" type="Enemy" x="4048" y="2112">
   <point/>
  </object>
  <object id="1321" name="0" type="Enemy" x="4128" y="2032">
   <point/>
  </object>
  <object id="1322" name="0" type="Enemy" x="4000" y="2032">
   <point/>
  </object>
  <object id="1323" name="3" type="Enemy" x="4144" y="2208">
   <point/>
  </object>
  <object id="1324" name="3" type="Enemy" x="4080" y="2208">
   <point/>
  </object>
  <object id="1325" name="3" type="Enemy" x="4016" y="2208">
   <point/>
  </object>
  <object id="1326" name="3" type="Enemy" x="3376" y="2176">
   <point/>
  </object>
  <object id="1327" name="3" type="Enemy" x="3312" y="2176">
   <point/>
  </object>
  <object id="1328" name="3" type="Enemy" x="3248" y="2112">
   <point/>
  </object>
  <object id="1329" name="3" type="Enemy" x="3280" y="2048">
   <point/>
  </object>
  <object id="1330" name="3" type="Enemy" x="3344" y="2080">
   <point/>
  </object>
  <object id="1331" name="3" type="Enemy" x="3376" y="2016">
   <point/>
  </object>
  <object id="1332" name="3" type="Enemy" x="3472" y="2016">
   <point/>
  </object>
  <object id="1333" name="3" type="Enemy" x="3440" y="2112">
   <point/>
  </object>
  <object id="1334" name="3" type="Enemy" x="3264" y="2240">
   <point/>
  </object>
  <object id="1335" name="3" type="Enemy" x="3312" y="2240">
   <point/>
  </object>
  <object id="1336" name="3" type="Enemy" x="3376" y="2240">
   <point/>
  </object>
  <object id="1337" name="3" type="Enemy" x="3440" y="2240">
   <point/>
  </object>
  <object id="1338" name="1" type="Enemy" x="3312" y="2000">
   <point/>
  </object>
  <object id="1339" name="1" type="Enemy" x="3408" y="2080">
   <point/>
  </object>
  <object id="1340" name="7" type="Enemy" x="5648" y="2048">
   <point/>
  </object>
  <object id="1341" name="4" type="Enemy" x="5552" y="2112">
   <point/>
  </object>
  <object id="1342" name="3" type="Enemy" x="5552" y="1984">
   <point/>
  </object>
  <object id="1343" name="6" type="Enemy" x="5552" y="1888">
   <point/>
  </object>
  <object id="1344" name="7" type="Enemy" x="5648" y="1920">
   <point/>
  </object>
  <object id="1345" name="6" type="Enemy" x="5744" y="1888">
   <point/>
  </object>
  <object id="1346" name="3" type="Enemy" x="5744" y="1984">
   <point/>
  </object>
  <object id="1347" name="4" type="Enemy" x="5744" y="2112">
   <point/>
  </object>
  <object id="1348" name="3" type="Enemy" x="5648" y="2176">
   <point/>
  </object>
  <object id="1349" name="4" type="Enemy" x="5568" y="2240">
   <point/>
  </object>
  <object id="1350" name="3" type="Enemy" x="5616" y="2240">
   <point/>
  </object>
  <object id="1351" name="3" type="Enemy" x="5680" y="2240">
   <point/>
  </object>
  <object id="1352" name="4" type="Enemy" x="5728" y="2240">
   <point/>
  </object>
  <object id="1353" name="0" type="Enemy" x="5616" y="2128">
   <point/>
  </object>
  <object id="1354" name="0" type="Enemy" x="5680" y="2128">
   <point/>
  </object>
  <object id="1355" name="1" type="Enemy" x="5600" y="2016">
   <point/>
  </object>
  <object id="1356" name="1" type="Enemy" x="5696" y="2016">
   <point/>
  </object>
  <object id="1357" name="0" type="Enemy" x="5616" y="1872">
   <point/>
  </object>
  <object id="1358" name="0" type="Enemy" x="5680" y="1872">
   <point/>
  </object>
  <object id="1359" name="3" type="Enemy" x="5648" y="1984">
   <point/>
  </object>
  <object id="1360" name="4" type="Enemy" x="4880" y="1280">
   <point/>
  </object>
  <object id="1361" name="3" type="Enemy" x="4880" y="1376">
   <point/>
  </object>
  <object id="1362" name="3" type="Enemy" x="4912" y="1344">
   <point/>
  </object>
  <object id="1363" name="7" type="Enemy" x="4976" y="1312">
   <point/>
  </object>
  <object id="1364" name="3" type="Enemy" x="5040" y="1344">
   <point/>
  </object>
  <object id="1365" name="4" type="Enemy" x="5072" y="1280">
   <point/>
  </object>
  <object id="1366" name="3" type="Enemy" x="5072" y="1376">
   <point/>
  </object>
  <object id="1367" name="4" type="Enemy" x="5008" y="1376">
   <point/>
  </object>
  <object id="1368" name="4" type="Enemy" x="4944" y="1376">
   <point/>
  </object>
  <object id="1369" name="1" type="Enemy" x="4944" y="1248">
   <point/>
  </object>
  <object id="1370" name="1" type="Enemy" x="5008" y="1248">
   <point/>
  </object>
  <object id="1371" name="0" type="Enemy" x="4976" y="1280">
   <point/>
  </object>
  <object id="1372" name="7" type="Enemy" x="3856" y="1504">
   <point/>
  </object>
  <object id="1373" name="4" type="Enemy" x="3920" y="1536">
   <point/>
  </object>
  <object id="1374" name="4" type="Enemy" x="4016" y="1536">
   <point/>
  </object>
  <object id="1375" name="7" type="Enemy" x="4080" y="1504">
   <point/>
  </object>
  <object id="1376" name="1" type="Enemy" x="4000" y="1488">
   <point/>
  </object>
  <object id="1377" name="1" type="Enemy" x="3936" y="1488">
   <point/>
  </object>
  <object id="1378" name="3" type="Enemy" x="3888" y="1600">
   <point/>
  </object>
  <object id="1379" name="5" type="Enemy" x="3968" y="1600">
   <point/>
  </object>
  <object id="1380" name="3" type="Enemy" x="4048" y="1600">
   <point/>
  </object>
  <object id="1381" name="4" type="Enemy" x="5360" y="1600">
   <point/>
  </object>
  <object id="1382" name="6" type="Enemy" x="5360" y="1504">
   <point/>
  </object>
  <object id="1383" name="6" type="Enemy" x="5424" y="1536">
   <point/>
  </object>
  <object id="1384" name="3" type="Enemy" x="5488" y="1504">
   <point/>
  </object>
  <object id="1385" name="6" type="Enemy" x="5552" y="1536">
   <point/>
  </object>
  <object id="1386" name="6" type="Enemy" x="5616" y="1504">
   <point/>
  </object>
  <object id="1387" name="4" type="Enemy" x="5616" y="1600">
   <point/>
  </object>
  <object id="1388" name="3" type="Enemy" x="5488" y="1568">
   <point/>
  </object>
  <object id="1389" name="6" type="Enemy" x="5488" y="1632">
   <point/>
  </object>
  <object id="1390" name="3" type="Enemy" x="5424" y="1664">
   <point/>
  </object>
  <object id="1391" name="3" type="Enemy" x="5552" y="1664">
   <point/>
  </object>
  <object id="1392" name="0" type="Enemy" x="5424" y="1616">
   <point/>
  </object>
  <object id="1393" name="0" type="Enemy" x="5552" y="1616">
   <point/>
  </object>
  <object id="1394" name="1" type="Enemy" x="5552" y="1488">
   <point/>
  </object>
  <object id="1395" name="1" type="Enemy" x="5424" y="1488">
   <point/>
  </object>
  <object id="1396" name="3" type="Enemy" x="5488" y="1696">
   <point/>
  </object>
  <object id="1397" name="3" type="Enemy" x="5392" y="1696">
   <point/>
  </object>
  <object id="1398" name="3" type="Enemy" x="5584" y="1696">
   <point/>
  </object>
  <object id="1399" name="4" type="Enemy" x="4272" y="1184">
   <point/>
  </object>
  <object id="1400" name="7" type="Enemy" x="4272" y="1088">
   <point/>
  </object>
  <object id="1401" name="3" type="Enemy" x="4336" y="1120">
   <point/>
  </object>
  <object id="1402" name="3" type="Enemy" x="4400" y="1120">
   <point/>
  </object>
  <object id="1403" name="7" type="Enemy" x="4464" y="1088">
   <point/>
  </object>
  <object id="1404" name="4" type="Enemy" x="4464" y="1184">
   <point/>
  </object>
  <object id="1405" name="3" type="Enemy" x="4432" y="1248">
   <point/>
  </object>
  <object id="1406" name="3" type="Enemy" x="4304" y="1248">
   <point/>
  </object>
  <object id="1407" name="6" type="Enemy" x="4368" y="1216">
   <point/>
  </object>
  <object id="1408" name="3" type="Enemy" x="4352" y="1280">
   <point/>
  </object>
  <object id="1409" name="3" type="Enemy" x="4384" y="1280">
   <point/>
  </object>
  <object id="1410" name="0" type="Enemy" x="4416" y="1168">
   <point/>
  </object>
  <object id="1411" name="0" type="Enemy" x="4320" y="1168">
   <point/>
  </object>
  <object id="1412" name="1" type="Enemy" x="4432" y="1072">
   <point/>
  </object>
  <object id="1413" name="1" type="Enemy" x="4304" y="1072">
   <point/>
  </object>
  <object id="1414" name="4" type="Enemy" x="2192" y="640">
   <point/>
  </object>
  <object id="1415" name="3" type="Enemy" x="2256" y="640">
   <point/>
  </object>
  <object id="1416" name="7" type="Enemy" x="2256" y="736">
   <point/>
  </object>
  <object id="1417" name="6" type="Enemy" x="2352" y="704">
   <point/>
  </object>
  <object id="1418" name="3" type="Enemy" x="2384" y="768">
   <point/>
  </object>
  <object id="1419" name="4" type="Enemy" x="2416" y="832">
   <point/>
  </object>
  <object id="1420" name="3" type="Enemy" x="2320" y="800">
   <point/>
  </object>
  <object id="1421" name="7" type="Enemy" x="2224" y="832">
   <point/>
  </object>
  <object id="1422" name="3" type="Enemy" x="2192" y="768">
   <point/>
  </object>
  <object id="1423" name="4" type="Enemy" x="2288" y="864">
   <point/>
  </object>
  <object id="1424" name="3" type="Enemy" x="2352" y="864">
   <point/>
  </object>
  <object id="1425" name="0" type="Enemy" x="2304" y="720">
   <point/>
  </object>
  <object id="1426" name="0" type="Enemy" x="2208" y="704">
   <point/>
  </object>
  <object id="1427" name="1" type="Enemy" x="2320" y="640">
   <point/>
  </object>
  <object id="1428" name="2" type="Enemy" x="2400" y="640">
   <point/>
  </object>
  <object id="1429" name="4" type="Enemy" x="4208" y="640">
   <point/>
  </object>
  <object id="1430" name="8" type="Enemy" x="4400" y="608">
   <point/>
  </object>
  <object id="1431" name="3" type="Enemy" x="4368" y="672">
   <point/>
  </object>
  <object id="1432" name="3" type="Enemy" x="4272" y="704">
   <point/>
  </object>
  <object id="1433" name="4" type="Enemy" x="4240" y="768">
   <point/>
  </object>
  <object id="1434" name="3" type="Enemy" x="4336" y="736">
   <point/>
  </object>
  <object id="1435" name="4" type="Enemy" x="4400" y="768">
   <point/>
  </object>
  <object id="1436" name="3" type="Enemy" x="4368" y="800">
   <point/>
  </object>
  <object id="1437" name="3" type="Enemy" x="4288" y="800">
   <point/>
  </object>
  <object id="1438" name="0" type="Enemy" x="4256" y="624">
   <point/>
  </object>
  <object id="1439" name="1" type="Enemy" x="4320" y="592">
   <point/>
  </object>
  <object id="1440" name="0" type="Enemy" x="4320" y="656">
   <point/>
  </object>
  <object id="1441" name="4" type="Enemy" x="4880" y="896">
   <point/>
  </object>
  <object id="1442" name="6" type="Enemy" x="4912" y="800">
   <point/>
  </object>
  <object id="1443" name="6" type="Enemy" x="4976" y="768">
   <point/>
  </object>
  <object id="1444" name="7" type="Enemy" x="5008" y="832">
   <point/>
  </object>
  <object id="1445" name="4" type="Enemy" x="4944" y="864">
   <point/>
  </object>
  <object id="1446" name="4" type="Enemy" x="4976" y="928">
   <point/>
  </object>
  <object id="1447" name="4" type="Enemy" x="4912" y="960">
   <point/>
  </object>
  <object id="1448" name="3" type="Enemy" x="4976" y="992">
   <point/>
  </object>
  <object id="1449" name="2" type="Enemy" x="4896" y="752">
   <point/>
  </object>
  <object id="1450" name="4" type="Enemy" x="5360" y="608">
   <point/>
  </object>
  <object id="1451" name="4" type="Enemy" x="5456" y="608">
   <point/>
  </object>
  <object id="1452" name="4" type="Enemy" x="5552" y="608">
   <point/>
  </object>
  <object id="1453" name="7" type="Enemy" x="5488" y="672">
   <point/>
  </object>
  <object id="1454" name="7" type="Enemy" x="5424" y="672">
   <point/>
  </object>
  <object id="1455" name="4" type="Enemy" x="5360" y="704">
   <point/>
  </object>
  <object id="1456" name="4" type="Enemy" x="5392" y="768">
   <point/>
  </object>
  <object id="1457" name="4" type="Enemy" x="5456" y="736">
   <point/>
  </object>
  <object id="1458" name="4" type="Enemy" x="5520" y="768">
   <point/>
  </object>
  <object id="1459" name="4" type="Enemy" x="5552" y="704">
   <point/>
  </object>
  <object id="1460" name="3" type="Enemy" x="5360" y="800">
   <point/>
  </object>
  <object id="1461" name="3" type="Enemy" x="5552" y="800">
   <point/>
  </object>
  <object id="1462" name="4" type="Enemy" x="5424" y="800">
   <point/>
  </object>
  <object id="1463" name="4" type="Enemy" x="5488" y="800">
   <point/>
  </object>
  <object id="1464" name="2" type="Enemy" x="5408" y="576">
   <point/>
  </object>
  <object id="1465" name="2" type="Enemy" x="5504" y="576">
   <point/>
  </object>
  <object id="1466" name="3" type="Enemy" x="5360" y="960">
   <point/>
  </object>
  <object id="1467" name="3" type="Enemy" x="5424" y="960">
   <point/>
  </object>
  <object id="1468" name="3" type="Enemy" x="5488" y="960">
   <point/>
  </object>
  <object id="1469" name="3" type="Enemy" x="5584" y="992">
   <point/>
  </object>
  <object id="1470" name="3" type="Enemy" x="5424" y="1056">
   <point/>
  </object>
  <object id="1471" name="3" type="Enemy" x="5520" y="1056">
   <point/>
  </object>
  <object id="1472" name="3" type="Enemy" x="5360" y="1088">
   <point/>
  </object>
  <object id="1473" name="3" type="Enemy" x="5584" y="1088">
   <point/>
  </object>
  <object id="1474" name="3" type="Enemy" x="5488" y="1120">
   <point/>
  </object>
  <object id="1475" name="3" type="Enemy" x="5392" y="1152">
   <point/>
  </object>
  <object id="1476" name="3" type="Enemy" x="5456" y="1184">
   <point/>
  </object>
  <object id="1477" name="3" type="Enemy" x="5584" y="1152">
   <point/>
  </object>
  <object id="1478" name="3" type="Enemy" x="5616" y="1216">
   <point/>
  </object>
  <object id="1479" name="3" type="Enemy" x="5584" y="1248">
   <point/>
  </object>
  <object id="1480" name="3" type="Enemy" x="5520" y="1216">
   <point/>
  </object>
  <object id="1481" name="3" type="Enemy" x="5488" y="1280">
   <point/>
  </object>
  <object id="1482" name="3" type="Enemy" x="5424" y="1248">
   <point/>
  </object>
  <object id="1483" name="3" type="Enemy" x="5360" y="1280">
   <point/>
  </object>
  <object id="1484" name="3" type="Enemy" x="5392" y="1344">
   <point/>
  </object>
  <object id="1485" name="3" type="Enemy" x="5552" y="1344">
   <point/>
  </object>
  <object id="1486" name="3" type="Enemy" x="5616" y="1312">
   <point/>
  </object>
  <object id="1487" name="3" type="Enemy" x="5440" y="1376">
   <point/>
  </object>
  <object id="1488" name="3" type="Enemy" x="5504" y="1376">
   <point/>
  </object>
  <object id="1489" name="3" type="Enemy" x="5600" y="1376">
   <point/>
  </object>
  <object id="1490" name="2" type="Enemy" x="5472" y="1024">
   <point/>
  </object>
  <object id="1491" name="2" type="Enemy" x="5376" y="1024">
   <point/>
  </object>
  <object id="1492" name="1" type="Enemy" x="5536" y="1152">
   <point/>
  </object>
  <object id="1493" name="0" type="Enemy" x="5552" y="1296">
   <point/>
  </object>
  <object id="1494" name="1" type="Enemy" x="5376" y="1216">
   <point/>
  </object>
  <object id="1495" name="4" type="Enemy" x="3120" y="1344">
   <point/>
  </object>
  <object id="1496" name="4" type="Enemy" x="3184" y="1312">
   <point/>
  </object>
  <object id="1497" name="3" type="Enemy" x="3216" y="1248">
   <point/>
  </object>
  <object id="1498" name="6" type="Enemy" x="3152" y="1184">
   <point/>
  </object>
  <object id="1499" name="3" type="Enemy" x="3120" y="1088">
   <point/>
  </object>
  <object id="1500" name="3" type="Enemy" x="3216" y="1056">
   <point/>
  </object>
  <object id="1501" name="3" type="Enemy" x="3312" y="1024">
   <point/>
  </object>
  <object id="1502" name="3" type="Enemy" x="3408" y="1056">
   <point/>
  </object>
  <object id="1503" name="3" type="Enemy" x="3312" y="1088">
   <point/>
  </object>
  <object id="1504" name="6" type="Enemy" x="3248" y="1152">
   <point/>
  </object>
  <object id="1505" name="6" type="Enemy" x="3312" y="1184">
   <point/>
  </object>
  <object id="1506" name="3" type="Enemy" x="3376" y="1152">
   <point/>
  </object>
  <object id="1507" name="3" type="Enemy" x="3504" y="1088">
   <point/>
  </object>
  <object id="1508" name="3" type="Enemy" x="3472" y="1184">
   <point/>
  </object>
  <object id="1509" name="6" type="Enemy" x="3504" y="1344">
   <point/>
  </object>
  <object id="1510" name="6" type="Enemy" x="3440" y="1312">
   <point/>
  </object>
  <object id="1511" name="6" type="Enemy" x="3408" y="1248">
   <point/>
  </object>
  <object id="1512" name="3" type="Enemy" x="3376" y="1376">
   <point/>
  </object>
  <object id="1513" name="3" type="Enemy" x="3312" y="1312">
   <point/>
  </object>
  <object id="1514" name="4" type="Enemy" x="3248" y="1376">
   <point/>
  </object>
  <object id="1515" name="5" type="Enemy" x="3152" y="1408">
   <point/>
  </object>
  <object id="1516" name="3" type="Enemy" x="3328" y="1408">
   <point/>
  </object>
  <object id="1517" name="3" type="Enemy" x="3472" y="1408">
   <point/>
  </object>
  <object id="1518" name="2" type="Enemy" x="3312" y="1248">
   <point/>
  </object>
  <object id="1519" name="2" type="Enemy" x="3200" y="1120">
   <point/>
  </object>
  <object id="1520" name="2" type="Enemy" x="3168" y="1008">
   <point/>
  </object>
  <object id="1521" name="2" type="Enemy" x="3472" y="1008">
   <point/>
  </object>
  <object id="1522" name="4" type="Enemy" x="3152" y="736">
   <point/>
  </object>
  <object id="1523" name="3" type="Enemy" x="3152" y="640">
   <point/>
  </object>
  <object id="1524" name="4" type="Enemy" x="3120" y="576">
   <point/>
  </object>
  <object id="1525" name="3" type="Enemy" x="3216" y="544">
   <point/>
  </object>
  <object id="1526" name="3" type="Enemy" x="3280" y="544">
   <point/>
  </object>
  <object id="1527" name="4" type="Enemy" x="3376" y="576">
   <point/>
  </object>
  <object id="1528" name="4" type="Enemy" x="3248" y="608">
   <point/>
  </object>
  <object id="1529" name="3" type="Enemy" x="3344" y="640">
   <point/>
  </object>
  <object id="1530" name="3" type="Enemy" x="3280" y="672">
   <point/>
  </object>
  <object id="1531" name="3" type="Enemy" x="3216" y="672">
   <point/>
  </object>
  <object id="1532" name="4" type="Enemy" x="3344" y="736">
   <point/>
  </object>
  <object id="1533" name="4" type="Enemy" x="3168" y="800">
   <point/>
  </object>
  <object id="1534" name="4" type="Enemy" x="3328" y="800">
   <point/>
  </object>
  <object id="1535" name="3" type="Enemy" x="3280" y="800">
   <point/>
  </object>
  <object id="1536" name="3" type="Enemy" x="3216" y="800">
   <point/>
  </object>
  <object id="1537" name="1" type="Enemy" x="3184" y="592">
   <point/>
  </object>
  <object id="1538" name="2" type="Enemy" x="3248" y="736">
   <point/>
  </object>
  <object id="1539" name="1" type="Enemy" x="3312" y="592">
   <point/>
  </object>
  <object id="1540" name="2" type="Enemy" x="3344" y="528">
   <point/>
  </object>
  <object id="1541" name="2" type="Enemy" x="3152" y="528">
   <point/>
  </object>
  <object id="1542" name="4" type="Enemy" x="3248" y="800">
   <point/>
  </object>
  <object id="1543" name="3" type="Enemy" x="3120" y="368">
   <point/>
  </object>
  <object id="1544" name="6" type="Enemy" x="3152" y="368">
   <point/>
  </object>
  <object id="1545" name="3" type="Enemy" x="3216" y="368">
   <point/>
  </object>
  <object id="1546" name="6" type="Enemy" x="3248" y="368">
   <point/>
  </object>
  <object id="1547" name="3" type="Enemy" x="3616" y="240">
   <point/>
  </object>
  <object id="1548" name="3" type="Enemy" x="3648" y="288">
   <point/>
  </object>
  <object id="1549" name="3" type="Enemy" x="3536" y="288">
   <point/>
  </object>
  <object id="1550" name="3" type="Enemy" x="3584" y="288">
   <point/>
  </object>
  <object id="1551" name="3" type="Enemy" x="3392" y="368">
   <point/>
  </object>
  <object id="1552" name="4" type="Enemy" x="3424" y="368">
   <point/>
  </object>
  <object id="1553" name="3" type="Enemy" x="3472" y="368">
   <point/>
  </object>
  <object id="1554" name="4" type="Enemy" x="3520" y="368">
   <point/>
  </object>
  <object id="1555" name="7" type="Enemy" x="3312" y="320">
   <point/>
  </object>
  <object id="1556" name="4" type="Enemy" x="3360" y="320">
   <point/>
  </object>
  <object id="1557" name="3" type="Enemy" x="3424" y="320">
   <point/>
  </object>
  <object id="1558" name="4" type="Enemy" x="3184" y="256">
   <point/>
  </object>
  <object id="1559" name="3" type="Enemy" x="3248" y="256">
   <point/>
  </object>
  <object id="1560" name="3" type="Enemy" x="3216" y="256">
   <point/>
  </object>
  <object id="1561" name="8" type="Enemy" x="3312" y="192">
   <point/>
  </object>
  <object id="1562" name="6" type="Enemy" x="3344" y="192">
   <point/>
  </object>
  <object id="1563" name="8" type="Enemy" x="3392" y="192">
   <point/>
  </object>
  <object id="1564" name="3" type="Enemy" x="3440" y="224">
   <point/>
  </object>
  <object id="1565" name="4" type="Enemy" x="3488" y="224">
   <point/>
  </object>
  <object id="1566" name="4" type="Enemy" x="3184" y="416">
   <point/>
  </object>
  <object id="1567" name="5" type="Enemy" x="3136" y="416">
   <point/>
  </object>
  <object id="1568" name="5" type="Enemy" x="3248" y="416">
   <point/>
  </object>
  <object id="1569" name="4" type="Enemy" x="3312" y="416">
   <point/>
  </object>
  <object id="1570" name="5" type="Enemy" x="3376" y="416">
   <point/>
  </object>
  <object id="1571" name="3" type="Enemy" x="3488" y="416">
   <point/>
  </object>
  <object id="1572" name="4" type="Enemy" x="3424" y="416">
   <point/>
  </object>
  <object id="1573" name="5" type="Enemy" x="3568" y="416">
   <point/>
  </object>
  <object id="1574" name="4" type="Enemy" x="3648" y="416">
   <point/>
  </object>
  <object id="1575" name="2" type="Enemy" x="3120" y="128">
   <point/>
  </object>
  <object id="1576" name="0" type="Enemy" x="3216" y="112">
   <point/>
  </object>
  <object id="1577" name="1" type="Enemy" x="3520" y="96">
   <point/>
  </object>
  <object id="1578" name="2" type="Enemy" x="3632" y="144">
   <point/>
  </object>
  <object id="1579" name="2" type="Enemy" x="3424" y="96">
   <point/>
  </object>
  <object id="1580" name="1" type="Enemy" x="3328" y="96">
   <point/>
  </object>
  <object id="1581" name="1" type="Enemy" x="3184" y="192">
   <point/>
  </object>
  <object id="1582" name="2" type="Enemy" x="3104" y="256">
   <point/>
  </object>
  <object id="1583" name="3" type="Enemy" x="3568" y="192">
   <point/>
  </object>
  <object id="1584" name="3" type="Enemy" x="3936" y="240">
   <point/>
  </object>
  <object id="1585" name="3" type="Enemy" x="3856" y="224">
   <point/>
  </object>
  <object id="1586" name="7" type="Enemy" x="3888" y="224">
   <point/>
  </object>
  <object id="1587" name="4" type="Enemy" x="3744" y="192">
   <point/>
  </object>
  <object id="1588" name="3" type="Enemy" x="3808" y="192">
   <point/>
  </object>
  <object id="1589" name="3" type="Enemy" x="3776" y="192">
   <point/>
  </object>
  <object id="1590" name="2" type="Enemy" x="3744" y="128">
   <point/>
  </object>
  <object id="1591" name="3" type="Enemy" x="3936" y="160">
   <point/>
  </object>
  <object id="1592" name="4" type="Enemy" x="3984" y="160">
   <point/>
  </object>
  <object id="1593" name="2" type="Enemy" x="3824" y="80">
   <point/>
  </object>
  <object id="1594" name="2" type="Enemy" x="3936" y="96">
   <point/>
  </object>
  <object id="1595" name="2" type="Enemy" x="4032" y="80">
   <point/>
  </object>
  <object id="1596" name="2" type="Enemy" x="4096" y="112">
   <point/>
  </object>
  <object id="1597" name="2" type="Enemy" x="4160" y="80">
   <point/>
  </object>
  <object id="1598" name="2" type="Enemy" x="4224" y="96">
   <point/>
  </object>
  <object id="1599" name="2" type="Enemy" x="4288" y="64">
   <point/>
  </object>
  <object id="1600" name="8" type="Enemy" x="4272" y="128">
   <point/>
  </object>
  <object id="1601" name="3" type="Enemy" x="4304" y="128">
   <point/>
  </object>
  <object id="1602" name="3" type="Enemy" x="4256" y="176">
   <point/>
  </object>
  <object id="1603" name="4" type="Enemy" x="4192" y="176">
   <point/>
  </object>
  <object id="1604" name="6" type="Enemy" x="4032" y="208">
   <point/>
  </object>
  <object id="1605" name="3" type="Enemy" x="4080" y="208">
   <point/>
  </object>
  <object id="1606" name="4" type="Enemy" x="4128" y="224">
   <point/>
  </object>
  <object id="1607" name="3" type="Enemy" x="4192" y="224">
   <point/>
  </object>
  <object id="1608" name="3" type="Enemy" x="4304" y="240">
   <point/>
  </object>
  <object id="1609" name="1" type="Enemy" x="4112" y="176">
   <point/>
  </object>
  <object id="1610" name="2" type="Enemy" x="3856" y="144">
   <point/>
  </object>
  <object id="1611" name="5" type="Enemy" x="3760" y="288">
   <point/>
  </object>
  <object id="1612" name="5" type="Enemy" x="3808" y="288">
   <point/>
  </object>
  <object id="1613" name="5" type="Enemy" x="3872" y="288">
   <point/>
  </object>
  <object id="1614" name="4" type="Enemy" x="3936" y="288">
   <point/>
  </object>
  <object id="1615" name="3" type="Enemy" x="4032" y="288">
   <point/>
  </object>
  <object id="1616" name="4" type="Enemy" x="4096" y="288">
   <point/>
  </object>
  <object id="1617" name="3" type="Enemy" x="4160" y="288">
   <point/>
  </object>
  <object id="1618" name="4" type="Enemy" x="4240" y="288">
   <point/>
  </object>
 </objectgroup>
 <objectgroup id="8" name="Trigger" visible="0">
  <object id="751" name="1" type="Camera" x="768" y="1440" width="288" height="160"/>
  <object id="752" name="16" type="Camera" x="1248" y="1056" width="288" height="192"/>
  <object id="753" name="32" type="Camera" x="1376" y="544" width="288" height="320"/>
  <object id="754" name="25" type="Camera" x="2176" y="576" width="256" height="288"/>
  <object id="755" name="15" type="Camera" x="2112" y="1056" width="256" height="224"/>
  <object id="756" name="17" type="Camera" x="3104" y="960" width="416" height="448"/>
  <object id="759" name="24" type="Camera" x="3104" y="480" width="288" height="320"/>
  <object id="760" name="23" type="Camera" x="4192" y="544" width="256" height="256"/>
  <object id="762" name="22" type="Camera" x="5344" y="544" width="224" height="256"/>
  <object id="763" name="21" type="Camera" x="4864" y="704" width="160" height="288"/>
  <object id="764" name="20" type="Camera" x="5344" y="896" width="288" height="480"/>
  <object id="765" name="19" type="Camera" x="4864" y="1216" width="224" height="160"/>
  <object id="766" name="18" type="Camera" x="4256" y="1024" width="224" height="256"/>
  <object id="768" name="13" type="Camera" x="3840" y="1440" width="256" height="160"/>
  <object id="769" name="14" type="Camera" x="5344" y="1440" width="288" height="256"/>
  <object id="770" name="12" type="Camera" x="5120" y="1760" width="224" height="160"/>
  <object id="771" name="11" type="Camera" x="5536" y="1824" width="224" height="416"/>
  <object id="773" name="10" type="Camera" x="4864" y="2048" width="224" height="160"/>
  <object id="774" name="6" type="Camera" x="3968" y="1984" width="224" height="224"/>
  <object id="775" name="9" type="Camera" x="3936" y="1696" width="224" height="160"/>
  <object id="776" name="5" type="Camera" x="3232" y="1952" width="256" height="288"/>
  <object id="777" name="7" type="Camera" x="3200" y="1696" width="288" height="160"/>
  <object id="778" name="4" type="Camera" x="2816" y="2048" width="224" height="160"/>
  <object id="779" name="3" type="Camera" x="2208" y="2016" width="224" height="160"/>
  <object id="780" name="2" type="Camera" x="1408" y="1888" width="192" height="288"/>
  <object id="781" name="26" type="Camera" x="1216" y="320" width="256" height="64"/>
  <object id="782" name="27" type="Camera" x="672" y="32" width="832" height="256"/>
  <object id="783" name="28" type="Camera" x="3072" y="32" width="608" height="382"/>
  <object id="784" name="29" type="Camera" x="3712" y="32" width="608" height="256"/>
  <object id="785" name="30" type="Camera" x="4800" y="16" width="768" height="400"/>
  <object id="883" name="8" type="Camera" x="2560" y="1472" width="192" height="192"/>
  <object id="884" name="8" type="Camera" x="4544" y="1472" width="192" height="192"/>
  <object id="1012" type="EndLevel" x="5600" y="352" width="352" height="64"/>
  <object id="1163" type="Jet" x="4960" y="384" width="16" height="32"/>
  <object id="1165" type="Jet" x="5392" y="384" width="16" height="32"/>
 </objectgroup>
</map>
